
(Created with svg2gcode_grbl)
(https://github.com/arcadeperfect/svg2gcode_grbl)


(forked from svg2gcode by visphat)
(https://github.com/vishpat/svg2gcode)


F1000

(shape preamble)

G0 X12.827 Y29.990 Z0.000
G1 X12.827 Y29.990 Z4.000
G1 X13.692 Y30.760 Z4.000
G1 X28.159 Y29.124 Z4.000
G1 X26.524 Y14.657 Z4.000
G1 X12.057 Y16.293 Z4.000
G1 X13.692 Y30.760 Z4.000
G0 X13.692 Y30.760 Z0.000

(shape postamble)


(shape preamble)

G0 X12.227 Y31.655 Z0.000
G1 X12.227 Y31.655 Z4.000
G1 X26.195 Y32.197 Z4.000
G1 X27.327 Y17.681 Z4.000
G1 X12.812 Y16.549 Z4.000
G1 X11.680 Y31.064 Z4.000
G1 X26.195 Y32.197 Z4.000
G0 X26.195 Y32.197 Z0.000

(shape postamble)


(shape preamble)

G0 X22.848 Y31.937 Z0.000
G1 X22.848 Y31.937 Z4.000
G1 X8.333 Y30.805 Z4.000
G1 X9.466 Y16.290 Z4.000
G1 X23.981 Y17.422 Z4.000
G1 X22.848 Y31.937 Z4.000
G1 X8.876 Y31.394 Z4.000
G0 X8.876 Y31.394 Z0.000

(shape postamble)


(shape preamble)

G0 X8.517 Y31.348 Z0.000
G1 X8.517 Y31.348 Z4.000
G1 X6.881 Y16.881 Z4.000
G1 X21.348 Y15.246 Z4.000
G1 X22.984 Y29.713 Z4.000
G1 X8.517 Y31.348 Z4.000
G1 X7.652 Y30.575 Z4.000
G0 X7.652 Y30.575 Z0.000

(shape postamble)


(shape preamble)

G0 X5.528 Y31.133 Z0.000
G1 X5.528 Y31.133 Z4.000
G1 X19.499 Y31.673 Z4.000
G1 X20.631 Y17.158 Z4.000
G1 X6.116 Y16.026 Z4.000
G1 X4.984 Y30.541 Z4.000
G1 X19.499 Y31.673 Z4.000
G0 X19.499 Y31.673 Z0.000

(shape postamble)


(shape preamble)

G0 X18.868 Y30.175 Z0.000
G1 X18.868 Y30.175 Z4.000
G1 X17.232 Y15.708 Z4.000
G1 X31.699 Y14.073 Z4.000
G1 X33.335 Y28.540 Z4.000
G1 X18.868 Y30.175 Z4.000
G1 X18.002 Y29.404 Z4.000
G0 X18.002 Y29.404 Z0.000

(shape postamble)


(shape preamble)

G0 X17.297 Y30.325 Z0.000
G1 X17.297 Y30.325 Z4.000
G1 X31.856 Y30.325 Z4.000
G1 X31.856 Y15.766 Z4.000
G1 X17.297 Y15.766 Z4.000
G1 X17.297 Y30.325 Z4.000
G0 X17.297 Y30.325 Z0.000

(shape postamble)


(shape preamble)

G0 X16.145 Y31.413 Z0.000
G1 X16.145 Y31.413 Z4.000
G1 X1.630 Y30.281 Z4.000
G1 X2.762 Y15.766 Z4.000
G1 X17.277 Y16.898 Z4.000
G1 X16.145 Y31.413 Z4.000
G1 X2.177 Y30.868 Z4.000
G0 X2.177 Y30.868 Z0.000

(shape postamble)


(shape preamble)

G0 X2.477 Y31.157 Z0.000
G1 X2.477 Y31.157 Z4.000
G1 X3.341 Y31.929 Z4.000
G1 X17.808 Y30.294 Z4.000
G1 X16.172 Y15.827 Z4.000
G1 X1.705 Y17.462 Z4.000
G1 X3.341 Y31.929 Z4.000
G0 X3.341 Y31.929 Z0.000

(shape postamble)


(shape preamble)

G0 X2.961 Y28.592 Z0.000
G1 X2.961 Y28.592 Z4.000
G1 X1.326 Y14.125 Z4.000
G1 X15.793 Y12.490 Z4.000
G1 X17.428 Y26.957 Z4.000
G1 X2.961 Y28.592 Z4.000
G1 X2.099 Y27.820 Z4.000
G0 X2.099 Y27.820 Z0.000

(shape postamble)


(shape preamble)

G0 X1.672 Y26.963 Z0.000
G1 X1.672 Y26.963 Z4.000
G1 X16.231 Y26.963 Z4.000
G1 X16.231 Y12.404 Z4.000
G1 X1.672 Y12.404 Z4.000
G1 X1.672 Y26.963 Z4.000
G0 X1.672 Y26.963 Z0.000

(shape postamble)


(shape preamble)

G0 X2.582 Y25.679 Z0.000
G1 X2.582 Y25.679 Z4.000
G1 X16.556 Y26.224 Z4.000
G1 X17.688 Y11.709 Z4.000
G1 X3.173 Y10.577 Z4.000
G1 X2.040 Y25.092 Z4.000
G1 X16.556 Y26.224 Z4.000
G0 X16.556 Y26.224 Z0.000

(shape postamble)


(shape preamble)

G0 X15.981 Y26.723 Z0.000
G1 X15.981 Y26.723 Z4.000
G1 X29.949 Y27.266 Z4.000
G1 X31.081 Y12.751 Z4.000
G1 X16.566 Y11.619 Z4.000
G1 X15.434 Y26.134 Z4.000
G1 X29.949 Y27.266 Z4.000
G0 X29.949 Y27.266 Z0.000

(shape postamble)


(shape preamble)

G0 X26.602 Y27.007 Z0.000
G1 X26.602 Y27.007 Z4.000
G1 X12.087 Y25.875 Z4.000
G1 X13.219 Y11.359 Z4.000
G1 X27.734 Y12.492 Z4.000
G1 X26.602 Y27.007 Z4.000
G1 X12.629 Y26.462 Z4.000
G0 X12.629 Y26.462 Z0.000

(shape postamble)


(shape preamble)

G0 X12.450 Y26.649 Z0.000
G1 X12.450 Y26.649 Z4.000
G1 X13.312 Y27.419 Z4.000
G1 X27.779 Y25.784 Z4.000
G1 X26.144 Y11.317 Z4.000
G1 X11.677 Y12.952 Z4.000
G1 X13.312 Y27.419 Z4.000
G0 X13.312 Y27.419 Z0.000

(shape postamble)


(shape preamble)

G0 X12.090 Y26.963 Z0.000
G1 X12.090 Y26.963 Z4.000
G1 X26.649 Y26.963 Z4.000
G1 X26.649 Y12.404 Z4.000
G1 X12.090 Y12.404 Z4.000
G1 X12.090 Y26.963 Z4.000
G0 X12.090 Y26.963 Z0.000

(shape postamble)


(shape preamble)

G0 X9.282 Y26.201 Z0.000
G1 X9.282 Y26.201 Z4.000
G1 X23.252 Y26.747 Z4.000
G1 X24.384 Y12.232 Z4.000
G1 X9.869 Y11.100 Z4.000
G1 X8.737 Y25.615 Z4.000
G1 X23.252 Y26.747 Z4.000
G0 X23.252 Y26.747 Z0.000

(shape postamble)


(shape preamble)

G0 X19.902 Y26.484 Z0.000
G1 X19.902 Y26.484 Z4.000
G1 X5.387 Y25.352 Z4.000
G1 X6.519 Y10.836 Z4.000
G1 X21.034 Y11.969 Z4.000
G1 X19.902 Y26.484 Z4.000
G1 X5.934 Y25.940 Z4.000
G0 X5.934 Y25.940 Z0.000

(shape postamble)


(shape preamble)

G0 X6.879 Y26.963 Z0.000
G1 X6.879 Y26.963 Z4.000
G1 X21.438 Y26.963 Z4.000
G1 X21.438 Y12.404 Z4.000
G1 X6.879 Y12.404 Z4.000
G1 X6.879 Y26.963 Z4.000
G0 X6.879 Y26.963 Z0.000

(shape postamble)


(shape preamble)

G0 X7.274 Y27.234 Z0.000
G1 X7.274 Y27.234 Z4.000
G1 X8.137 Y28.007 Z4.000
G1 X22.604 Y26.372 Z4.000
G1 X20.968 Y11.905 Z4.000
G1 X6.501 Y13.540 Z4.000
G1 X8.137 Y28.007 Z4.000
G0 X8.137 Y28.007 Z0.000

(shape postamble)


(shape preamble)

G0 X7.761 Y24.670 Z0.000
G1 X7.761 Y24.670 Z4.000
G1 X6.125 Y10.203 Z4.000
G1 X20.592 Y8.568 Z4.000
G1 X22.228 Y23.035 Z4.000
G1 X7.761 Y24.670 Z4.000
G1 X6.897 Y23.897 Z4.000
G0 X6.897 Y23.897 Z0.000

(shape postamble)


(shape preamble)

G0 X6.879 Y23.604 Z0.000
G1 X6.879 Y23.604 Z4.000
G1 X21.438 Y23.604 Z4.000
G1 X21.438 Y9.045 Z4.000
G1 X6.879 Y9.045 Z4.000
G1 X6.879 Y23.604 Z4.000
G0 X6.879 Y23.604 Z0.000

(shape postamble)


(shape preamble)

G0 X7.385 Y21.333 Z0.000
G1 X7.385 Y21.333 Z4.000
G1 X5.749 Y6.866 Z4.000
G1 X20.216 Y5.230 Z4.000
G1 X21.852 Y19.697 Z4.000
G1 X7.385 Y21.333 Z4.000
G1 X6.519 Y20.560 Z4.000
G0 X6.519 Y20.560 Z0.000

(shape postamble)


(shape preamble)

G0 X6.336 Y20.747 Z0.000
G1 X6.336 Y20.747 Z4.000
G1 X20.309 Y21.294 Z4.000
G1 X21.441 Y6.779 Z4.000
G1 X6.926 Y5.647 Z4.000
G1 X5.794 Y20.162 Z4.000
G1 X20.309 Y21.294 Z4.000
G0 X20.309 Y21.294 Z0.000

(shape postamble)


(shape preamble)

G0 X17.736 Y20.160 Z0.000
G1 X17.736 Y20.160 Z4.000
G1 X16.100 Y5.693 Z4.000
G1 X30.567 Y4.057 Z4.000
G1 X32.203 Y18.524 Z4.000
G1 X17.736 Y20.160 Z4.000
G1 X16.870 Y19.389 Z4.000
G0 X16.870 Y19.389 Z0.000

(shape postamble)


(shape preamble)

G0 X17.297 Y20.246 Z0.000
G1 X17.297 Y20.246 Z4.000
G1 X31.856 Y20.246 Z4.000
G1 X31.856 Y5.687 Z4.000
G1 X17.297 Y5.687 Z4.000
G1 X17.297 Y20.246 Z4.000
G0 X17.297 Y20.246 Z0.000

(shape postamble)


(shape preamble)

G0 X16.959 Y21.031 Z0.000
G1 X16.959 Y21.031 Z4.000
G1 X2.444 Y19.898 Z4.000
G1 X3.576 Y5.383 Z4.000
G1 X18.091 Y6.516 Z4.000
G1 X16.959 Y21.031 Z4.000
G1 X2.988 Y20.486 Z4.000
G0 X2.988 Y20.486 Z0.000

(shape postamble)


(shape preamble)

G0 X1.672 Y20.246 Z0.000
G1 X1.672 Y20.246 Z4.000
G1 X16.231 Y20.246 Z4.000
G1 X16.231 Y5.687 Z4.000
G1 X1.672 Y5.687 Z4.000
G1 X1.672 Y20.246 Z4.000
G0 X1.672 Y20.246 Z0.000

(shape postamble)


(shape preamble)

G0 X1.344 Y21.142 Z0.000
G1 X1.344 Y21.142 Z4.000
G1 X2.209 Y21.914 Z4.000
G1 X16.676 Y20.279 Z4.000
G1 X15.040 Y5.812 Z4.000
G1 X0.573 Y7.447 Z4.000
G1 X2.209 Y21.914 Z4.000
G0 X2.209 Y21.914 Z0.000

(shape postamble)


(shape preamble)

G0 X1.672 Y23.604 Z0.000
G1 X1.672 Y23.604 Z4.000
G1 X16.231 Y23.604 Z4.000
G1 X16.231 Y9.045 Z4.000
G1 X1.672 Y9.045 Z4.000
G1 X1.672 Y23.604 Z4.000
G0 X1.672 Y23.604 Z0.000

(shape postamble)


(shape preamble)

G0 X1.722 Y24.483 Z0.000
G1 X1.722 Y24.483 Z4.000
G1 X2.585 Y25.255 Z4.000
G1 X17.052 Y23.619 Z4.000
G1 X15.417 Y9.152 Z4.000
G1 X0.950 Y10.788 Z4.000
G1 X2.585 Y25.255 Z4.000
G0 X2.585 Y25.255 Z0.000

(shape postamble)


(shape preamble)

G0 X6.879 Y20.246 Z0.000
G1 X6.879 Y20.246 Z4.000
G1 X21.438 Y20.246 Z4.000
G1 X21.438 Y5.687 Z4.000
G1 X6.879 Y5.687 Z4.000
G1 X6.879 Y20.246 Z4.000
G0 X6.879 Y20.246 Z0.000

(shape postamble)


(shape preamble)

G0 X7.005 Y17.992 Z0.000
G1 X7.005 Y17.992 Z4.000
G1 X5.369 Y3.525 Z4.000
G1 X19.836 Y1.890 Z4.000
G1 X21.472 Y16.357 Z4.000
G1 X7.005 Y17.992 Z4.000
G1 X6.142 Y17.219 Z4.000
G0 X6.142 Y17.219 Z0.000

(shape postamble)


(shape preamble)

G0 X6.879 Y16.884 Z0.000
G1 X6.879 Y16.884 Z4.000
G1 X21.438 Y16.884 Z4.000
G1 X21.438 Y2.325 Z4.000
G1 X6.879 Y2.325 Z4.000
G1 X6.879 Y16.884 Z4.000
G0 X6.879 Y16.884 Z0.000

(shape postamble)


(shape preamble)

G0 X6.742 Y15.554 Z0.000
G1 X6.742 Y15.554 Z4.000
G1 X20.713 Y16.101 Z4.000
G1 X21.845 Y1.586 Z4.000
G1 X7.330 Y0.453 Z4.000
G1 X6.198 Y14.968 Z4.000
G1 X20.713 Y16.101 Z4.000
G0 X20.713 Y16.101 Z0.000

(shape postamble)


(shape preamble)

G0 X24.059 Y16.360 Z0.000
G1 X24.059 Y16.360 Z4.000
G1 X9.544 Y15.228 Z4.000
G1 X10.676 Y0.713 Z4.000
G1 X25.191 Y1.845 Z4.000
G1 X24.059 Y16.360 Z4.000
G1 X10.093 Y15.815 Z4.000
G0 X10.093 Y15.815 Z0.000

(shape postamble)


(shape preamble)

G0 X11.317 Y16.633 Z0.000
G1 X11.317 Y16.633 Z4.000
G1 X12.180 Y17.404 Z4.000
G1 X26.647 Y15.768 Z4.000
G1 X25.012 Y1.301 Z4.000
G1 X10.545 Y2.937 Z4.000
G1 X12.180 Y17.404 Z4.000
G0 X12.180 Y17.404 Z0.000

(shape postamble)


(shape preamble)

G0 X12.090 Y16.884 Z0.000
G1 X12.090 Y16.884 Z4.000
G1 X26.649 Y16.884 Z4.000
G1 X26.649 Y2.325 Z4.000
G1 X12.090 Y2.325 Z4.000
G1 X12.090 Y16.884 Z4.000
G0 X12.090 Y16.884 Z0.000

(shape postamble)


(shape preamble)

G0 X13.441 Y16.076 Z0.000
G1 X13.441 Y16.076 Z4.000
G1 X27.409 Y16.624 Z4.000
G1 X28.541 Y2.109 Z4.000
G1 X14.026 Y0.976 Z4.000
G1 X12.894 Y15.491 Z4.000
G1 X27.409 Y16.624 Z4.000
G0 X27.409 Y16.624 Z0.000

(shape postamble)


(shape preamble)

G0 X30.763 Y16.884 Z0.000
G1 X30.763 Y16.884 Z4.000
G1 X16.248 Y15.751 Z4.000
G1 X17.380 Y1.236 Z4.000
G1 X31.895 Y2.369 Z4.000
G1 X30.763 Y16.884 Z4.000
G1 X16.792 Y16.341 Z4.000
G0 X16.792 Y16.341 Z0.000

(shape postamble)


(shape preamble)

G0 X16.492 Y16.048 Z0.000
G1 X16.492 Y16.048 Z4.000
G1 X17.356 Y16.819 Z4.000
G1 X31.823 Y15.184 Z4.000
G1 X30.187 Y0.717 Z4.000
G1 X15.720 Y2.352 Z4.000
G1 X17.356 Y16.819 Z4.000
G0 X17.356 Y16.819 Z0.000

(shape postamble)


(shape preamble)

G0 X17.297 Y16.884 Z0.000
G1 X17.297 Y16.884 Z4.000
G1 X31.856 Y16.884 Z4.000
G1 X31.856 Y2.325 Z4.000
G1 X17.297 Y2.325 Z4.000
G1 X17.297 Y16.884 Z4.000
G0 X17.297 Y16.884 Z0.000

(shape postamble)


(shape preamble)

G0 X17.363 Y15.837 Z0.000
G1 X17.363 Y15.837 Z4.000
G1 X2.848 Y14.705 Z4.000
G1 X3.980 Y0.190 Z4.000
G1 X18.495 Y1.322 Z4.000
G1 X17.363 Y15.837 Z4.000
G1 X3.394 Y15.293 Z4.000
G0 X3.394 Y15.293 Z0.000

(shape postamble)


(shape preamble)

G0 X1.672 Y16.884 Z0.000
G1 X1.672 Y16.884 Z4.000
G1 X16.231 Y16.884 Z4.000
G1 X16.231 Y2.325 Z4.000
G1 X1.672 Y2.325 Z4.000
G1 X1.672 Y16.884 Z4.000
G0 X1.672 Y16.884 Z0.000

(shape postamble)


(shape preamble)

G0 X0.967 Y17.805 Z0.000
G1 X0.967 Y17.805 Z4.000
G1 X1.829 Y18.577 Z4.000
G1 X16.296 Y16.941 Z4.000
G1 X14.661 Y2.474 Z4.000
G1 X0.194 Y4.110 Z4.000
G1 X1.829 Y18.577 Z4.000
G0 X1.829 Y18.577 Z0.000

(shape postamble)


(shape preamble)

G0 X9.687 Y21.008 Z0.000
G1 X9.687 Y21.008 Z4.000
G1 X23.656 Y21.554 Z4.000
G1 X24.788 Y7.039 Z4.000
G1 X10.273 Y5.906 Z4.000
G1 X9.141 Y20.422 Z4.000
G1 X23.656 Y21.554 Z4.000
G0 X23.656 Y21.554 Z0.000

(shape postamble)


(shape preamble)

G0 X27.006 Y21.817 Z0.000
G1 X27.006 Y21.817 Z4.000
G1 X12.490 Y20.685 Z4.000
G1 X13.623 Y6.170 Z4.000
G1 X28.138 Y7.302 Z4.000
G1 X27.006 Y21.817 Z4.000
G1 X13.035 Y21.269 Z4.000
G0 X13.035 Y21.269 Z0.000

(shape postamble)


(shape preamble)

G0 X12.560 Y20.745 Z0.000
G1 X12.560 Y20.745 Z4.000
G1 X10.925 Y6.278 Z4.000
G1 X25.392 Y4.642 Z4.000
G1 X27.027 Y19.109 Z4.000
G1 X12.560 Y20.745 Z4.000
G1 X11.695 Y19.974 Z4.000
G0 X11.695 Y19.974 Z0.000

(shape postamble)


(shape preamble)

G0 X12.090 Y20.246 Z0.000
G1 X12.090 Y20.246 Z4.000
G1 X26.649 Y20.246 Z4.000
G1 X26.649 Y5.687 Z4.000
G1 X12.090 Y5.687 Z4.000
G1 X12.090 Y20.246 Z4.000
G0 X12.090 Y20.246 Z0.000

(shape postamble)


(shape preamble)

G0 X12.072 Y23.312 Z0.000
G1 X12.072 Y23.312 Z4.000
G1 X12.936 Y24.082 Z4.000
G1 X27.403 Y22.446 Z4.000
G1 X25.768 Y7.979 Z4.000
G1 X11.301 Y9.615 Z4.000
G1 X12.936 Y24.082 Z4.000
G0 X12.936 Y24.082 Z0.000

(shape postamble)


(shape preamble)

G0 X12.090 Y23.604 Z0.000
G1 X12.090 Y23.604 Z4.000
G1 X26.649 Y23.604 Z4.000
G1 X26.649 Y9.045 Z4.000
G1 X12.090 Y9.045 Z4.000
G1 X12.090 Y23.604 Z4.000
G0 X12.090 Y23.604 Z0.000

(shape postamble)


(shape preamble)

G0 X16.387 Y21.530 Z0.000
G1 X16.387 Y21.530 Z4.000
G1 X30.356 Y22.077 Z4.000
G1 X31.488 Y7.562 Z4.000
G1 X16.973 Y6.429 Z4.000
G1 X15.841 Y20.945 Z4.000
G1 X30.356 Y22.077 Z4.000
G0 X30.356 Y22.077 Z0.000

(shape postamble)


(shape preamble)

G0 X29.545 Y32.460 Z0.000
G1 X29.545 Y32.460 Z4.000
G1 X15.030 Y31.328 Z4.000
G1 X16.162 Y16.813 Z4.000
G1 X30.677 Y17.945 Z4.000
G1 X29.545 Y32.460 Z4.000
G1 X15.575 Y31.916 Z4.000
G0 X15.575 Y31.916 Z0.000

(shape postamble)


(shape preamble)

G0 X17.297 Y26.963 Z0.000
G1 X17.297 Y26.963 Z4.000
G1 X31.856 Y26.963 Z4.000
G1 X31.856 Y12.404 Z4.000
G1 X17.297 Y12.404 Z4.000
G1 X17.297 Y26.963 Z4.000
G0 X17.297 Y26.963 Z0.000

(shape postamble)


(shape preamble)

G0 X17.625 Y26.067 Z0.000
G1 X17.625 Y26.067 Z4.000
G1 X18.488 Y26.838 Z4.000
G1 X32.955 Y25.202 Z4.000
G1 X31.320 Y10.735 Z4.000
G1 X16.853 Y12.371 Z4.000
G1 X18.488 Y26.838 Z4.000
G0 X18.488 Y26.838 Z0.000

(shape postamble)


(shape preamble)

G0 X18.112 Y23.497 Z0.000
G1 X18.112 Y23.497 Z4.000
G1 X16.476 Y9.030 Z4.000
G1 X30.943 Y7.395 Z4.000
G1 X32.579 Y21.862 Z4.000
G1 X18.112 Y23.497 Z4.000
G1 X17.247 Y22.726 Z4.000
G0 X17.247 Y22.726 Z0.000

(shape postamble)


(shape preamble)

G0 X17.297 Y23.604 Z0.000
G1 X17.297 Y23.604 Z4.000
G1 X31.856 Y23.604 Z4.000
G1 X31.856 Y9.045 Z4.000
G1 X17.297 Y9.045 Z4.000
G1 X17.297 Y23.604 Z4.000
G0 X17.297 Y23.604 Z0.000

(shape postamble)

 
(postamble)

(home)
G0 0
G0 X0 Y0
