
(Created with svg2gcode_grbl)
(https://github.com/arcadeperfect/svg2gcode_grbl)


(forked from svg2gcode by visphat)
(https://github.com/vishpat/svg2gcode)


F80000

(shape preamble)

G0 X36.555 Y88.565 Z4.000
G1 X36.555 Y88.565 Z0.000
G1 X36.555 Y20.443 Z0.000
G0 X36.555 Y20.443 Z4.000

(shape postamble)


(shape preamble)

G0 X35.662 Y20.443 Z4.000
G1 X35.662 Y20.443 Z0.000
G1 X32.607 Y20.443 Z0.000
G0 X32.607 Y20.443 Z4.000

(shape postamble)


(shape preamble)

G0 X30.335 Y20.443 Z4.000
G1 X30.335 Y20.443 Z0.000
G1 X30.335 Y88.565 Z0.000
G0 X30.335 Y88.565 Z4.000

(shape postamble)


(shape preamble)

G0 X24.119 Y88.565 Z4.000
G1 X24.119 Y88.565 Z0.000
G1 X24.119 Y20.443 Z0.000
G0 X24.119 Y20.443 Z4.000

(shape postamble)


(shape preamble)

G0 X23.266 Y20.443 Z4.000
G1 X23.266 Y20.443 Z0.000
G1 X20.211 Y20.443 Z0.000
G0 X20.211 Y20.443 Z4.000

(shape postamble)


(shape preamble)

G0 X17.900 Y20.443 Z4.000
G1 X17.900 Y20.443 Z0.000
G1 X17.900 Y88.565 Z0.000
G0 X17.900 Y88.565 Z4.000

(shape postamble)


(shape preamble)

G0 X11.684 Y88.565 Z4.000
G1 X11.684 Y88.565 Z0.000
G1 X11.684 Y20.443 Z0.000
G0 X11.684 Y20.443 Z4.000

(shape postamble)


(shape preamble)

G0 X10.866 Y20.443 Z4.000
G1 X10.866 Y20.443 Z0.000
G1 X7.811 Y20.443 Z0.000
G0 X7.811 Y20.443 Z4.000

(shape postamble)


(shape preamble)

G0 X5.465 Y20.443 Z4.000
G1 X5.465 Y20.443 Z0.000
G1 X5.465 Y88.565 Z0.000
G0 X5.465 Y88.565 Z4.000

(shape postamble)


(shape preamble)

G0 X11.525 Y73.367 Z4.000
G1 X11.525 Y73.367 Z0.000
G1 X5.465 Y66.993 Z0.000
G1 X5.465 Y67.303 Z0.000
G1 X17.900 Y67.303 Z0.000
G1 X17.900 Y66.993 Z0.000
G1 X5.465 Y66.993 Z0.000
G0 X5.465 Y66.993 Z4.000

(shape postamble)


(shape preamble)

G0 X6.269 Y68.026 Z4.000
G1 X6.269 Y68.026 Z0.000
G1 X5.835 Y68.026 Z0.000
G1 X5.835 Y68.099 Z0.000
G1 X5.865 Y68.211 Z0.000
G1 X5.915 Y68.282 Z0.000
G1 X5.953 Y68.314 Z0.000
G1 X5.997 Y68.336 Z0.000
G1 X6.046 Y68.349 Z0.000
G1 X6.100 Y68.351 Z0.000
G1 X6.151 Y68.341 Z0.000
G1 X6.198 Y68.320 Z0.000
G1 X6.239 Y68.289 Z0.000
G1 X6.286 Y68.235 Z0.000
G1 X6.329 Y68.125 Z0.000
G1 X6.336 Y68.014 Z0.000
G1 X6.327 Y67.949 Z0.000
G1 X6.309 Y67.889 Z0.000
G1 X6.283 Y67.836 Z0.000
G1 X6.248 Y67.791 Z0.000
G1 X6.207 Y67.755 Z0.000
G1 X6.159 Y67.729 Z0.000
G1 X6.106 Y67.714 Z0.000
G1 X6.040 Y67.712 Z0.000
G1 X5.966 Y67.731 Z0.000
G1 X5.906 Y67.770 Z0.000
G1 X5.862 Y67.825 Z0.000
G1 X5.846 Y67.871 Z0.000
G1 X5.914 Y67.856 Z0.000
G1 X5.941 Y67.818 Z0.000
G1 X5.980 Y67.790 Z0.000
G1 X6.026 Y67.775 Z0.000
G1 X6.091 Y67.772 Z0.000
G1 X6.167 Y67.802 Z0.000
G1 X6.225 Y67.864 Z0.000
G1 X6.259 Y67.951 Z0.000
G1 X6.265 Y68.023 Z0.000
G1 X6.269 Y68.026 Z0.000
G1 X6.054 Y68.291 Z0.000
G1 X5.989 Y68.266 Z0.000
G1 X5.939 Y68.215 Z0.000
G1 X5.908 Y68.142 Z0.000
G1 X5.902 Y68.083 Z0.000
G1 X6.262 Y68.114 Z0.000
G1 X6.234 Y68.194 Z0.000
G1 X6.187 Y68.252 Z0.000
G1 X6.126 Y68.286 Z0.000
G1 X6.078 Y68.291 Z0.000
G0 X6.078 Y68.291 Z4.000

(shape postamble)


(shape preamble)

G0 X6.770 Y67.924 Z4.000
G1 X6.770 Y67.924 Z0.000
G1 X6.770 Y68.569 Z0.000
G1 X7.027 Y68.569 Z0.000
G1 X7.027 Y68.509 Z0.000
G1 X6.840 Y68.509 Z0.000
G1 X6.840 Y67.886 Z0.000
G1 X6.821 Y67.804 Z0.000
G1 X6.778 Y67.747 Z0.000
G1 X6.711 Y67.717 Z0.000
G1 X6.630 Y67.712 Z0.000
G1 X6.571 Y67.725 Z0.000
G1 X6.541 Y67.740 Z0.000
G1 X6.558 Y67.788 Z0.000
G1 X6.611 Y67.771 Z0.000
G1 X6.668 Y67.769 Z0.000
G1 X6.718 Y67.784 Z0.000
G1 X6.752 Y67.819 Z0.000
G1 X6.771 Y67.873 Z0.000
G1 X6.773 Y67.920 Z0.000
G1 X6.770 Y67.924 Z0.000
G0 X6.770 Y67.924 Z4.000

(shape postamble)


(shape preamble)

G0 X7.412 Y68.291 Z4.000
G1 X7.412 Y68.291 Z0.000
G1 X7.460 Y68.286 Z0.000
G1 X7.521 Y68.252 Z0.000
G1 X7.567 Y68.194 Z0.000
G1 X7.595 Y68.114 Z0.000
G1 X7.235 Y68.083 Z0.000
G1 X7.242 Y68.142 Z0.000
G1 X7.272 Y68.215 Z0.000
G1 X7.322 Y68.266 Z0.000
G1 X7.387 Y68.291 Z0.000
G1 X7.599 Y68.026 Z0.000
G1 X7.595 Y68.023 Z0.000
G1 X7.589 Y67.951 Z0.000
G1 X7.555 Y67.864 Z0.000
G1 X7.497 Y67.802 Z0.000
G1 X7.421 Y67.772 Z0.000
G1 X7.356 Y67.775 Z0.000
G1 X7.310 Y67.790 Z0.000
G1 X7.271 Y67.818 Z0.000
G1 X7.244 Y67.856 Z0.000
G1 X7.176 Y67.871 Z0.000
G1 X7.192 Y67.825 Z0.000
G1 X7.235 Y67.770 Z0.000
G1 X7.296 Y67.731 Z0.000
G1 X7.370 Y67.712 Z0.000
G1 X7.436 Y67.714 Z0.000
G1 X7.489 Y67.729 Z0.000
G1 X7.537 Y67.755 Z0.000
G1 X7.578 Y67.791 Z0.000
G1 X7.613 Y67.836 Z0.000
G1 X7.639 Y67.889 Z0.000
G1 X7.657 Y67.949 Z0.000
G1 X7.666 Y68.014 Z0.000
G1 X7.659 Y68.125 Z0.000
G1 X7.616 Y68.235 Z0.000
G1 X7.569 Y68.289 Z0.000
G1 X7.528 Y68.320 Z0.000
G1 X7.481 Y68.341 Z0.000
G1 X7.430 Y68.351 Z0.000
G1 X7.376 Y68.349 Z0.000
G1 X7.327 Y68.336 Z0.000
G1 X7.283 Y68.314 Z0.000
G1 X7.245 Y68.282 Z0.000
G1 X7.195 Y68.211 Z0.000
G1 X7.165 Y68.099 Z0.000
G1 X7.165 Y68.026 Z0.000
G1 X7.599 Y68.026 Z0.000
G0 X7.599 Y68.026 Z4.000

(shape postamble)


(shape preamble)

G0 X7.906 Y67.931 Z4.000
G1 X7.906 Y67.931 Z0.000
G1 X7.906 Y68.344 Z0.000
G1 X7.973 Y68.344 Z0.000
G1 X7.973 Y67.959 Z0.000
G1 X7.994 Y67.878 Z0.000
G1 X8.035 Y67.817 Z0.000
G1 X8.094 Y67.781 Z0.000
G1 X8.162 Y67.776 Z0.000
G1 X8.214 Y67.794 Z0.000
G1 X8.251 Y67.832 Z0.000
G1 X8.273 Y67.887 Z0.000
G1 X8.276 Y67.934 Z0.000
G1 X8.276 Y68.347 Z0.000
G1 X8.343 Y68.347 Z0.000
G1 X8.343 Y67.899 Z0.000
G1 X8.320 Y67.818 Z0.000
G1 X8.274 Y67.759 Z0.000
G1 X8.207 Y67.725 Z0.000
G1 X8.132 Y67.719 Z0.000
G1 X8.078 Y67.731 Z0.000
G1 X8.031 Y67.757 Z0.000
G1 X7.994 Y67.795 Z0.000
G1 X7.976 Y67.829 Z0.000
G1 X7.973 Y67.797 Z0.000
G1 X7.966 Y67.730 Z0.000
G1 X7.906 Y67.800 Z0.000
G1 X7.909 Y67.934 Z0.000
G1 X7.906 Y67.931 Z0.000
G0 X7.906 Y67.931 Z4.000

(shape postamble)


(shape preamble)

G0 X8.784 Y67.924 Z4.000
G1 X8.784 Y67.924 Z0.000
G1 X8.784 Y68.284 Z0.000
G1 X8.562 Y68.284 Z0.000
G1 X8.562 Y68.344 Z0.000
G1 X8.784 Y68.344 Z0.000
G1 X8.784 Y68.538 Z0.000
G1 X8.851 Y68.527 Z0.000
G1 X8.851 Y68.344 Z0.000
G1 X9.035 Y68.344 Z0.000
G1 X9.035 Y68.284 Z0.000
G1 X8.851 Y68.284 Z0.000
G1 X8.851 Y67.889 Z0.000
G1 X8.831 Y67.807 Z0.000
G1 X8.788 Y67.751 Z0.000
G1 X8.722 Y67.720 Z0.000
G1 X8.641 Y67.716 Z0.000
G1 X8.582 Y67.728 Z0.000
G1 X8.551 Y67.744 Z0.000
G1 X8.569 Y67.792 Z0.000
G1 X8.622 Y67.775 Z0.000
G1 X8.678 Y67.772 Z0.000
G1 X8.729 Y67.788 Z0.000
G1 X8.763 Y67.822 Z0.000
G1 X8.782 Y67.876 Z0.000
G1 X8.784 Y67.924 Z0.000
G1 X8.784 Y67.924 Z0.000
G0 X8.784 Y67.924 Z4.000

(shape postamble)


(shape preamble)

G0 X9.250 Y67.874 Z4.000
G1 X9.250 Y67.874 Z0.000
G1 X9.254 Y67.859 Z0.000
G1 X9.281 Y67.821 Z0.000
G1 X9.320 Y67.792 Z0.000
G1 X9.369 Y67.775 Z0.000
G1 X9.436 Y67.772 Z0.000
G1 X9.514 Y67.803 Z0.000
G1 X9.572 Y67.867 Z0.000
G1 X9.605 Y67.959 Z0.000
G1 X9.610 Y68.072 Z0.000
G1 X9.586 Y68.171 Z0.000
G1 X9.536 Y68.245 Z0.000
G1 X9.464 Y68.288 Z0.000
G1 X9.387 Y68.294 Z0.000
G1 X9.336 Y68.283 Z0.000
G1 X9.295 Y68.258 Z0.000
G1 X9.265 Y68.222 Z0.000
G1 X9.253 Y68.192 Z0.000
G1 X9.194 Y68.216 Z0.000
G1 X9.228 Y68.276 Z0.000
G1 X9.282 Y68.321 Z0.000
G1 X9.352 Y68.347 Z0.000
G1 X9.425 Y68.351 Z0.000
G1 X9.481 Y68.341 Z0.000
G1 X9.531 Y68.319 Z0.000
G1 X9.575 Y68.287 Z0.000
G1 X9.612 Y68.246 Z0.000
G1 X9.642 Y68.196 Z0.000
G1 X9.663 Y68.139 Z0.000
G1 X9.675 Y68.076 Z0.000
G1 X9.677 Y68.006 Z0.000
G1 X9.668 Y67.941 Z0.000
G1 X9.649 Y67.881 Z0.000
G1 X9.622 Y67.829 Z0.000
G1 X9.586 Y67.785 Z0.000
G1 X9.544 Y67.750 Z0.000
G1 X9.495 Y67.725 Z0.000
G1 X9.441 Y67.711 Z0.000
G1 X9.374 Y67.709 Z0.000
G1 X9.299 Y67.728 Z0.000
G1 X9.236 Y67.766 Z0.000
G1 X9.193 Y67.822 Z0.000
G1 X9.179 Y67.867 Z0.000
G1 X9.243 Y67.867 Z0.000
G1 X9.250 Y67.874 Z0.000
G0 X9.250 Y67.874 Z4.000

(shape postamble)


(shape preamble)

G0 X10.273 Y68.030 Z4.000
G1 X10.273 Y68.030 Z0.000
G1 X10.001 Y68.030 Z0.000
G1 X10.135 Y68.442 Z0.000
G1 X10.139 Y68.442 Z0.000
G1 X10.273 Y68.030 Z0.000
G1 X10.372 Y67.726 Z0.000
G1 X10.442 Y67.726 Z0.000
G1 X10.181 Y68.524 Z0.000
G1 X10.089 Y68.524 Z0.000
G1 X9.828 Y67.726 Z0.000
G1 X9.902 Y67.726 Z0.000
G1 X9.980 Y67.970 Z0.000
G1 X10.294 Y67.970 Z0.000
G1 X10.372 Y67.726 Z0.000
G0 X10.372 Y67.726 Z4.000

(shape postamble)


(shape preamble)

G0 X11.561 Y67.726 Z4.000
G1 X11.561 Y67.726 Z0.000
G1 X11.561 Y68.110 Z0.000
G1 X11.541 Y68.189 Z0.000
G1 X11.500 Y68.248 Z0.000
G1 X11.442 Y68.282 Z0.000
G1 X11.379 Y68.287 Z0.000
G1 X11.337 Y68.277 Z0.000
G1 X11.305 Y68.254 Z0.000
G1 X11.282 Y68.220 Z0.000
G1 X11.275 Y68.192 Z0.000
G1 X11.210 Y68.216 Z0.000
G1 X11.236 Y68.275 Z0.000
G1 X11.280 Y68.319 Z0.000
G1 X11.338 Y68.343 Z0.000
G1 X11.404 Y68.347 Z0.000
G1 X11.459 Y68.334 Z0.000
G1 X11.507 Y68.305 Z0.000
G1 X11.545 Y68.265 Z0.000
G1 X11.564 Y68.231 Z0.000
G1 X11.568 Y68.231 Z0.000
G1 X11.568 Y68.340 Z0.000
G1 X11.631 Y68.340 Z0.000
G1 X11.631 Y67.723 Z0.000
G1 X11.564 Y67.723 Z0.000
G1 X11.561 Y67.726 Z0.000
G0 X11.561 Y67.726 Z4.000

(shape postamble)


(shape preamble)

G0 X12.125 Y67.712 Z4.000
G1 X12.125 Y67.712 Z0.000
G1 X12.106 Y67.712 Z0.000
G1 X12.052 Y67.722 Z0.000
G1 X12.004 Y67.744 Z0.000
G1 X11.961 Y67.776 Z0.000
G1 X11.924 Y67.817 Z0.000
G1 X11.895 Y67.866 Z0.000
G1 X11.874 Y67.924 Z0.000
G1 X11.862 Y67.987 Z0.000
G1 X11.860 Y68.080 Z0.000
G1 X11.886 Y68.182 Z0.000
G1 X11.912 Y68.234 Z0.000
G1 X11.946 Y68.278 Z0.000
G1 X11.987 Y68.313 Z0.000
G1 X12.034 Y68.338 Z0.000
G1 X12.087 Y68.352 Z0.000
G1 X12.144 Y68.354 Z0.000
G1 X12.199 Y68.344 Z0.000
G1 X12.248 Y68.323 Z0.000
G1 X12.291 Y68.291 Z0.000
G1 X12.327 Y68.250 Z0.000
G1 X12.356 Y68.200 Z0.000
G1 X12.383 Y68.123 Z0.000
G1 X12.390 Y67.986 Z0.000
G1 X12.364 Y67.885 Z0.000
G1 X12.338 Y67.833 Z0.000
G1 X12.304 Y67.788 Z0.000
G1 X12.263 Y67.753 Z0.000
G1 X12.216 Y67.728 Z0.000
G1 X12.163 Y67.714 Z0.000
G1 X12.125 Y67.712 Z0.000
G1 X12.153 Y67.776 Z0.000
G1 X12.226 Y67.807 Z0.000
G1 X12.282 Y67.870 Z0.000
G1 X12.314 Y67.960 Z0.000
G1 X12.319 Y68.071 Z0.000
G1 X12.295 Y68.169 Z0.000
G1 X12.247 Y68.242 Z0.000
G1 X12.179 Y68.284 Z0.000
G1 X12.097 Y68.291 Z0.000
G1 X12.024 Y68.260 Z0.000
G1 X11.968 Y68.196 Z0.000
G1 X11.936 Y68.106 Z0.000
G1 X11.931 Y67.995 Z0.000
G1 X11.955 Y67.898 Z0.000
G1 X12.003 Y67.825 Z0.000
G1 X12.071 Y67.782 Z0.000
G1 X12.125 Y67.776 Z0.000
G0 X12.125 Y67.776 Z4.000

(shape postamble)


(shape preamble)

G0 X12.813 Y67.776 Z4.000
G1 X12.813 Y67.776 Z0.000
G1 X12.758 Y67.782 Z0.000
G1 X12.691 Y67.825 Z0.000
G1 X12.643 Y67.898 Z0.000
G1 X12.619 Y67.995 Z0.000
G1 X12.624 Y68.106 Z0.000
G1 X12.656 Y68.196 Z0.000
G1 X12.711 Y68.260 Z0.000
G1 X12.785 Y68.291 Z0.000
G1 X12.867 Y68.284 Z0.000
G1 X12.935 Y68.242 Z0.000
G1 X12.983 Y68.169 Z0.000
G1 X13.007 Y68.071 Z0.000
G1 X13.002 Y67.960 Z0.000
G1 X12.969 Y67.870 Z0.000
G1 X12.914 Y67.807 Z0.000
G1 X12.841 Y67.776 Z0.000
G1 X12.813 Y67.712 Z0.000
G1 X12.851 Y67.714 Z0.000
G1 X12.904 Y67.728 Z0.000
G1 X12.951 Y67.753 Z0.000
G1 X12.992 Y67.788 Z0.000
G1 X13.026 Y67.833 Z0.000
G1 X13.052 Y67.885 Z0.000
G1 X13.077 Y67.986 Z0.000
G1 X13.071 Y68.123 Z0.000
G1 X13.044 Y68.200 Z0.000
G1 X13.015 Y68.250 Z0.000
G1 X12.979 Y68.291 Z0.000
G1 X12.936 Y68.323 Z0.000
G1 X12.887 Y68.344 Z0.000
G1 X12.832 Y68.354 Z0.000
G1 X12.775 Y68.352 Z0.000
G1 X12.722 Y68.338 Z0.000
G1 X12.675 Y68.313 Z0.000
G1 X12.634 Y68.278 Z0.000
G1 X12.600 Y68.234 Z0.000
G1 X12.574 Y68.182 Z0.000
G1 X12.548 Y68.080 Z0.000
G1 X12.550 Y67.987 Z0.000
G1 X12.562 Y67.924 Z0.000
G1 X12.583 Y67.866 Z0.000
G1 X12.612 Y67.817 Z0.000
G1 X12.648 Y67.776 Z0.000
G1 X12.692 Y67.744 Z0.000
G1 X12.740 Y67.722 Z0.000
G1 X12.794 Y67.712 Z0.000
G1 X12.813 Y67.712 Z0.000
G0 X12.813 Y67.712 Z4.000

(shape postamble)


(shape preamble)

G0 X13.547 Y67.726 Z4.000
G1 X13.547 Y67.726 Z0.000
G1 X13.458 Y67.726 Z0.000
G1 X13.254 Y68.344 Z0.000
G1 X13.321 Y68.344 Z0.000
G1 X13.497 Y67.800 Z0.000
G1 X13.501 Y67.800 Z0.000
G1 X13.681 Y68.344 Z0.000
G1 X13.751 Y68.344 Z0.000
G1 X13.540 Y67.726 Z0.000
G1 X13.547 Y67.726 Z0.000
G0 X13.547 Y67.726 Z4.000

(shape postamble)


(shape preamble)

G0 X13.540 Y69.095 Z4.000
G1 X13.540 Y69.095 Z0.000
G1 X13.469 Y69.095 Z0.000
G1 X13.469 Y69.829 Z0.000
G1 X13.219 Y69.829 Z0.000
G1 X13.219 Y69.892 Z0.000
G1 X13.790 Y69.892 Z0.000
G1 X13.790 Y69.829 Z0.000
G1 X13.540 Y69.829 Z0.000
G1 X13.540 Y69.095 Z0.000
G1 X13.540 Y69.095 Z0.000
G0 X13.540 Y69.095 Z4.000

(shape postamble)


(shape preamble)

G0 X12.993 Y69.398 Z4.000
G1 X12.993 Y69.398 Z0.000
G1 X12.559 Y69.398 Z0.000
G1 X12.559 Y69.471 Z0.000
G1 X12.589 Y69.583 Z0.000
G1 X12.639 Y69.654 Z0.000
G1 X12.677 Y69.686 Z0.000
G1 X12.721 Y69.709 Z0.000
G1 X12.770 Y69.721 Z0.000
G1 X12.824 Y69.723 Z0.000
G1 X12.875 Y69.713 Z0.000
G1 X12.922 Y69.692 Z0.000
G1 X12.963 Y69.661 Z0.000
G1 X13.010 Y69.607 Z0.000
G1 X13.053 Y69.497 Z0.000
G1 X13.060 Y69.386 Z0.000
G1 X13.051 Y69.321 Z0.000
G1 X13.033 Y69.261 Z0.000
G1 X13.007 Y69.209 Z0.000
G1 X12.972 Y69.163 Z0.000
G1 X12.931 Y69.127 Z0.000
G1 X12.883 Y69.101 Z0.000
G1 X12.830 Y69.087 Z0.000
G1 X12.764 Y69.085 Z0.000
G1 X12.690 Y69.103 Z0.000
G1 X12.629 Y69.142 Z0.000
G1 X12.586 Y69.198 Z0.000
G1 X12.569 Y69.243 Z0.000
G1 X12.638 Y69.228 Z0.000
G1 X12.665 Y69.190 Z0.000
G1 X12.704 Y69.163 Z0.000
G1 X12.750 Y69.147 Z0.000
G1 X12.815 Y69.144 Z0.000
G1 X12.891 Y69.175 Z0.000
G1 X12.948 Y69.236 Z0.000
G1 X12.983 Y69.324 Z0.000
G1 X12.989 Y69.395 Z0.000
G1 X12.993 Y69.398 Z0.000
G1 X12.781 Y69.663 Z0.000
G1 X12.716 Y69.638 Z0.000
G1 X12.666 Y69.587 Z0.000
G1 X12.636 Y69.514 Z0.000
G1 X12.629 Y69.455 Z0.000
G1 X12.989 Y69.487 Z0.000
G1 X12.961 Y69.566 Z0.000
G1 X12.915 Y69.625 Z0.000
G1 X12.854 Y69.658 Z0.000
G1 X12.806 Y69.663 Z0.000
G0 X12.806 Y69.663 Z4.000

(shape postamble)


(shape preamble)

G0 X11.973 Y69.402 Z4.000
G1 X11.973 Y69.402 Z0.000
G1 X11.978 Y69.476 Z0.000
G1 X12.007 Y69.566 Z0.000
G1 X12.058 Y69.629 Z0.000
G1 X12.129 Y69.660 Z0.000
G1 X12.211 Y69.653 Z0.000
G1 X12.279 Y69.609 Z0.000
G1 X12.327 Y69.536 Z0.000
G1 X12.351 Y69.439 Z0.000
G1 X12.345 Y69.330 Z0.000
G1 X12.312 Y69.241 Z0.000
G1 X12.256 Y69.176 Z0.000
G1 X12.184 Y69.144 Z0.000
G1 X12.104 Y69.151 Z0.000
G1 X12.040 Y69.193 Z0.000
G1 X11.995 Y69.265 Z0.000
G1 X11.973 Y69.363 Z0.000
G1 X11.977 Y69.212 Z0.000
G1 X11.977 Y69.208 Z0.000
G1 X12.000 Y69.170 Z0.000
G1 X12.042 Y69.125 Z0.000
G1 X12.092 Y69.095 Z0.000
G1 X12.150 Y69.081 Z0.000
G1 X12.206 Y69.083 Z0.000
G1 X12.256 Y69.097 Z0.000
G1 X12.300 Y69.122 Z0.000
G1 X12.339 Y69.157 Z0.000
G1 X12.390 Y69.234 Z0.000
G1 X12.421 Y69.355 Z0.000
G1 X12.415 Y69.492 Z0.000
G1 X12.373 Y69.604 Z0.000
G1 X12.327 Y69.660 Z0.000
G1 X12.286 Y69.691 Z0.000
G1 X12.240 Y69.713 Z0.000
G1 X12.189 Y69.723 Z0.000
G1 X12.128 Y69.720 Z0.000
G1 X12.072 Y69.699 Z0.000
G1 X12.024 Y69.662 Z0.000
G1 X11.987 Y69.610 Z0.000
G1 X11.970 Y69.589 Z0.000
G1 X11.970 Y69.712 Z0.000
G1 X11.906 Y69.712 Z0.000
G1 X11.906 Y69.300 Z0.000
G1 X11.903 Y69.166 Z0.000
G1 X11.963 Y69.095 Z0.000
G1 X11.973 Y69.173 Z0.000
G1 X11.977 Y69.212 Z0.000
G0 X11.977 Y69.212 Z4.000

(shape postamble)


(shape preamble)

G0 X11.282 Y69.243 Z4.000
G1 X11.282 Y69.243 Z0.000
G1 X11.286 Y69.228 Z0.000
G1 X11.313 Y69.190 Z0.000
G1 X11.352 Y69.161 Z0.000
G1 X11.401 Y69.144 Z0.000
G1 X11.468 Y69.141 Z0.000
G1 X11.546 Y69.172 Z0.000
G1 X11.604 Y69.236 Z0.000
G1 X11.637 Y69.327 Z0.000
G1 X11.642 Y69.441 Z0.000
G1 X11.618 Y69.540 Z0.000
G1 X11.568 Y69.614 Z0.000
G1 X11.496 Y69.656 Z0.000
G1 X11.419 Y69.663 Z0.000
G1 X11.368 Y69.651 Z0.000
G1 X11.327 Y69.627 Z0.000
G1 X11.297 Y69.591 Z0.000
G1 X11.285 Y69.561 Z0.000
G1 X11.226 Y69.585 Z0.000
G1 X11.260 Y69.645 Z0.000
G1 X11.314 Y69.690 Z0.000
G1 X11.384 Y69.716 Z0.000
G1 X11.457 Y69.720 Z0.000
G1 X11.513 Y69.709 Z0.000
G1 X11.563 Y69.688 Z0.000
G1 X11.607 Y69.656 Z0.000
G1 X11.644 Y69.615 Z0.000
G1 X11.674 Y69.565 Z0.000
G1 X11.695 Y69.508 Z0.000
G1 X11.707 Y69.444 Z0.000
G1 X11.709 Y69.375 Z0.000
G1 X11.700 Y69.309 Z0.000
G1 X11.681 Y69.250 Z0.000
G1 X11.654 Y69.198 Z0.000
G1 X11.618 Y69.154 Z0.000
G1 X11.576 Y69.119 Z0.000
G1 X11.527 Y69.094 Z0.000
G1 X11.473 Y69.080 Z0.000
G1 X11.406 Y69.077 Z0.000
G1 X11.331 Y69.096 Z0.000
G1 X11.268 Y69.135 Z0.000
G1 X11.225 Y69.191 Z0.000
G1 X11.211 Y69.236 Z0.000
G1 X11.275 Y69.236 Z0.000
G1 X11.282 Y69.243 Z0.000
G0 X11.282 Y69.243 Z4.000

(shape postamble)


(shape preamble)

G0 X11.007 Y69.095 Z4.000
G1 X11.007 Y69.095 Z0.000
G1 X10.940 Y69.095 Z0.000
G1 X10.940 Y69.479 Z0.000
G1 X10.919 Y69.560 Z0.000
G1 X10.877 Y69.621 Z0.000
G1 X10.818 Y69.657 Z0.000
G1 X10.750 Y69.663 Z0.000
G1 X10.699 Y69.644 Z0.000
G1 X10.661 Y69.606 Z0.000
G1 X10.640 Y69.550 Z0.000
G1 X10.636 Y69.504 Z0.000
G1 X10.636 Y69.095 Z0.000
G1 X10.569 Y69.095 Z0.000
G1 X10.569 Y69.543 Z0.000
G1 X10.592 Y69.624 Z0.000
G1 X10.639 Y69.683 Z0.000
G1 X10.705 Y69.718 Z0.000
G1 X10.779 Y69.723 Z0.000
G1 X10.832 Y69.710 Z0.000
G1 X10.879 Y69.684 Z0.000
G1 X10.917 Y69.646 Z0.000
G1 X10.936 Y69.614 Z0.000
G1 X10.940 Y69.614 Z0.000
G1 X10.940 Y69.938 Z0.000
G1 X11.007 Y69.938 Z0.000
G1 X11.007 Y69.095 Z0.000
G0 X11.007 Y69.095 Z4.000

(shape postamble)


(shape preamble)

G0 X10.291 Y69.398 Z4.000
G1 X10.291 Y69.398 Z0.000
G1 X9.857 Y69.398 Z0.000
G1 X9.857 Y69.471 Z0.000
G1 X9.887 Y69.583 Z0.000
G1 X9.937 Y69.654 Z0.000
G1 X9.975 Y69.686 Z0.000
G1 X10.019 Y69.709 Z0.000
G1 X10.068 Y69.721 Z0.000
G1 X10.122 Y69.723 Z0.000
G1 X10.173 Y69.713 Z0.000
G1 X10.220 Y69.692 Z0.000
G1 X10.261 Y69.661 Z0.000
G1 X10.308 Y69.607 Z0.000
G1 X10.351 Y69.497 Z0.000
G1 X10.358 Y69.386 Z0.000
G1 X10.349 Y69.321 Z0.000
G1 X10.331 Y69.261 Z0.000
G1 X10.304 Y69.209 Z0.000
G1 X10.270 Y69.163 Z0.000
G1 X10.228 Y69.127 Z0.000
G1 X10.181 Y69.101 Z0.000
G1 X10.128 Y69.087 Z0.000
G1 X10.062 Y69.085 Z0.000
G1 X9.988 Y69.103 Z0.000
G1 X9.927 Y69.142 Z0.000
G1 X9.884 Y69.198 Z0.000
G1 X9.867 Y69.243 Z0.000
G1 X9.936 Y69.228 Z0.000
G1 X9.963 Y69.190 Z0.000
G1 X10.001 Y69.163 Z0.000
G1 X10.048 Y69.147 Z0.000
G1 X10.112 Y69.144 Z0.000
G1 X10.189 Y69.175 Z0.000
G1 X10.246 Y69.236 Z0.000
G1 X10.280 Y69.324 Z0.000
G1 X10.287 Y69.395 Z0.000
G1 X10.291 Y69.398 Z0.000
G1 X10.075 Y69.663 Z0.000
G1 X10.010 Y69.638 Z0.000
G1 X9.960 Y69.587 Z0.000
G1 X9.930 Y69.514 Z0.000
G1 X9.924 Y69.455 Z0.000
G1 X10.283 Y69.487 Z0.000
G1 X10.255 Y69.566 Z0.000
G1 X10.209 Y69.625 Z0.000
G1 X10.148 Y69.658 Z0.000
G1 X10.100 Y69.663 Z0.000
G0 X10.100 Y69.663 Z4.000

(shape postamble)


(shape preamble)

G0 X9.543 Y69.095 Z4.000
G1 X9.543 Y69.095 Z0.000
G1 X9.543 Y69.479 Z0.000
G1 X9.523 Y69.558 Z0.000
G1 X9.482 Y69.617 Z0.000
G1 X9.424 Y69.651 Z0.000
G1 X9.361 Y69.656 Z0.000
G1 X9.319 Y69.645 Z0.000
G1 X9.287 Y69.623 Z0.000
G1 X9.264 Y69.589 Z0.000
G1 X9.257 Y69.561 Z0.000
G1 X9.193 Y69.585 Z0.000
G1 X9.218 Y69.644 Z0.000
G1 X9.262 Y69.688 Z0.000
G1 X9.320 Y69.712 Z0.000
G1 X9.387 Y69.716 Z0.000
G1 X9.442 Y69.702 Z0.000
G1 X9.489 Y69.674 Z0.000
G1 X9.527 Y69.633 Z0.000
G1 X9.546 Y69.600 Z0.000
G1 X9.550 Y69.600 Z0.000
G1 X9.550 Y69.709 Z0.000
G1 X9.613 Y69.709 Z0.000
G1 X9.613 Y69.092 Z0.000
G1 X9.546 Y69.092 Z0.000
G1 X9.543 Y69.095 Z0.000
G0 X9.543 Y69.095 Z4.000

(shape postamble)


(shape preamble)

G0 X4.942 Y68.524 Z4.000
G1 X4.942 Y68.524 Z0.000
G1 X5.013 Y68.524 Z0.000
G1 X5.013 Y67.726 Z0.000
G1 X4.942 Y67.726 Z0.000
G1 X4.942 Y67.987 Z0.000
G1 X4.808 Y68.136 Z0.000
G1 X4.516 Y67.726 Z0.000
G1 X4.431 Y67.726 Z0.000
G1 X4.759 Y68.185 Z0.000
G1 X4.449 Y68.524 Z0.000
G1 X4.537 Y68.524 Z0.000
G1 X4.942 Y68.083 Z0.000
G1 X4.942 Y68.524 Z0.000
G1 X4.942 Y68.524 Z0.000
G0 X4.942 Y68.524 Z4.000

(shape postamble)


(shape preamble)

G0 X3.845 Y67.931 Z4.000
G1 X3.845 Y67.931 Z0.000
G1 X3.845 Y68.344 Z0.000
G1 X3.912 Y68.344 Z0.000
G1 X3.912 Y67.959 Z0.000
G1 X3.933 Y67.878 Z0.000
G1 X3.975 Y67.817 Z0.000
G1 X4.034 Y67.781 Z0.000
G1 X4.102 Y67.776 Z0.000
G1 X4.153 Y67.794 Z0.000
G1 X4.191 Y67.832 Z0.000
G1 X4.212 Y67.887 Z0.000
G1 X4.216 Y67.934 Z0.000
G1 X4.216 Y68.347 Z0.000
G1 X4.283 Y68.347 Z0.000
G1 X4.283 Y67.899 Z0.000
G1 X4.260 Y67.818 Z0.000
G1 X4.213 Y67.759 Z0.000
G1 X4.146 Y67.725 Z0.000
G1 X4.072 Y67.719 Z0.000
G1 X4.018 Y67.731 Z0.000
G1 X3.972 Y67.757 Z0.000
G1 X3.935 Y67.795 Z0.000
G1 X3.916 Y67.829 Z0.000
G1 X3.912 Y67.797 Z0.000
G1 X3.905 Y67.730 Z0.000
G1 X3.845 Y67.800 Z0.000
G1 X3.849 Y67.934 Z0.000
G1 X3.845 Y67.931 Z0.000
G0 X3.845 Y67.931 Z4.000

(shape postamble)


(shape preamble)

G0 X3.609 Y67.726 Z4.000
G1 X3.609 Y67.726 Z0.000
G1 X3.542 Y67.726 Z0.000
G1 X3.542 Y68.111 Z0.000
G1 X3.521 Y68.192 Z0.000
G1 X3.479 Y68.253 Z0.000
G1 X3.420 Y68.289 Z0.000
G1 X3.352 Y68.294 Z0.000
G1 X3.301 Y68.276 Z0.000
G1 X3.263 Y68.238 Z0.000
G1 X3.242 Y68.183 Z0.000
G1 X3.239 Y68.136 Z0.000
G1 X3.239 Y67.726 Z0.000
G1 X3.171 Y67.726 Z0.000
G1 X3.171 Y68.174 Z0.000
G1 X3.194 Y68.255 Z0.000
G1 X3.241 Y68.315 Z0.000
G1 X3.308 Y68.349 Z0.000
G1 X3.382 Y68.354 Z0.000
G1 X3.437 Y68.341 Z0.000
G1 X3.484 Y68.315 Z0.000
G1 X3.522 Y68.275 Z0.000
G1 X3.542 Y68.241 Z0.000
G1 X3.542 Y68.344 Z0.000
G1 X3.605 Y68.344 Z0.000
G1 X3.605 Y67.726 Z0.000
G1 X3.609 Y67.726 Z0.000
G0 X3.609 Y67.726 Z4.000

(shape postamble)


(shape preamble)

G0 X2.935 Y67.874 Z4.000
G1 X2.935 Y67.874 Z0.000
G1 X2.933 Y67.851 Z0.000
G1 X2.901 Y67.788 Z0.000
G1 X2.844 Y67.741 Z0.000
G1 X2.766 Y67.713 Z0.000
G1 X2.675 Y67.709 Z0.000
G1 X2.593 Y67.732 Z0.000
G1 X2.531 Y67.778 Z0.000
G1 X2.493 Y67.845 Z0.000
G1 X2.487 Y67.922 Z0.000
G1 X2.506 Y67.979 Z0.000
G1 X2.550 Y68.022 Z0.000
G1 X2.621 Y68.052 Z0.000
G1 X2.685 Y68.065 Z0.000
G1 X2.732 Y68.070 Z0.000
G1 X2.786 Y68.089 Z0.000
G1 X2.822 Y68.114 Z0.000
G1 X2.841 Y68.146 Z0.000
G1 X2.843 Y68.192 Z0.000
G1 X2.827 Y68.237 Z0.000
G1 X2.793 Y68.269 Z0.000
G1 X2.745 Y68.288 Z0.000
G1 X2.687 Y68.291 Z0.000
G1 X2.636 Y68.278 Z0.000
G1 X2.595 Y68.254 Z0.000
G1 X2.566 Y68.219 Z0.000
G1 X2.558 Y68.192 Z0.000
G1 X2.496 Y68.215 Z0.000
G1 X2.527 Y68.275 Z0.000
G1 X2.581 Y68.320 Z0.000
G1 X2.654 Y68.347 Z0.000
G1 X2.738 Y68.351 Z0.000
G1 X2.813 Y68.329 Z0.000
G1 X2.870 Y68.284 Z0.000
G1 X2.905 Y68.220 Z0.000
G1 X2.910 Y68.144 Z0.000
G1 X2.891 Y68.088 Z0.000
G1 X2.848 Y68.046 Z0.000
G1 X2.779 Y68.015 Z0.000
G1 X2.716 Y68.001 Z0.000
G1 X2.667 Y67.996 Z0.000
G1 X2.612 Y67.977 Z0.000
G1 X2.577 Y67.951 Z0.000
G1 X2.560 Y67.919 Z0.000
G1 X2.558 Y67.874 Z0.000
G1 X2.575 Y67.827 Z0.000
G1 X2.612 Y67.792 Z0.000
G1 X2.665 Y67.772 Z0.000
G1 X2.731 Y67.769 Z0.000
G1 X2.788 Y67.782 Z0.000
G1 X2.834 Y67.808 Z0.000
G1 X2.864 Y67.843 Z0.000
G1 X2.872 Y67.871 Z0.000
G1 X2.939 Y67.871 Z0.000
G1 X2.935 Y67.874 Z0.000
G0 X2.935 Y67.874 Z4.000

(shape postamble)


(shape preamble)

G0 X2.043 Y67.924 Z4.000
G1 X2.043 Y67.924 Z0.000
G1 X2.043 Y68.284 Z0.000
G1 X1.820 Y68.284 Z0.000
G1 X1.820 Y68.344 Z0.000
G1 X2.043 Y68.344 Z0.000
G1 X2.043 Y68.538 Z0.000
G1 X2.110 Y68.527 Z0.000
G1 X2.110 Y68.344 Z0.000
G1 X2.293 Y68.344 Z0.000
G1 X2.293 Y68.284 Z0.000
G1 X2.110 Y68.284 Z0.000
G1 X2.110 Y67.889 Z0.000
G1 X2.090 Y67.807 Z0.000
G1 X2.047 Y67.751 Z0.000
G1 X1.981 Y67.720 Z0.000
G1 X1.900 Y67.716 Z0.000
G1 X1.841 Y67.728 Z0.000
G1 X1.810 Y67.744 Z0.000
G1 X1.827 Y67.792 Z0.000
G1 X1.880 Y67.775 Z0.000
G1 X1.937 Y67.772 Z0.000
G1 X1.987 Y67.788 Z0.000
G1 X2.021 Y67.822 Z0.000
G1 X2.040 Y67.876 Z0.000
G1 X2.043 Y67.924 Z0.000
G1 X2.043 Y67.924 Z0.000
G0 X2.043 Y67.924 Z4.000

(shape postamble)


(shape preamble)

G0 X5.465 Y62.950 Z4.000
G1 X5.465 Y62.950 Z0.000
G1 X30.321 Y62.950 Z0.000
G1 X30.321 Y63.260 Z0.000
G1 X5.465 Y63.260 Z0.000
G1 X5.465 Y62.950 Z0.000
G1 X17.738 Y75.533 Z0.000
G0 X17.738 Y75.533 Z4.000

(shape postamble)


(shape preamble)

G0 X17.738 Y72.789 Z4.000
G1 X17.738 Y72.789 Z0.000
G1 X5.465 Y60.205 Z0.000
G1 X5.465 Y60.516 Z0.000
G1 X30.321 Y60.516 Z0.000
G1 X30.321 Y60.205 Z0.000
G1 X5.465 Y60.205 Z0.000
G0 X5.465 Y60.205 Z4.000

(shape postamble)


(shape preamble)

G0 X5.465 Y56.212 Z4.000
G1 X5.465 Y56.212 Z0.000
G1 X30.321 Y56.212 Z0.000
G1 X30.321 Y56.522 Z0.000
G1 X5.465 Y56.522 Z0.000
G1 X5.465 Y56.212 Z0.000
G1 X17.738 Y68.795 Z0.000
G0 X17.738 Y68.795 Z4.000

(shape postamble)


(shape preamble)

G0 X17.706 Y68.171 Z4.000
G1 X17.706 Y68.171 Z0.000
G1 X17.501 Y68.171 Z0.000
G1 X17.464 Y68.175 Z0.000
G1 X17.417 Y68.200 Z0.000
G1 X17.384 Y68.242 Z0.000
G1 X17.367 Y68.298 Z0.000
G1 X17.371 Y68.360 Z0.000
G1 X17.392 Y68.409 Z0.000
G1 X17.430 Y68.443 Z0.000
G1 X17.481 Y68.460 Z0.000
G1 X17.706 Y68.460 Z0.000
G1 X17.706 Y68.171 Z0.000
G1 X17.706 Y67.790 Z0.000
G1 X17.487 Y67.790 Z0.000
G1 X17.446 Y67.794 Z0.000
G1 X17.396 Y67.820 Z0.000
G1 X17.360 Y67.864 Z0.000
G1 X17.343 Y67.925 Z0.000
G1 X17.346 Y67.994 Z0.000
G1 X17.369 Y68.050 Z0.000
G1 X17.410 Y68.088 Z0.000
G1 X17.465 Y68.107 Z0.000
G1 X17.706 Y68.107 Z0.000
G1 X17.706 Y67.790 Z0.000
G1 X17.776 Y67.726 Z0.000
G1 X17.780 Y67.730 Z0.000
G1 X17.780 Y68.527 Z0.000
G1 X17.512 Y68.527 Z0.000
G1 X17.451 Y68.522 Z0.000
G1 X17.376 Y68.488 Z0.000
G1 X17.323 Y68.431 Z0.000
G1 X17.297 Y68.355 Z0.000
G1 X17.300 Y68.285 Z0.000
G1 X17.318 Y68.231 Z0.000
G1 X17.351 Y68.186 Z0.000
G1 X17.395 Y68.151 Z0.000
G1 X17.413 Y68.143 Z0.000
G1 X17.371 Y68.126 Z0.000
G1 X17.320 Y68.086 Z0.000
G1 X17.285 Y68.032 Z0.000
G1 X17.268 Y67.966 Z0.000
G1 X17.274 Y67.882 Z0.000
G1 X17.311 Y67.807 Z0.000
G1 X17.374 Y67.753 Z0.000
G1 X17.458 Y67.726 Z0.000
G1 X17.776 Y67.726 Z0.000
G0 X17.776 Y67.726 Z4.000

(shape postamble)


(shape preamble)

G0 X16.665 Y67.843 Z4.000
G1 X16.665 Y67.843 Z0.000
G1 X16.662 Y67.804 Z0.000
G1 X16.651 Y67.726 Z0.000
G1 X16.591 Y67.797 Z0.000
G1 X16.595 Y67.931 Z0.000
G1 X16.595 Y68.344 Z0.000
G1 X16.658 Y68.344 Z0.000
G1 X16.658 Y68.220 Z0.000
G1 X16.675 Y68.241 Z0.000
G1 X16.713 Y68.293 Z0.000
G1 X16.760 Y68.330 Z0.000
G1 X16.816 Y68.351 Z0.000
G1 X16.877 Y68.354 Z0.000
G1 X16.928 Y68.344 Z0.000
G1 X16.975 Y68.323 Z0.000
G1 X17.015 Y68.291 Z0.000
G1 X17.061 Y68.235 Z0.000
G1 X17.103 Y68.123 Z0.000
G1 X17.110 Y67.986 Z0.000
G1 X17.079 Y67.865 Z0.000
G1 X17.028 Y67.788 Z0.000
G1 X16.989 Y67.753 Z0.000
G1 X16.944 Y67.728 Z0.000
G1 X16.895 Y67.714 Z0.000
G1 X16.838 Y67.712 Z0.000
G1 X16.780 Y67.726 Z0.000
G1 X16.730 Y67.756 Z0.000
G1 X16.688 Y67.801 Z0.000
G1 X16.665 Y67.839 Z0.000
G1 X16.665 Y67.843 Z0.000
G1 X16.658 Y67.994 Z0.000
G1 X16.680 Y67.896 Z0.000
G1 X16.725 Y67.824 Z0.000
G1 X16.789 Y67.782 Z0.000
G1 X16.869 Y67.776 Z0.000
G1 X16.941 Y67.808 Z0.000
G1 X16.997 Y67.872 Z0.000
G1 X17.030 Y67.962 Z0.000
G1 X17.036 Y68.070 Z0.000
G1 X17.012 Y68.167 Z0.000
G1 X16.964 Y68.240 Z0.000
G1 X16.896 Y68.284 Z0.000
G1 X16.813 Y68.291 Z0.000
G1 X16.743 Y68.260 Z0.000
G1 X16.692 Y68.198 Z0.000
G1 X16.663 Y68.108 Z0.000
G1 X16.658 Y68.033 Z0.000
G0 X16.658 Y68.033 Z4.000

(shape postamble)


(shape preamble)

G0 X16.387 Y67.874 Z4.000
G1 X16.387 Y67.874 Z0.000
G1 X16.385 Y67.851 Z0.000
G1 X16.353 Y67.788 Z0.000
G1 X16.295 Y67.741 Z0.000
G1 X16.217 Y67.713 Z0.000
G1 X16.126 Y67.709 Z0.000
G1 X16.045 Y67.732 Z0.000
G1 X15.982 Y67.778 Z0.000
G1 X15.944 Y67.845 Z0.000
G1 X15.939 Y67.922 Z0.000
G1 X15.958 Y67.979 Z0.000
G1 X16.002 Y68.022 Z0.000
G1 X16.072 Y68.052 Z0.000
G1 X16.136 Y68.065 Z0.000
G1 X16.184 Y68.070 Z0.000
G1 X16.237 Y68.089 Z0.000
G1 X16.273 Y68.114 Z0.000
G1 X16.292 Y68.146 Z0.000
G1 X16.295 Y68.192 Z0.000
G1 X16.278 Y68.237 Z0.000
G1 X16.244 Y68.269 Z0.000
G1 X16.196 Y68.288 Z0.000
G1 X16.139 Y68.291 Z0.000
G1 X16.088 Y68.278 Z0.000
G1 X16.046 Y68.254 Z0.000
G1 X16.018 Y68.219 Z0.000
G1 X16.009 Y68.192 Z0.000
G1 X15.947 Y68.215 Z0.000
G1 X15.978 Y68.275 Z0.000
G1 X16.033 Y68.320 Z0.000
G1 X16.105 Y68.347 Z0.000
G1 X16.189 Y68.351 Z0.000
G1 X16.264 Y68.329 Z0.000
G1 X16.322 Y68.284 Z0.000
G1 X16.356 Y68.220 Z0.000
G1 X16.362 Y68.144 Z0.000
G1 X16.343 Y68.088 Z0.000
G1 X16.299 Y68.046 Z0.000
G1 X16.230 Y68.015 Z0.000
G1 X16.168 Y68.001 Z0.000
G1 X16.118 Y67.996 Z0.000
G1 X16.063 Y67.977 Z0.000
G1 X16.028 Y67.951 Z0.000
G1 X16.011 Y67.919 Z0.000
G1 X16.009 Y67.874 Z0.000
G1 X16.027 Y67.827 Z0.000
G1 X16.064 Y67.792 Z0.000
G1 X16.117 Y67.772 Z0.000
G1 X16.182 Y67.769 Z0.000
G1 X16.239 Y67.782 Z0.000
G1 X16.286 Y67.808 Z0.000
G1 X16.316 Y67.843 Z0.000
G1 X16.323 Y67.871 Z0.000
G1 X16.390 Y67.871 Z0.000
G1 X16.387 Y67.874 Z0.000
G0 X16.387 Y67.874 Z4.000

(shape postamble)


(shape preamble)

G0 X15.522 Y68.495 Z4.000
G1 X15.522 Y68.495 Z0.000
G1 X15.402 Y68.495 Z0.000
G1 X15.402 Y68.615 Z0.000
G1 X15.522 Y68.615 Z0.000
G1 X15.522 Y68.495 Z0.000
G1 X15.416 Y68.340 Z0.000
G1 X15.702 Y68.340 Z0.000
G1 X15.702 Y68.280 Z0.000
G1 X15.487 Y68.280 Z0.000
G1 X15.487 Y67.723 Z0.000
G1 X15.420 Y67.723 Z0.000
G1 X15.420 Y68.340 Z0.000
G1 X15.416 Y68.340 Z0.000
G0 X15.416 Y68.340 Z4.000

(shape postamble)


(shape preamble)

G0 X15.053 Y67.874 Z4.000
G1 X15.053 Y67.874 Z0.000
G1 X15.051 Y67.851 Z0.000
G1 X15.019 Y67.788 Z0.000
G1 X14.962 Y67.741 Z0.000
G1 X14.884 Y67.713 Z0.000
G1 X14.791 Y67.709 Z0.000
G1 X14.708 Y67.732 Z0.000
G1 X14.646 Y67.778 Z0.000
G1 X14.611 Y67.845 Z0.000
G1 X14.605 Y67.922 Z0.000
G1 X14.624 Y67.979 Z0.000
G1 X14.668 Y68.022 Z0.000
G1 X14.739 Y68.052 Z0.000
G1 X14.803 Y68.065 Z0.000
G1 X14.851 Y68.070 Z0.000
G1 X14.905 Y68.089 Z0.000
G1 X14.941 Y68.114 Z0.000
G1 X14.959 Y68.146 Z0.000
G1 X14.961 Y68.192 Z0.000
G1 X14.945 Y68.237 Z0.000
G1 X14.911 Y68.269 Z0.000
G1 X14.863 Y68.288 Z0.000
G1 X14.805 Y68.291 Z0.000
G1 X14.754 Y68.278 Z0.000
G1 X14.713 Y68.254 Z0.000
G1 X14.684 Y68.219 Z0.000
G1 X14.676 Y68.192 Z0.000
G1 X14.614 Y68.215 Z0.000
G1 X14.644 Y68.275 Z0.000
G1 X14.699 Y68.320 Z0.000
G1 X14.772 Y68.347 Z0.000
G1 X14.855 Y68.351 Z0.000
G1 X14.930 Y68.329 Z0.000
G1 X14.988 Y68.284 Z0.000
G1 X15.023 Y68.220 Z0.000
G1 X15.028 Y68.144 Z0.000
G1 X15.009 Y68.088 Z0.000
G1 X14.966 Y68.046 Z0.000
G1 X14.897 Y68.015 Z0.000
G1 X14.834 Y68.001 Z0.000
G1 X14.785 Y67.996 Z0.000
G1 X14.730 Y67.977 Z0.000
G1 X14.695 Y67.951 Z0.000
G1 X14.678 Y67.919 Z0.000
G1 X14.676 Y67.874 Z0.000
G1 X14.693 Y67.827 Z0.000
G1 X14.730 Y67.792 Z0.000
G1 X14.783 Y67.772 Z0.000
G1 X14.848 Y67.769 Z0.000
G1 X14.906 Y67.782 Z0.000
G1 X14.952 Y67.808 Z0.000
G1 X14.982 Y67.843 Z0.000
G1 X14.990 Y67.871 Z0.000
G1 X15.057 Y67.871 Z0.000
G1 X15.053 Y67.874 Z0.000
G0 X15.053 Y67.874 Z4.000

(shape postamble)


(shape preamble)

G0 X14.824 Y69.293 Z4.000
G1 X14.824 Y69.293 Z0.000
G1 X14.824 Y69.652 Z0.000
G1 X14.601 Y69.652 Z0.000
G1 X14.601 Y69.712 Z0.000
G1 X14.824 Y69.712 Z0.000
G1 X14.824 Y69.906 Z0.000
G1 X14.891 Y69.896 Z0.000
G1 X14.891 Y69.712 Z0.000
G1 X15.074 Y69.712 Z0.000
G1 X15.074 Y69.652 Z0.000
G1 X14.891 Y69.652 Z0.000
G1 X14.891 Y69.258 Z0.000
G1 X14.871 Y69.176 Z0.000
G1 X14.828 Y69.120 Z0.000
G1 X14.762 Y69.089 Z0.000
G1 X14.681 Y69.085 Z0.000
G1 X14.622 Y69.097 Z0.000
G1 X14.591 Y69.113 Z0.000
G1 X14.609 Y69.160 Z0.000
G1 X14.661 Y69.144 Z0.000
G1 X14.718 Y69.141 Z0.000
G1 X14.768 Y69.157 Z0.000
G1 X14.803 Y69.191 Z0.000
G1 X14.821 Y69.245 Z0.000
G1 X14.824 Y69.293 Z0.000
G1 X14.824 Y69.293 Z0.000
G0 X14.824 Y69.293 Z4.000

(shape postamble)


(shape preamble)

G0 X15.713 Y69.243 Z4.000
G1 X15.713 Y69.243 Z0.000
G1 X15.711 Y69.219 Z0.000
G1 X15.679 Y69.157 Z0.000
G1 X15.621 Y69.110 Z0.000
G1 X15.544 Y69.082 Z0.000
G1 X15.453 Y69.077 Z0.000
G1 X15.371 Y69.100 Z0.000
G1 X15.308 Y69.147 Z0.000
G1 X15.271 Y69.214 Z0.000
G1 X15.265 Y69.291 Z0.000
G1 X15.284 Y69.348 Z0.000
G1 X15.328 Y69.391 Z0.000
G1 X15.398 Y69.421 Z0.000
G1 X15.462 Y69.434 Z0.000
G1 X15.510 Y69.439 Z0.000
G1 X15.563 Y69.458 Z0.000
G1 X15.599 Y69.482 Z0.000
G1 X15.618 Y69.515 Z0.000
G1 X15.621 Y69.561 Z0.000
G1 X15.604 Y69.605 Z0.000
G1 X15.571 Y69.638 Z0.000
G1 X15.522 Y69.657 Z0.000
G1 X15.465 Y69.660 Z0.000
G1 X15.414 Y69.647 Z0.000
G1 X15.372 Y69.623 Z0.000
G1 X15.344 Y69.588 Z0.000
G1 X15.335 Y69.561 Z0.000
G1 X15.274 Y69.584 Z0.000
G1 X15.304 Y69.643 Z0.000
G1 X15.359 Y69.689 Z0.000
G1 X15.432 Y69.715 Z0.000
G1 X15.515 Y69.720 Z0.000
G1 X15.590 Y69.698 Z0.000
G1 X15.648 Y69.653 Z0.000
G1 X15.683 Y69.589 Z0.000
G1 X15.688 Y69.513 Z0.000
G1 X15.669 Y69.457 Z0.000
G1 X15.625 Y69.415 Z0.000
G1 X15.556 Y69.384 Z0.000
G1 X15.494 Y69.370 Z0.000
G1 X15.445 Y69.365 Z0.000
G1 X15.389 Y69.345 Z0.000
G1 X15.355 Y69.320 Z0.000
G1 X15.337 Y69.288 Z0.000
G1 X15.335 Y69.242 Z0.000
G1 X15.353 Y69.195 Z0.000
G1 X15.390 Y69.161 Z0.000
G1 X15.443 Y69.141 Z0.000
G1 X15.508 Y69.137 Z0.000
G1 X15.566 Y69.151 Z0.000
G1 X15.612 Y69.177 Z0.000
G1 X15.642 Y69.212 Z0.000
G1 X15.649 Y69.240 Z0.000
G1 X15.716 Y69.240 Z0.000
G1 X15.713 Y69.243 Z0.000
G0 X15.713 Y69.243 Z4.000

(shape postamble)


(shape preamble)

G0 X16.168 Y69.663 Z4.000
G1 X16.168 Y69.663 Z0.000
G1 X16.216 Y69.658 Z0.000
G1 X16.277 Y69.625 Z0.000
G1 X16.323 Y69.566 Z0.000
G1 X16.351 Y69.487 Z0.000
G1 X15.991 Y69.455 Z0.000
G1 X15.998 Y69.514 Z0.000
G1 X16.028 Y69.587 Z0.000
G1 X16.078 Y69.638 Z0.000
G1 X16.143 Y69.663 Z0.000
G1 X16.358 Y69.398 Z0.000
G1 X16.355 Y69.395 Z0.000
G1 X16.348 Y69.324 Z0.000
G1 X16.314 Y69.236 Z0.000
G1 X16.257 Y69.175 Z0.000
G1 X16.180 Y69.144 Z0.000
G1 X16.116 Y69.147 Z0.000
G1 X16.069 Y69.163 Z0.000
G1 X16.031 Y69.190 Z0.000
G1 X16.004 Y69.228 Z0.000
G1 X15.935 Y69.243 Z0.000
G1 X15.951 Y69.198 Z0.000
G1 X15.995 Y69.142 Z0.000
G1 X16.056 Y69.103 Z0.000
G1 X16.130 Y69.085 Z0.000
G1 X16.195 Y69.087 Z0.000
G1 X16.248 Y69.101 Z0.000
G1 X16.296 Y69.127 Z0.000
G1 X16.338 Y69.163 Z0.000
G1 X16.372 Y69.209 Z0.000
G1 X16.399 Y69.261 Z0.000
G1 X16.417 Y69.321 Z0.000
G1 X16.425 Y69.386 Z0.000
G1 X16.419 Y69.497 Z0.000
G1 X16.375 Y69.607 Z0.000
G1 X16.329 Y69.661 Z0.000
G1 X16.287 Y69.692 Z0.000
G1 X16.241 Y69.713 Z0.000
G1 X16.189 Y69.723 Z0.000
G1 X16.136 Y69.721 Z0.000
G1 X16.087 Y69.709 Z0.000
G1 X16.043 Y69.686 Z0.000
G1 X16.005 Y69.654 Z0.000
G1 X15.954 Y69.583 Z0.000
G1 X15.924 Y69.471 Z0.000
G1 X15.924 Y69.398 Z0.000
G1 X16.358 Y69.398 Z0.000
G0 X16.358 Y69.398 Z4.000

(shape postamble)


(shape preamble)

G0 X16.623 Y69.300 Z4.000
G1 X16.623 Y69.300 Z0.000
G1 X16.623 Y69.712 Z0.000
G1 X16.690 Y69.712 Z0.000
G1 X16.690 Y69.328 Z0.000
G1 X16.711 Y69.246 Z0.000
G1 X16.753 Y69.185 Z0.000
G1 X16.812 Y69.150 Z0.000
G1 X16.880 Y69.144 Z0.000
G1 X16.931 Y69.163 Z0.000
G1 X16.968 Y69.200 Z0.000
G1 X16.990 Y69.256 Z0.000
G1 X16.993 Y69.303 Z0.000
G1 X16.993 Y69.716 Z0.000
G1 X17.060 Y69.716 Z0.000
G1 X17.060 Y69.268 Z0.000
G1 X17.037 Y69.187 Z0.000
G1 X16.991 Y69.128 Z0.000
G1 X16.924 Y69.093 Z0.000
G1 X16.850 Y69.088 Z0.000
G1 X16.795 Y69.100 Z0.000
G1 X16.750 Y69.126 Z0.000
G1 X16.713 Y69.164 Z0.000
G1 X16.693 Y69.197 Z0.000
G1 X16.690 Y69.166 Z0.000
G1 X16.683 Y69.099 Z0.000
G1 X16.623 Y69.169 Z0.000
G1 X16.626 Y69.303 Z0.000
G1 X16.623 Y69.300 Z0.000
G0 X16.623 Y69.300 Z4.000

(shape postamble)


(shape preamble)

G0 X17.540 Y69.448 Z4.000
G1 X17.540 Y69.448 Z0.000
G1 X17.339 Y69.404 Z0.000
G1 X17.364 Y69.290 Z0.000
G1 X17.414 Y69.205 Z0.000
G1 X17.473 Y69.163 Z0.000
G1 X17.514 Y69.150 Z0.000
G1 X17.560 Y69.148 Z0.000
G1 X17.605 Y69.159 Z0.000
G1 X17.645 Y69.181 Z0.000
G1 X17.680 Y69.214 Z0.000
G1 X17.719 Y69.273 Z0.000
G1 X17.754 Y69.394 Z0.000
G1 X17.759 Y69.546 Z0.000
G1 X17.731 Y69.679 Z0.000
G1 X17.683 Y69.762 Z0.000
G1 X17.647 Y69.799 Z0.000
G1 X17.605 Y69.826 Z0.000
G1 X17.557 Y69.841 Z0.000
G1 X17.500 Y69.843 Z0.000
G1 X17.440 Y69.827 Z0.000
G1 X17.390 Y69.795 Z0.000
G1 X17.355 Y69.750 Z0.000
G1 X17.343 Y69.712 Z0.000
G1 X17.281 Y69.741 Z0.000
G1 X17.320 Y69.814 Z0.000
G1 X17.383 Y69.869 Z0.000
G1 X17.464 Y69.901 Z0.000
G1 X17.549 Y69.906 Z0.000
G1 X17.612 Y69.894 Z0.000
G1 X17.668 Y69.866 Z0.000
G1 X17.718 Y69.826 Z0.000
G1 X17.760 Y69.773 Z0.000
G1 X17.794 Y69.709 Z0.000
G1 X17.818 Y69.636 Z0.000
G1 X17.831 Y69.553 Z0.000
G1 X17.833 Y69.463 Z0.000
G1 X17.824 Y69.379 Z0.000
G1 X17.805 Y69.303 Z0.000
G1 X17.778 Y69.237 Z0.000
G1 X17.742 Y69.182 Z0.000
G1 X17.699 Y69.138 Z0.000
G1 X17.649 Y69.108 Z0.000
G1 X17.594 Y69.091 Z0.000
G1 X17.530 Y69.088 Z0.000
G1 X17.466 Y69.106 Z0.000
G1 X17.411 Y69.143 Z0.000
G1 X17.366 Y69.196 Z0.000
G1 X17.343 Y69.240 Z0.000
G1 X17.339 Y69.240 Z0.000
G1 X17.339 Y69.099 Z0.000
G1 X17.272 Y69.099 Z0.000
G1 X17.272 Y69.515 Z0.000
G1 X17.540 Y69.515 Z0.000
G1 X17.540 Y69.451 Z0.000
G1 X17.540 Y69.448 Z0.000
G0 X17.540 Y69.448 Z4.000

(shape postamble)


(shape preamble)

G0 X27.072 Y52.507 Z4.000
G1 X27.072 Y52.507 Z0.000
G1 X17.900 Y43.028 Z0.000
G1 X17.900 Y43.339 Z0.000
G1 X36.555 Y43.339 Z0.000
G1 X36.555 Y43.028 Z0.000
G1 X17.900 Y43.028 Z0.000
G0 X17.900 Y43.028 Z4.000

(shape postamble)


(shape preamble)

G0 X17.900 Y40.107 Z4.000
G1 X17.900 Y40.107 Z0.000
G1 X24.119 Y40.107 Z0.000
G1 X24.119 Y40.418 Z0.000
G1 X17.900 Y40.418 Z0.000
G1 X17.900 Y40.107 Z0.000
G1 X20.853 Y43.374 Z0.000
G0 X20.853 Y43.374 Z4.000

(shape postamble)


(shape preamble)

G0 X20.853 Y42.651 Z4.000
G1 X20.853 Y42.651 Z0.000
G1 X5.465 Y26.952 Z0.000
G1 X5.465 Y27.263 Z0.000
G1 X36.555 Y27.263 Z0.000
G1 X36.555 Y26.952 Z0.000
G1 X5.465 Y26.952 Z0.000
G0 X5.465 Y26.952 Z4.000

(shape postamble)


(shape preamble)

G0 X4.667 Y20.443 Z4.000
G1 X4.667 Y20.443 Z0.000
G1 X1.612 Y20.443 Z0.000
G0 X1.612 Y20.443 Z4.000

(shape postamble)


(shape preamble)

G0 X14.009 Y20.443 Z4.000
G1 X14.009 Y20.443 Z0.000
G1 X17.064 Y20.443 Z0.000
G0 X17.064 Y20.443 Z4.000

(shape postamble)


(shape preamble)

G0 X26.409 Y20.443 Z4.000
G1 X26.409 Y20.443 Z0.000
G1 X29.464 Y20.443 Z0.000
G0 X29.464 Y20.443 Z4.000

(shape postamble)


(shape preamble)

G0 X38.806 Y20.443 Z4.000
G1 X38.806 Y20.443 Z0.000
G1 X41.861 Y20.443 Z0.000
G0 X41.861 Y20.443 Z4.000

(shape postamble)


(shape preamble)

G0 X45.007 Y20.443 Z4.000
G1 X45.007 Y20.443 Z0.000
G1 X48.062 Y20.443 Z0.000
G0 X48.062 Y20.443 Z4.000

(shape postamble)


(shape preamble)

G0 X51.206 Y20.443 Z4.000
G1 X51.206 Y20.443 Z0.000
G1 X54.261 Y20.443 Z0.000
G0 X54.261 Y20.443 Z4.000

(shape postamble)


(shape preamble)

G0 X57.796 Y20.443 Z4.000
G1 X57.796 Y20.443 Z0.000
G1 X60.851 Y20.443 Z0.000
G0 X60.851 Y20.443 Z4.000

(shape postamble)


(shape preamble)

G0 X45.741 Y30.342 Z4.000
G1 X45.741 Y30.342 Z0.000
G1 X42.771 Y27.058 Z0.000
G1 X42.771 Y27.369 Z0.000
G1 X49.022 Y27.369 Z0.000
G1 X49.022 Y27.058 Z0.000
G1 X42.771 Y27.058 Z0.000
G0 X42.771 Y27.058 Z4.000

(shape postamble)


(shape preamble)

G0 X42.771 Y30.699 Z4.000
G1 X42.771 Y30.699 Z0.000
G1 X48.990 Y30.699 Z0.000
G1 X48.990 Y31.009 Z0.000
G1 X42.771 Y31.009 Z0.000
G1 X42.771 Y30.699 Z0.000
G1 X45.724 Y33.965 Z0.000
G0 X45.724 Y33.965 Z4.000

(shape postamble)


(shape preamble)

G0 X48.987 Y46.027 Z4.000
G1 X48.987 Y46.027 Z0.000
G1 X55.139 Y46.027 Z0.000
G1 X55.139 Y46.334 Z0.000
G1 X48.987 Y46.334 Z0.000
G1 X48.987 Y46.027 Z0.000
G1 X51.911 Y49.258 Z0.000
G0 X51.911 Y49.258 Z4.000

(shape postamble)


(shape preamble)

G0 X36.396 Y54.984 Z4.000
G1 X36.396 Y54.984 Z0.000
G1 X30.335 Y48.609 Z0.000
G1 X30.335 Y48.920 Z0.000
G1 X42.771 Y48.920 Z0.000
G1 X42.771 Y48.609 Z0.000
G1 X30.335 Y48.609 Z0.000
G0 X30.335 Y48.609 Z4.000

(shape postamble)


(shape preamble)

G0 X30.335 Y45.819 Z4.000
G1 X30.335 Y45.819 Z0.000
G1 X36.555 Y45.819 Z0.000
G1 X36.555 Y46.129 Z0.000
G1 X30.335 Y46.129 Z0.000
G1 X30.335 Y45.819 Z0.000
G1 X33.288 Y49.082 Z0.000
G0 X33.288 Y49.082 Z4.000

(shape postamble)


(shape preamble)

G0 X23.961 Y43.875 Z4.000
G1 X23.961 Y43.875 Z0.000
G1 X17.900 Y37.500 Z0.000
G1 X17.900 Y37.811 Z0.000
G1 X30.335 Y37.811 Z0.000
G1 X30.335 Y37.500 Z0.000
G1 X17.900 Y37.500 Z0.000
G0 X17.900 Y37.500 Z4.000

(shape postamble)


(shape preamble)

G0 X17.745 Y36.865 Z4.000
G1 X17.745 Y36.865 Z0.000
G1 X11.684 Y30.494 Z0.000
G1 X11.684 Y30.805 Z0.000
G1 X24.119 Y30.805 Z0.000
G1 X24.119 Y30.494 Z0.000
G1 X11.684 Y30.494 Z0.000
G0 X11.684 Y30.494 Z4.000

(shape postamble)


(shape preamble)

G0 X11.680 Y33.338 Z4.000
G1 X11.680 Y33.338 Z0.000
G1 X17.900 Y33.338 Z0.000
G1 X17.900 Y33.648 Z0.000
G1 X11.680 Y33.648 Z0.000
G1 X11.680 Y33.338 Z0.000
G1 X14.637 Y36.604 Z0.000
G0 X14.637 Y36.604 Z4.000

(shape postamble)


(shape preamble)

G0 X5.465 Y43.025 Z4.000
G1 X5.465 Y43.025 Z0.000
G1 X11.684 Y43.025 Z0.000
G1 X11.684 Y43.335 Z0.000
G1 X5.465 Y43.335 Z0.000
G1 X5.465 Y43.025 Z0.000
G1 X8.417 Y46.292 Z0.000
G0 X8.417 Y46.292 Z4.000

(shape postamble)


(shape preamble)

G0 X7.620 Y1.358 Z4.000
G1 X7.620 Y1.358 Z0.000
G1 X7.663 Y1.354 Z0.000
G1 X7.718 Y1.323 Z0.000
G1 X7.760 Y1.270 Z0.000
G1 X7.786 Y1.197 Z0.000
G1 X7.458 Y1.168 Z0.000
G1 X7.463 Y1.222 Z0.000
G1 X7.491 Y1.289 Z0.000
G1 X7.537 Y1.335 Z0.000
G1 X7.597 Y1.358 Z0.000
G1 X7.793 Y1.118 Z0.000
G1 X7.796 Y1.115 Z0.000
G1 X7.790 Y1.049 Z0.000
G1 X7.759 Y0.969 Z0.000
G1 X7.707 Y0.913 Z0.000
G1 X7.637 Y0.885 Z0.000
G1 X7.577 Y0.887 Z0.000
G1 X7.534 Y0.901 Z0.000
G1 X7.499 Y0.925 Z0.000
G1 X7.474 Y0.960 Z0.000
G1 X7.408 Y0.974 Z0.000
G1 X7.423 Y0.933 Z0.000
G1 X7.462 Y0.882 Z0.000
G1 X7.517 Y0.847 Z0.000
G1 X7.585 Y0.829 Z0.000
G1 X7.645 Y0.831 Z0.000
G1 X7.694 Y0.844 Z0.000
G1 X7.738 Y0.868 Z0.000
G1 X7.776 Y0.900 Z0.000
G1 X7.826 Y0.972 Z0.000
G1 X7.856 Y1.083 Z0.000
G1 X7.850 Y1.207 Z0.000
G1 X7.811 Y1.308 Z0.000
G1 X7.745 Y1.379 Z0.000
G1 X7.688 Y1.406 Z0.000
G1 X7.640 Y1.415 Z0.000
G1 X7.559 Y1.408 Z0.000
G1 X7.480 Y1.363 Z0.000
G1 X7.425 Y1.287 Z0.000
G1 X7.398 Y1.184 Z0.000
G1 X7.398 Y1.118 Z0.000
G1 X7.793 Y1.118 Z0.000
G0 X7.793 Y1.118 Z4.000

(shape postamble)


(shape preamble)

G0 X8.343 Y0.840 Z4.000
G1 X8.343 Y0.840 Z0.000
G1 X8.343 Y1.192 Z0.000
G1 X8.325 Y1.265 Z0.000
G1 X8.289 Y1.319 Z0.000
G1 X8.235 Y1.350 Z0.000
G1 X8.177 Y1.355 Z0.000
G1 X8.140 Y1.345 Z0.000
G1 X8.110 Y1.324 Z0.000
G1 X8.089 Y1.293 Z0.000
G1 X8.082 Y1.266 Z0.000
G1 X8.021 Y1.289 Z0.000
G1 X8.045 Y1.344 Z0.000
G1 X8.085 Y1.384 Z0.000
G1 X8.138 Y1.408 Z0.000
G1 X8.199 Y1.411 Z0.000
G1 X8.250 Y1.399 Z0.000
G1 X8.293 Y1.373 Z0.000
G1 X8.327 Y1.336 Z0.000
G1 X8.343 Y1.305 Z0.000
G1 X8.347 Y1.305 Z0.000
G1 X8.347 Y1.404 Z0.000
G1 X8.403 Y1.404 Z0.000
G1 X8.403 Y0.840 Z0.000
G1 X8.340 Y0.840 Z0.000
G1 X8.343 Y0.840 Z0.000
G0 X8.343 Y0.840 Z4.000

(shape postamble)


(shape preamble)

G0 X9.056 Y0.840 Z4.000
G1 X9.056 Y0.840 Z0.000
G1 X8.992 Y0.840 Z0.000
G1 X8.992 Y1.192 Z0.000
G1 X8.974 Y1.266 Z0.000
G1 X8.935 Y1.323 Z0.000
G1 X8.881 Y1.356 Z0.000
G1 X8.819 Y1.362 Z0.000
G1 X8.771 Y1.345 Z0.000
G1 X8.737 Y1.310 Z0.000
G1 X8.717 Y1.259 Z0.000
G1 X8.714 Y1.217 Z0.000
G1 X8.714 Y0.840 Z0.000
G1 X8.650 Y0.840 Z0.000
G1 X8.650 Y1.250 Z0.000
G1 X8.671 Y1.324 Z0.000
G1 X8.713 Y1.378 Z0.000
G1 X8.774 Y1.410 Z0.000
G1 X8.841 Y1.415 Z0.000
G1 X8.889 Y1.403 Z0.000
G1 X8.931 Y1.379 Z0.000
G1 X8.966 Y1.345 Z0.000
G1 X8.985 Y1.316 Z0.000
G1 X8.989 Y1.316 Z0.000
G1 X8.989 Y1.612 Z0.000
G1 X9.052 Y1.612 Z0.000
G1 X9.052 Y0.840 Z0.000
G1 X9.056 Y0.840 Z0.000
G0 X9.056 Y0.840 Z4.000

(shape postamble)


(shape preamble)

G0 X9.511 Y0.840 Z4.000
G1 X9.511 Y0.840 Z0.000
G1 X9.447 Y0.840 Z0.000
G1 X9.447 Y1.513 Z0.000
G1 X9.218 Y1.513 Z0.000
G1 X9.218 Y1.573 Z0.000
G1 X9.740 Y1.573 Z0.000
G1 X9.740 Y1.513 Z0.000
G1 X9.511 Y1.513 Z0.000
G1 X9.511 Y0.840 Z0.000
G0 X9.511 Y0.840 Z4.000

(shape postamble)


(shape preamble)

G0 X10.908 Y1.136 Z4.000
G1 X10.908 Y1.136 Z0.000
G1 X10.513 Y1.136 Z0.000
G1 X10.513 Y1.192 Z0.000
G1 X10.908 Y1.192 Z0.000
G1 X10.908 Y1.136 Z0.000
G0 X10.908 Y1.136 Z4.000

(shape postamble)


(shape preamble)

G0 X12.185 Y1.020 Z4.000
G1 X12.185 Y1.020 Z0.000
G1 X12.184 Y0.992 Z0.000
G1 X12.153 Y0.921 Z0.000
G1 X12.093 Y0.866 Z0.000
G1 X12.010 Y0.834 Z0.000
G1 X11.912 Y0.829 Z0.000
G1 X11.823 Y0.855 Z0.000
G1 X11.755 Y0.907 Z0.000
G1 X11.715 Y0.979 Z0.000
G1 X11.709 Y1.064 Z0.000
G1 X11.731 Y1.131 Z0.000
G1 X11.779 Y1.184 Z0.000
G1 X11.854 Y1.224 Z0.000
G1 X11.920 Y1.242 Z0.000
G1 X11.986 Y1.258 Z0.000
G1 X12.040 Y1.280 Z0.000
G1 X12.077 Y1.313 Z0.000
G1 X12.097 Y1.355 Z0.000
G1 X12.100 Y1.410 Z0.000
G1 X12.082 Y1.462 Z0.000
G1 X12.046 Y1.501 Z0.000
G1 X11.992 Y1.524 Z0.000
G1 X11.927 Y1.528 Z0.000
G1 X11.868 Y1.513 Z0.000
G1 X11.822 Y1.483 Z0.000
G1 X11.792 Y1.442 Z0.000
G1 X11.783 Y1.408 Z0.000
G1 X11.725 Y1.433 Z0.000
G1 X11.756 Y1.500 Z0.000
G1 X11.814 Y1.550 Z0.000
G1 X11.892 Y1.579 Z0.000
G1 X11.983 Y1.584 Z0.000
G1 X12.064 Y1.560 Z0.000
G1 X12.125 Y1.511 Z0.000
G1 X12.162 Y1.442 Z0.000
G1 X12.167 Y1.361 Z0.000
G1 X12.147 Y1.295 Z0.000
G1 X12.102 Y1.244 Z0.000
G1 X12.035 Y1.207 Z0.000
G1 X11.977 Y1.192 Z0.000
G1 X11.909 Y1.176 Z0.000
G1 X11.848 Y1.150 Z0.000
G1 X11.805 Y1.116 Z0.000
G1 X11.783 Y1.072 Z0.000
G1 X11.779 Y1.015 Z0.000
G1 X11.800 Y0.959 Z0.000
G1 X11.843 Y0.917 Z0.000
G1 X11.905 Y0.893 Z0.000
G1 X11.980 Y0.889 Z0.000
G1 X12.045 Y0.906 Z0.000
G1 X12.094 Y0.939 Z0.000
G1 X12.125 Y0.986 Z0.000
G1 X12.132 Y1.023 Z0.000
G1 X12.192 Y1.023 Z0.000
G1 X12.185 Y1.020 Z0.000
G0 X12.185 Y1.020 Z4.000

(shape postamble)


(shape preamble)

G0 X12.806 Y1.020 Z4.000
G1 X12.806 Y1.020 Z0.000
G1 X12.806 Y0.992 Z0.000
G1 X12.777 Y0.922 Z0.000
G1 X12.721 Y0.868 Z0.000
G1 X12.644 Y0.837 Z0.000
G1 X12.553 Y0.833 Z0.000
G1 X12.470 Y0.857 Z0.000
G1 X12.406 Y0.907 Z0.000
G1 X12.368 Y0.975 Z0.000
G1 X12.361 Y1.030 Z0.000
G1 X12.361 Y1.573 Z0.000
G1 X12.728 Y1.573 Z0.000
G1 X12.728 Y1.513 Z0.000
G1 X12.428 Y1.513 Z0.000
G1 X12.428 Y1.009 Z0.000
G1 X12.447 Y0.955 Z0.000
G1 X12.486 Y0.915 Z0.000
G1 X12.541 Y0.893 Z0.000
G1 X12.611 Y0.889 Z0.000
G1 X12.671 Y0.905 Z0.000
G1 X12.715 Y0.937 Z0.000
G1 X12.743 Y0.982 Z0.000
G1 X12.749 Y1.020 Z0.000
G1 X12.809 Y1.020 Z0.000
G1 X12.806 Y1.020 Z0.000
G0 X12.806 Y1.020 Z4.000

(shape postamble)


(shape preamble)

G0 X13.173 Y1.358 Z4.000
G1 X13.173 Y1.358 Z0.000
G1 X13.216 Y1.354 Z0.000
G1 X13.270 Y1.323 Z0.000
G1 X13.312 Y1.270 Z0.000
G1 X13.339 Y1.197 Z0.000
G1 X13.010 Y1.168 Z0.000
G1 X13.016 Y1.222 Z0.000
G1 X13.044 Y1.289 Z0.000
G1 X13.090 Y1.335 Z0.000
G1 X13.150 Y1.358 Z0.000
G1 X13.346 Y1.118 Z0.000
G1 X13.349 Y1.115 Z0.000
G1 X13.343 Y1.049 Z0.000
G1 X13.312 Y0.969 Z0.000
G1 X13.259 Y0.913 Z0.000
G1 X13.189 Y0.885 Z0.000
G1 X13.130 Y0.887 Z0.000
G1 X13.087 Y0.901 Z0.000
G1 X13.052 Y0.925 Z0.000
G1 X13.026 Y0.960 Z0.000
G1 X12.961 Y0.974 Z0.000
G1 X12.975 Y0.933 Z0.000
G1 X13.015 Y0.882 Z0.000
G1 X13.070 Y0.847 Z0.000
G1 X13.137 Y0.829 Z0.000
G1 X13.198 Y0.831 Z0.000
G1 X13.247 Y0.844 Z0.000
G1 X13.291 Y0.868 Z0.000
G1 X13.329 Y0.900 Z0.000
G1 X13.379 Y0.972 Z0.000
G1 X13.409 Y1.083 Z0.000
G1 X13.403 Y1.207 Z0.000
G1 X13.364 Y1.308 Z0.000
G1 X13.297 Y1.379 Z0.000
G1 X13.240 Y1.406 Z0.000
G1 X13.193 Y1.415 Z0.000
G1 X13.112 Y1.408 Z0.000
G1 X13.033 Y1.363 Z0.000
G1 X12.978 Y1.287 Z0.000
G1 X12.950 Y1.184 Z0.000
G1 X12.950 Y1.118 Z0.000
G1 X13.346 Y1.118 Z0.000
G0 X13.346 Y1.118 Z4.000

(shape postamble)


(shape preamble)

G0 X13.631 Y0.840 Z4.000
G1 X13.631 Y0.840 Z0.000
G1 X13.575 Y0.907 Z0.000
G1 X13.578 Y1.027 Z0.000
G1 X13.578 Y1.612 Z0.000
G1 X13.642 Y1.612 Z0.000
G1 X13.642 Y1.302 Z0.000
G1 X13.654 Y1.319 Z0.000
G1 X13.688 Y1.363 Z0.000
G1 X13.731 Y1.394 Z0.000
G1 X13.781 Y1.412 Z0.000
G1 X13.835 Y1.415 Z0.000
G1 X13.882 Y1.405 Z0.000
G1 X13.938 Y1.378 Z0.000
G1 X14.004 Y1.306 Z0.000
G1 X14.042 Y1.204 Z0.000
G1 X14.048 Y1.080 Z0.000
G1 X14.020 Y0.969 Z0.000
G1 X13.963 Y0.886 Z0.000
G1 X13.897 Y0.844 Z0.000
G1 X13.851 Y0.831 Z0.000
G1 X13.799 Y0.829 Z0.000
G1 X13.746 Y0.842 Z0.000
G1 X13.699 Y0.869 Z0.000
G1 X13.661 Y0.910 Z0.000
G1 X13.642 Y0.945 Z0.000
G1 X13.638 Y0.910 Z0.000
G1 X13.631 Y0.840 Z0.000
G1 X13.631 Y0.840 Z0.000
G1 X13.837 Y0.885 Z0.000
G1 X13.903 Y0.914 Z0.000
G1 X13.953 Y0.973 Z0.000
G1 X13.983 Y1.055 Z0.000
G1 X13.988 Y1.156 Z0.000
G1 X13.966 Y1.245 Z0.000
G1 X13.922 Y1.313 Z0.000
G1 X13.859 Y1.352 Z0.000
G1 X13.781 Y1.358 Z0.000
G1 X13.716 Y1.330 Z0.000
G1 X13.669 Y1.272 Z0.000
G1 X13.642 Y1.190 Z0.000
G1 X13.638 Y1.087 Z0.000
G1 X13.658 Y0.997 Z0.000
G1 X13.699 Y0.930 Z0.000
G1 X13.759 Y0.891 Z0.000
G1 X13.808 Y0.885 Z0.000
G1 X13.811 Y0.885 Z0.000
G0 X13.811 Y0.885 Z4.000

(shape postamble)


(shape preamble)

G0 X14.411 Y0.885 Z4.000
G1 X14.411 Y0.885 Z0.000
G1 X14.362 Y0.892 Z0.000
G1 X14.300 Y0.931 Z0.000
G1 X14.256 Y0.998 Z0.000
G1 X14.235 Y1.087 Z0.000
G1 X14.239 Y1.188 Z0.000
G1 X14.269 Y1.271 Z0.000
G1 X14.319 Y1.329 Z0.000
G1 X14.385 Y1.358 Z0.000
G1 X14.460 Y1.352 Z0.000
G1 X14.522 Y1.313 Z0.000
G1 X14.566 Y1.245 Z0.000
G1 X14.587 Y1.156 Z0.000
G1 X14.583 Y1.055 Z0.000
G1 X14.554 Y0.973 Z0.000
G1 X14.505 Y0.914 Z0.000
G1 X14.437 Y0.885 Z0.000
G1 X14.411 Y0.833 Z0.000
G1 X14.445 Y0.834 Z0.000
G1 X14.492 Y0.847 Z0.000
G1 X14.561 Y0.889 Z0.000
G1 X14.621 Y0.973 Z0.000
G1 X14.651 Y1.083 Z0.000
G1 X14.644 Y1.207 Z0.000
G1 X14.604 Y1.309 Z0.000
G1 X14.535 Y1.382 Z0.000
G1 X14.477 Y1.409 Z0.000
G1 X14.428 Y1.418 Z0.000
G1 X14.377 Y1.416 Z0.000
G1 X14.330 Y1.403 Z0.000
G1 X14.261 Y1.361 Z0.000
G1 X14.201 Y1.278 Z0.000
G1 X14.171 Y1.168 Z0.000
G1 X14.177 Y1.044 Z0.000
G1 X14.217 Y0.941 Z0.000
G1 X14.260 Y0.891 Z0.000
G1 X14.299 Y0.862 Z0.000
G1 X14.344 Y0.842 Z0.000
G1 X14.393 Y0.833 Z0.000
G1 X14.411 Y0.833 Z0.000
G0 X14.411 Y0.833 Z4.000

(shape postamble)


(shape preamble)

G0 X14.845 Y0.935 Z4.000
G1 X14.845 Y0.935 Z0.000
G1 X14.848 Y0.935 Z0.000
G1 X15.180 Y1.573 Z0.000
G1 X15.272 Y1.573 Z0.000
G1 X15.272 Y0.843 Z0.000
G1 X15.212 Y0.843 Z0.000
G1 X15.212 Y1.503 Z0.000
G1 X15.208 Y1.503 Z0.000
G1 X14.866 Y0.843 Z0.000
G1 X14.785 Y0.843 Z0.000
G1 X14.785 Y1.573 Z0.000
G1 X14.845 Y1.573 Z0.000
G1 X14.845 Y0.935 Z0.000
G0 X14.845 Y0.935 Z4.000

(shape postamble)


(shape preamble)

G0 X16.461 Y1.136 Z4.000
G1 X16.461 Y1.136 Z0.000
G1 X16.066 Y1.136 Z0.000
G1 X16.066 Y1.192 Z0.000
G1 X16.461 Y1.192 Z0.000
G1 X16.461 Y1.136 Z0.000
G0 X16.461 Y1.136 Z4.000

(shape postamble)


(shape preamble)

G0 X17.593 Y0.840 Z4.000
G1 X17.593 Y0.840 Z0.000
G1 X17.593 Y1.192 Z0.000
G1 X17.575 Y1.265 Z0.000
G1 X17.538 Y1.319 Z0.000
G1 X17.485 Y1.350 Z0.000
G1 X17.427 Y1.355 Z0.000
G1 X17.390 Y1.345 Z0.000
G1 X17.360 Y1.324 Z0.000
G1 X17.339 Y1.293 Z0.000
G1 X17.332 Y1.266 Z0.000
G1 X17.271 Y1.289 Z0.000
G1 X17.295 Y1.344 Z0.000
G1 X17.335 Y1.384 Z0.000
G1 X17.388 Y1.408 Z0.000
G1 X17.449 Y1.411 Z0.000
G1 X17.500 Y1.399 Z0.000
G1 X17.543 Y1.373 Z0.000
G1 X17.577 Y1.336 Z0.000
G1 X17.593 Y1.305 Z0.000
G1 X17.597 Y1.305 Z0.000
G1 X17.597 Y1.404 Z0.000
G1 X17.653 Y1.404 Z0.000
G1 X17.653 Y0.840 Z0.000
G1 X17.590 Y0.840 Z0.000
G1 X17.593 Y0.840 Z0.000
G0 X17.593 Y0.840 Z4.000

(shape postamble)


(shape preamble)

G0 X18.105 Y1.358 Z4.000
G1 X18.105 Y1.358 Z0.000
G1 X18.147 Y1.354 Z0.000
G1 X18.202 Y1.323 Z0.000
G1 X18.244 Y1.270 Z0.000
G1 X18.270 Y1.197 Z0.000
G1 X17.942 Y1.168 Z0.000
G1 X17.948 Y1.222 Z0.000
G1 X17.976 Y1.289 Z0.000
G1 X18.022 Y1.335 Z0.000
G1 X18.082 Y1.358 Z0.000
G1 X18.277 Y1.118 Z0.000
G1 X18.281 Y1.115 Z0.000
G1 X18.275 Y1.049 Z0.000
G1 X18.243 Y0.969 Z0.000
G1 X18.191 Y0.913 Z0.000
G1 X18.121 Y0.885 Z0.000
G1 X18.061 Y0.887 Z0.000
G1 X18.018 Y0.901 Z0.000
G1 X17.983 Y0.925 Z0.000
G1 X17.958 Y0.960 Z0.000
G1 X17.893 Y0.974 Z0.000
G1 X17.907 Y0.933 Z0.000
G1 X17.947 Y0.882 Z0.000
G1 X18.002 Y0.847 Z0.000
G1 X18.069 Y0.829 Z0.000
G1 X18.129 Y0.831 Z0.000
G1 X18.179 Y0.844 Z0.000
G1 X18.223 Y0.868 Z0.000
G1 X18.261 Y0.900 Z0.000
G1 X18.311 Y0.972 Z0.000
G1 X18.341 Y1.083 Z0.000
G1 X18.335 Y1.207 Z0.000
G1 X18.296 Y1.308 Z0.000
G1 X18.229 Y1.379 Z0.000
G1 X18.172 Y1.406 Z0.000
G1 X18.125 Y1.415 Z0.000
G1 X18.044 Y1.408 Z0.000
G1 X17.965 Y1.363 Z0.000
G1 X17.909 Y1.287 Z0.000
G1 X17.882 Y1.184 Z0.000
G1 X17.882 Y1.118 Z0.000
G1 X18.277 Y1.118 Z0.000
G0 X18.277 Y1.118 Z4.000

(shape postamble)


(shape preamble)

G0 X18.930 Y0.840 Z4.000
G1 X18.930 Y0.840 Z0.000
G1 X18.867 Y0.840 Z0.000
G1 X18.867 Y1.009 Z0.000
G1 X18.754 Y1.125 Z0.000
G1 X18.549 Y0.836 Z0.000
G1 X18.471 Y0.836 Z0.000
G1 X18.711 Y1.171 Z0.000
G1 X18.493 Y1.401 Z0.000
G1 X18.577 Y1.401 Z0.000
G1 X18.870 Y1.090 Z0.000
G1 X18.870 Y1.609 Z0.000
G1 X18.934 Y1.609 Z0.000
G1 X18.934 Y0.836 Z0.000
G1 X18.930 Y0.840 Z0.000
G0 X18.930 Y0.840 Z4.000

(shape postamble)


(shape preamble)

G0 X19.173 Y0.977 Z4.000
G1 X19.173 Y0.977 Z0.000
G1 X19.178 Y0.963 Z0.000
G1 X19.202 Y0.928 Z0.000
G1 X19.239 Y0.902 Z0.000
G1 X19.284 Y0.888 Z0.000
G1 X19.346 Y0.885 Z0.000
G1 X19.418 Y0.914 Z0.000
G1 X19.470 Y0.973 Z0.000
G1 X19.500 Y1.055 Z0.000
G1 X19.505 Y1.156 Z0.000
G1 X19.483 Y1.246 Z0.000
G1 X19.438 Y1.315 Z0.000
G1 X19.372 Y1.355 Z0.000
G1 X19.301 Y1.362 Z0.000
G1 X19.256 Y1.351 Z0.000
G1 X19.219 Y1.329 Z0.000
G1 X19.192 Y1.297 Z0.000
G1 X19.181 Y1.270 Z0.000
G1 X19.124 Y1.292 Z0.000
G1 X19.155 Y1.348 Z0.000
G1 X19.205 Y1.388 Z0.000
G1 X19.270 Y1.411 Z0.000
G1 X19.336 Y1.415 Z0.000
G1 X19.387 Y1.405 Z0.000
G1 X19.433 Y1.386 Z0.000
G1 X19.473 Y1.356 Z0.000
G1 X19.518 Y1.306 Z0.000
G1 X19.559 Y1.204 Z0.000
G1 X19.565 Y1.080 Z0.000
G1 X19.534 Y0.969 Z0.000
G1 X19.483 Y0.899 Z0.000
G1 X19.444 Y0.867 Z0.000
G1 X19.400 Y0.844 Z0.000
G1 X19.350 Y0.831 Z0.000
G1 X19.289 Y0.829 Z0.000
G1 X19.219 Y0.847 Z0.000
G1 X19.163 Y0.882 Z0.000
G1 X19.125 Y0.933 Z0.000
G1 X19.114 Y0.974 Z0.000
G1 X19.173 Y0.974 Z0.000
G1 X19.173 Y0.977 Z0.000
G0 X19.173 Y0.977 Z4.000

(shape postamble)


(shape preamble)

G0 X19.960 Y0.885 Z4.000
G1 X19.960 Y0.885 Z0.000
G1 X19.911 Y0.892 Z0.000
G1 X19.849 Y0.931 Z0.000
G1 X19.806 Y0.998 Z0.000
G1 X19.784 Y1.087 Z0.000
G1 X19.788 Y1.188 Z0.000
G1 X19.818 Y1.271 Z0.000
G1 X19.868 Y1.329 Z0.000
G1 X19.935 Y1.358 Z0.000
G1 X20.010 Y1.352 Z0.000
G1 X20.071 Y1.313 Z0.000
G1 X20.115 Y1.245 Z0.000
G1 X20.137 Y1.156 Z0.000
G1 X20.132 Y1.055 Z0.000
G1 X20.103 Y0.973 Z0.000
G1 X20.054 Y0.914 Z0.000
G1 X19.987 Y0.885 Z0.000
G1 X19.960 Y0.833 Z0.000
G1 X19.994 Y0.834 Z0.000
G1 X20.041 Y0.847 Z0.000
G1 X20.110 Y0.889 Z0.000
G1 X20.170 Y0.973 Z0.000
G1 X20.200 Y1.083 Z0.000
G1 X20.194 Y1.207 Z0.000
G1 X20.153 Y1.309 Z0.000
G1 X20.085 Y1.382 Z0.000
G1 X20.026 Y1.409 Z0.000
G1 X19.977 Y1.418 Z0.000
G1 X19.926 Y1.416 Z0.000
G1 X19.879 Y1.403 Z0.000
G1 X19.810 Y1.361 Z0.000
G1 X19.750 Y1.278 Z0.000
G1 X19.720 Y1.168 Z0.000
G1 X19.726 Y1.044 Z0.000
G1 X19.766 Y0.941 Z0.000
G1 X19.810 Y0.891 Z0.000
G1 X19.849 Y0.862 Z0.000
G1 X19.893 Y0.842 Z0.000
G1 X19.943 Y0.833 Z0.000
G1 X19.960 Y0.833 Z0.000
G0 X19.960 Y0.833 Z4.000

(shape postamble)


(shape preamble)

G0 X20.736 Y0.900 Z4.000
G1 X20.736 Y0.900 Z0.000
G1 X20.599 Y0.900 Z0.000
G1 X20.565 Y0.901 Z0.000
G1 X20.519 Y0.914 Z0.000
G1 X20.479 Y0.937 Z0.000
G1 X20.444 Y0.970 Z0.000
G1 X20.399 Y1.042 Z0.000
G1 X20.373 Y1.160 Z0.000
G1 X20.378 Y1.296 Z0.000
G1 X20.415 Y1.403 Z0.000
G1 X20.455 Y1.455 Z0.000
G1 X20.492 Y1.485 Z0.000
G1 X20.534 Y1.504 Z0.000
G1 X20.582 Y1.513 Z0.000
G1 X20.736 Y1.513 Z0.000
G1 X20.736 Y0.900 Z0.000
G1 X20.803 Y0.840 Z0.000
G1 X20.803 Y0.843 Z0.000
G1 X20.803 Y1.573 Z0.000
G1 X20.599 Y1.573 Z0.000
G1 X20.556 Y1.571 Z0.000
G1 X20.498 Y1.555 Z0.000
G1 X20.446 Y1.528 Z0.000
G1 X20.400 Y1.488 Z0.000
G1 X20.363 Y1.438 Z0.000
G1 X20.334 Y1.378 Z0.000
G1 X20.315 Y1.310 Z0.000
G1 X20.306 Y1.234 Z0.000
G1 X20.308 Y1.153 Z0.000
G1 X20.320 Y1.079 Z0.000
G1 X20.343 Y1.014 Z0.000
G1 X20.375 Y0.957 Z0.000
G1 X20.415 Y0.911 Z0.000
G1 X20.462 Y0.875 Z0.000
G1 X20.517 Y0.851 Z0.000
G1 X20.577 Y0.840 Z0.000
G1 X20.803 Y0.840 Z0.000
G0 X20.803 Y0.840 Z4.000

(shape postamble)


(shape preamble)

G0 X22.010 Y1.136 Z4.000
G1 X22.010 Y1.136 Z0.000
G1 X21.615 Y1.136 Z0.000
G1 X21.615 Y1.192 Z0.000
G1 X22.010 Y1.192 Z0.000
G1 X22.010 Y1.136 Z0.000
G0 X22.010 Y1.136 Z4.000

(shape postamble)


(shape preamble)

G0 X23.283 Y1.020 Z4.000
G1 X23.283 Y1.020 Z0.000
G1 X23.282 Y0.992 Z0.000
G1 X23.251 Y0.921 Z0.000
G1 X23.191 Y0.866 Z0.000
G1 X23.109 Y0.834 Z0.000
G1 X23.010 Y0.829 Z0.000
G1 X22.922 Y0.855 Z0.000
G1 X22.854 Y0.907 Z0.000
G1 X22.813 Y0.979 Z0.000
G1 X22.807 Y1.064 Z0.000
G1 X22.829 Y1.131 Z0.000
G1 X22.878 Y1.184 Z0.000
G1 X22.953 Y1.224 Z0.000
G1 X23.019 Y1.242 Z0.000
G1 X23.084 Y1.258 Z0.000
G1 X23.138 Y1.280 Z0.000
G1 X23.176 Y1.313 Z0.000
G1 X23.196 Y1.355 Z0.000
G1 X23.199 Y1.410 Z0.000
G1 X23.181 Y1.462 Z0.000
G1 X23.144 Y1.501 Z0.000
G1 X23.091 Y1.524 Z0.000
G1 X23.025 Y1.528 Z0.000
G1 X22.967 Y1.513 Z0.000
G1 X22.920 Y1.483 Z0.000
G1 X22.890 Y1.442 Z0.000
G1 X22.881 Y1.408 Z0.000
G1 X22.823 Y1.433 Z0.000
G1 X22.855 Y1.500 Z0.000
G1 X22.913 Y1.550 Z0.000
G1 X22.990 Y1.579 Z0.000
G1 X23.081 Y1.584 Z0.000
G1 X23.162 Y1.560 Z0.000
G1 X23.224 Y1.511 Z0.000
G1 X23.260 Y1.442 Z0.000
G1 X23.266 Y1.361 Z0.000
G1 X23.245 Y1.295 Z0.000
G1 X23.201 Y1.244 Z0.000
G1 X23.133 Y1.207 Z0.000
G1 X23.075 Y1.192 Z0.000
G1 X23.007 Y1.176 Z0.000
G1 X22.946 Y1.150 Z0.000
G1 X22.904 Y1.116 Z0.000
G1 X22.881 Y1.072 Z0.000
G1 X22.878 Y1.015 Z0.000
G1 X22.899 Y0.959 Z0.000
G1 X22.942 Y0.917 Z0.000
G1 X23.003 Y0.893 Z0.000
G1 X23.079 Y0.889 Z0.000
G1 X23.143 Y0.906 Z0.000
G1 X23.192 Y0.939 Z0.000
G1 X23.223 Y0.986 Z0.000
G1 X23.230 Y1.023 Z0.000
G1 X23.290 Y1.023 Z0.000
G1 X23.283 Y1.020 Z0.000
G0 X23.283 Y1.020 Z4.000

(shape postamble)


(shape preamble)

G0 X23.908 Y1.020 Z4.000
G1 X23.908 Y1.020 Z0.000
G1 X23.908 Y0.992 Z0.000
G1 X23.879 Y0.922 Z0.000
G1 X23.823 Y0.868 Z0.000
G1 X23.746 Y0.837 Z0.000
G1 X23.655 Y0.833 Z0.000
G1 X23.572 Y0.857 Z0.000
G1 X23.508 Y0.907 Z0.000
G1 X23.469 Y0.975 Z0.000
G1 X23.463 Y1.030 Z0.000
G1 X23.463 Y1.573 Z0.000
G1 X23.830 Y1.573 Z0.000
G1 X23.830 Y1.513 Z0.000
G1 X23.530 Y1.513 Z0.000
G1 X23.530 Y1.009 Z0.000
G1 X23.549 Y0.955 Z0.000
G1 X23.588 Y0.915 Z0.000
G1 X23.643 Y0.893 Z0.000
G1 X23.713 Y0.889 Z0.000
G1 X23.773 Y0.905 Z0.000
G1 X23.817 Y0.937 Z0.000
G1 X23.844 Y0.982 Z0.000
G1 X23.851 Y1.020 Z0.000
G1 X23.911 Y1.020 Z0.000
G1 X23.908 Y1.020 Z0.000
G0 X23.908 Y1.020 Z4.000

(shape postamble)


(shape preamble)

G0 X24.271 Y1.358 Z4.000
G1 X24.271 Y1.358 Z0.000
G1 X24.314 Y1.354 Z0.000
G1 X24.369 Y1.323 Z0.000
G1 X24.411 Y1.270 Z0.000
G1 X24.437 Y1.197 Z0.000
G1 X24.109 Y1.168 Z0.000
G1 X24.115 Y1.222 Z0.000
G1 X24.143 Y1.289 Z0.000
G1 X24.188 Y1.335 Z0.000
G1 X24.248 Y1.358 Z0.000
G1 X24.444 Y1.118 Z0.000
G1 X24.448 Y1.115 Z0.000
G1 X24.441 Y1.049 Z0.000
G1 X24.410 Y0.969 Z0.000
G1 X24.358 Y0.913 Z0.000
G1 X24.288 Y0.885 Z0.000
G1 X24.228 Y0.887 Z0.000
G1 X24.185 Y0.901 Z0.000
G1 X24.150 Y0.925 Z0.000
G1 X24.125 Y0.960 Z0.000
G1 X24.059 Y0.974 Z0.000
G1 X24.074 Y0.933 Z0.000
G1 X24.113 Y0.882 Z0.000
G1 X24.169 Y0.847 Z0.000
G1 X24.236 Y0.829 Z0.000
G1 X24.296 Y0.831 Z0.000
G1 X24.345 Y0.844 Z0.000
G1 X24.389 Y0.868 Z0.000
G1 X24.427 Y0.900 Z0.000
G1 X24.477 Y0.972 Z0.000
G1 X24.507 Y1.083 Z0.000
G1 X24.501 Y1.207 Z0.000
G1 X24.462 Y1.308 Z0.000
G1 X24.396 Y1.379 Z0.000
G1 X24.339 Y1.406 Z0.000
G1 X24.291 Y1.415 Z0.000
G1 X24.210 Y1.408 Z0.000
G1 X24.131 Y1.363 Z0.000
G1 X24.076 Y1.287 Z0.000
G1 X24.049 Y1.184 Z0.000
G1 X24.049 Y1.118 Z0.000
G1 X24.444 Y1.118 Z0.000
G0 X24.444 Y1.118 Z4.000

(shape postamble)


(shape preamble)

G0 X24.702 Y1.030 Z4.000
G1 X24.702 Y1.030 Z0.000
G1 X24.702 Y1.408 Z0.000
G1 X24.765 Y1.408 Z0.000
G1 X24.765 Y1.054 Z0.000
G1 X24.784 Y0.979 Z0.000
G1 X24.821 Y0.923 Z0.000
G1 X24.874 Y0.891 Z0.000
G1 X24.935 Y0.885 Z0.000
G1 X24.982 Y0.902 Z0.000
G1 X25.017 Y0.937 Z0.000
G1 X25.037 Y0.988 Z0.000
G1 X25.040 Y1.030 Z0.000
G1 X25.040 Y1.408 Z0.000
G1 X25.104 Y1.408 Z0.000
G1 X25.104 Y0.997 Z0.000
G1 X25.083 Y0.924 Z0.000
G1 X25.040 Y0.869 Z0.000
G1 X24.978 Y0.837 Z0.000
G1 X24.909 Y0.833 Z0.000
G1 X24.859 Y0.843 Z0.000
G1 X24.817 Y0.867 Z0.000
G1 X24.782 Y0.901 Z0.000
G1 X24.765 Y0.931 Z0.000
G1 X24.761 Y0.903 Z0.000
G1 X24.754 Y0.843 Z0.000
G1 X24.698 Y0.910 Z0.000
G1 X24.702 Y1.030 Z0.000
G1 X24.702 Y1.030 Z0.000
G0 X24.702 Y1.030 Z4.000

(shape postamble)


(shape preamble)

G0 X25.555 Y0.840 Z4.000
G1 X25.555 Y0.840 Z0.000
G1 X25.471 Y0.840 Z0.000
G1 X25.231 Y1.570 Z0.000
G1 X25.298 Y1.570 Z0.000
G1 X25.509 Y0.914 Z0.000
G1 X25.513 Y0.914 Z0.000
G1 X25.725 Y1.570 Z0.000
G1 X25.792 Y1.570 Z0.000
G1 X25.552 Y0.840 Z0.000
G1 X25.555 Y0.840 Z0.000
G0 X25.555 Y0.840 Z4.000

(shape postamble)


(shape preamble)

G0 X26.942 Y1.136 Z4.000
G1 X26.942 Y1.136 Z0.000
G1 X26.547 Y1.136 Z0.000
G1 X26.547 Y1.192 Z0.000
G1 X26.942 Y1.192 Z0.000
G1 X26.942 Y1.136 Z0.000
G0 X26.942 Y1.136 Z4.000

(shape postamble)


(shape preamble)

G0 X28.183 Y0.977 Z4.000
G1 X28.183 Y0.977 Z0.000
G1 X28.182 Y0.956 Z0.000
G1 X28.153 Y0.900 Z0.000
G1 X28.101 Y0.856 Z0.000
G1 X28.030 Y0.830 Z0.000
G1 X27.946 Y0.826 Z0.000
G1 X27.870 Y0.846 Z0.000
G1 X27.813 Y0.889 Z0.000
G1 X27.780 Y0.949 Z0.000
G1 X27.774 Y1.020 Z0.000
G1 X27.792 Y1.071 Z0.000
G1 X27.833 Y1.110 Z0.000
G1 X27.897 Y1.138 Z0.000
G1 X27.954 Y1.150 Z0.000
G1 X28.000 Y1.154 Z0.000
G1 X28.048 Y1.171 Z0.000
G1 X28.080 Y1.194 Z0.000
G1 X28.097 Y1.224 Z0.000
G1 X28.099 Y1.265 Z0.000
G1 X28.084 Y1.306 Z0.000
G1 X28.054 Y1.337 Z0.000
G1 X28.011 Y1.355 Z0.000
G1 X27.958 Y1.358 Z0.000
G1 X27.910 Y1.347 Z0.000
G1 X27.873 Y1.324 Z0.000
G1 X27.848 Y1.292 Z0.000
G1 X27.841 Y1.266 Z0.000
G1 X27.783 Y1.288 Z0.000
G1 X27.811 Y1.342 Z0.000
G1 X27.861 Y1.383 Z0.000
G1 X27.927 Y1.407 Z0.000
G1 X28.005 Y1.411 Z0.000
G1 X28.074 Y1.390 Z0.000
G1 X28.127 Y1.349 Z0.000
G1 X28.157 Y1.291 Z0.000
G1 X28.162 Y1.224 Z0.000
G1 X28.144 Y1.172 Z0.000
G1 X28.104 Y1.133 Z0.000
G1 X28.040 Y1.106 Z0.000
G1 X27.982 Y1.094 Z0.000
G1 X27.936 Y1.088 Z0.000
G1 X27.885 Y1.071 Z0.000
G1 X27.853 Y1.048 Z0.000
G1 X27.836 Y1.020 Z0.000
G1 X27.834 Y0.978 Z0.000
G1 X27.851 Y0.935 Z0.000
G1 X27.885 Y0.903 Z0.000
G1 X27.933 Y0.885 Z0.000
G1 X27.991 Y0.882 Z0.000
G1 X28.044 Y0.894 Z0.000
G1 X28.086 Y0.918 Z0.000
G1 X28.113 Y0.951 Z0.000
G1 X28.120 Y0.977 Z0.000
G1 X28.180 Y0.977 Z0.000
G1 X28.183 Y0.977 Z0.000
G0 X28.183 Y0.977 Z4.000

(shape postamble)


(shape preamble)

G0 X28.501 Y0.811 Z4.000
G1 X28.501 Y0.811 Z0.000
G1 X28.501 Y0.815 Z0.000
G1 X28.505 Y0.757 Z0.000
G1 X28.530 Y0.689 Z0.000
G1 X28.578 Y0.645 Z0.000
G1 X28.646 Y0.624 Z0.000
G1 X28.714 Y0.626 Z0.000
G1 X28.766 Y0.640 Z0.000
G1 X28.780 Y0.702 Z0.000
G1 X28.747 Y0.687 Z0.000
G1 X28.697 Y0.677 Z0.000
G1 X28.644 Y0.680 Z0.000
G1 X28.603 Y0.699 Z0.000
G1 X28.577 Y0.736 Z0.000
G1 X28.564 Y0.791 Z0.000
G1 X28.564 Y1.351 Z0.000
G1 X28.773 Y1.351 Z0.000
G1 X28.773 Y1.404 Z0.000
G1 X28.501 Y1.404 Z0.000
G1 X28.501 Y0.811 Z0.000
G1 X28.596 Y1.549 Z0.000
G1 X28.596 Y1.658 Z0.000
G1 X28.487 Y1.658 Z0.000
G1 X28.487 Y1.549 Z0.000
G1 X28.596 Y1.549 Z0.000
G0 X28.596 Y1.549 Z4.000

(shape postamble)


(shape preamble)

G0 X29.270 Y0.840 Z4.000
G1 X29.270 Y0.840 Z0.000
G1 X29.154 Y0.840 Z0.000
G1 X29.154 Y0.956 Z0.000
G1 X29.270 Y0.956 Z0.000
G1 X29.270 Y0.840 Z0.000
G0 X29.270 Y0.840 Z4.000

(shape postamble)


(shape preamble)

G0 X29.997 Y1.020 Z4.000
G1 X29.997 Y1.020 Z0.000
G1 X30.053 Y0.992 Z0.000
G1 X30.020 Y0.922 Z0.000
G1 X29.963 Y0.868 Z0.000
G1 X29.887 Y0.837 Z0.000
G1 X29.793 Y0.833 Z0.000
G1 X29.704 Y0.861 Z0.000
G1 X29.637 Y0.919 Z0.000
G1 X29.597 Y1.001 Z0.000
G1 X29.591 Y1.099 Z0.000
G1 X29.619 Y1.186 Z0.000
G1 X29.674 Y1.253 Z0.000
G1 X29.752 Y1.292 Z0.000
G1 X29.841 Y1.298 Z0.000
G1 X29.916 Y1.274 Z0.000
G1 X29.958 Y1.242 Z0.000
G1 X29.961 Y1.242 Z0.000
G1 X29.933 Y1.513 Z0.000
G1 X29.626 Y1.513 Z0.000
G1 X29.626 Y1.570 Z0.000
G1 X29.986 Y1.570 Z0.000
G1 X30.028 Y1.171 Z0.000
G1 X29.968 Y1.177 Z0.000
G1 X29.940 Y1.207 Z0.000
G1 X29.904 Y1.228 Z0.000
G1 X29.862 Y1.240 Z0.000
G1 X29.805 Y1.242 Z0.000
G1 X29.739 Y1.219 Z0.000
G1 X29.689 Y1.174 Z0.000
G1 X29.659 Y1.111 Z0.000
G1 X29.655 Y1.036 Z0.000
G1 X29.676 Y0.970 Z0.000
G1 X29.719 Y0.920 Z0.000
G1 X29.780 Y0.890 Z0.000
G1 X29.849 Y0.885 Z0.000
G1 X29.906 Y0.901 Z0.000
G1 X29.952 Y0.933 Z0.000
G1 X29.982 Y0.979 Z0.000
G1 X29.990 Y1.016 Z0.000
G1 X29.997 Y1.020 Z0.000
G0 X29.997 Y1.020 Z4.000

(shape postamble)


(shape preamble)

G0 X30.589 Y1.228 Z4.000
G1 X30.589 Y1.228 Z0.000
G1 X30.589 Y1.224 Z0.000
G1 X30.378 Y1.224 Z0.000
G1 X30.340 Y1.228 Z0.000
G1 X30.295 Y1.251 Z0.000
G1 X30.263 Y1.291 Z0.000
G1 X30.247 Y1.347 Z0.000
G1 X30.250 Y1.411 Z0.000
G1 X30.272 Y1.462 Z0.000
G1 X30.309 Y1.497 Z0.000
G1 X30.358 Y1.513 Z0.000
G1 X30.589 Y1.513 Z0.000
G1 X30.589 Y1.228 Z0.000
G1 X30.653 Y0.840 Z0.000
G1 X30.656 Y0.840 Z0.000
G1 X30.656 Y1.570 Z0.000
G1 X30.385 Y1.570 Z0.000
G1 X30.327 Y1.565 Z0.000
G1 X30.257 Y1.531 Z0.000
G1 X30.208 Y1.474 Z0.000
G1 X30.184 Y1.398 Z0.000
G1 X30.189 Y1.313 Z0.000
G1 X30.223 Y1.242 Z0.000
G1 X30.280 Y1.192 Z0.000
G1 X30.356 Y1.168 Z0.000
G1 X30.589 Y1.168 Z0.000
G1 X30.589 Y0.840 Z0.000
G1 X30.653 Y0.840 Z0.000
G0 X30.653 Y0.840 Z4.000

(shape postamble)


(shape preamble)

G0 X31.313 Y0.663 Z4.000
G1 X31.313 Y0.663 Z0.000
G1 X31.249 Y0.663 Z0.000
G1 X30.812 Y1.665 Z0.000
G1 X30.875 Y1.665 Z0.000
G1 X31.313 Y0.663 Z0.000
G0 X31.313 Y0.663 Z4.000

(shape postamble)


(shape preamble)

G0 X31.535 Y0.963 Z4.000
G1 X31.535 Y0.963 Z0.000
G1 X31.535 Y0.801 Z0.000
G1 X31.553 Y0.745 Z0.000
G1 X31.591 Y0.703 Z0.000
G1 X31.644 Y0.678 Z0.000
G1 X31.706 Y0.674 Z0.000
G1 X31.758 Y0.687 Z0.000
G1 X31.799 Y0.715 Z0.000
G1 X31.826 Y0.755 Z0.000
G1 X31.835 Y0.787 Z0.000
G1 X31.896 Y0.762 Z0.000
G1 X31.867 Y0.698 Z0.000
G1 X31.814 Y0.650 Z0.000
G1 X31.744 Y0.622 Z0.000
G1 X31.659 Y0.617 Z0.000
G1 X31.578 Y0.643 Z0.000
G1 X31.517 Y0.694 Z0.000
G1 X31.481 Y0.766 Z0.000
G1 X31.475 Y0.822 Z0.000
G1 X31.475 Y1.404 Z0.000
G1 X31.531 Y1.404 Z0.000
G1 X31.531 Y1.302 Z0.000
G1 X31.544 Y1.319 Z0.000
G1 X31.577 Y1.363 Z0.000
G1 X31.617 Y1.394 Z0.000
G1 X31.665 Y1.412 Z0.000
G1 X31.716 Y1.415 Z0.000
G1 X31.760 Y1.406 Z0.000
G1 X31.812 Y1.380 Z0.000
G1 X31.874 Y1.311 Z0.000
G1 X31.910 Y1.215 Z0.000
G1 X31.916 Y1.101 Z0.000
G1 X31.888 Y0.998 Z0.000
G1 X31.833 Y0.919 Z0.000
G1 X31.770 Y0.879 Z0.000
G1 X31.728 Y0.866 Z0.000
G1 X31.679 Y0.864 Z0.000
G1 X31.632 Y0.876 Z0.000
G1 X31.591 Y0.900 Z0.000
G1 X31.557 Y0.936 Z0.000
G1 X31.538 Y0.967 Z0.000
G1 X31.535 Y0.963 Z0.000
G1 X31.717 Y0.917 Z0.000
G1 X31.776 Y0.945 Z0.000
G1 X31.821 Y1.001 Z0.000
G1 X31.848 Y1.078 Z0.000
G1 X31.852 Y1.171 Z0.000
G1 X31.833 Y1.255 Z0.000
G1 X31.793 Y1.318 Z0.000
G1 X31.738 Y1.356 Z0.000
G1 X31.671 Y1.362 Z0.000
G1 X31.611 Y1.334 Z0.000
G1 X31.566 Y1.278 Z0.000
G1 X31.539 Y1.201 Z0.000
G1 X31.535 Y1.108 Z0.000
G1 X31.554 Y1.024 Z0.000
G1 X31.594 Y0.961 Z0.000
G1 X31.649 Y0.923 Z0.000
G1 X31.694 Y0.917 Z0.000
G0 X31.694 Y0.917 Z4.000

(shape postamble)


(shape preamble)

G0 X32.487 Y0.840 Z4.000
G1 X32.487 Y0.840 Z0.000
G1 X32.424 Y0.840 Z0.000
G1 X32.424 Y1.193 Z0.000
G1 X32.405 Y1.268 Z0.000
G1 X32.368 Y1.324 Z0.000
G1 X32.315 Y1.357 Z0.000
G1 X32.254 Y1.362 Z0.000
G1 X32.207 Y1.345 Z0.000
G1 X32.172 Y1.310 Z0.000
G1 X32.152 Y1.259 Z0.000
G1 X32.149 Y1.217 Z0.000
G1 X32.149 Y0.840 Z0.000
G1 X32.085 Y0.840 Z0.000
G1 X32.085 Y1.250 Z0.000
G1 X32.106 Y1.324 Z0.000
G1 X32.149 Y1.378 Z0.000
G1 X32.211 Y1.410 Z0.000
G1 X32.280 Y1.415 Z0.000
G1 X32.331 Y1.403 Z0.000
G1 X32.374 Y1.378 Z0.000
G1 X32.410 Y1.341 Z0.000
G1 X32.427 Y1.309 Z0.000
G1 X32.427 Y1.404 Z0.000
G1 X32.484 Y1.404 Z0.000
G1 X32.484 Y0.840 Z0.000
G1 X32.487 Y0.840 Z0.000
G0 X32.487 Y0.840 Z4.000

(shape postamble)


(shape preamble)

G0 X32.830 Y1.404 Z4.000
G1 X32.830 Y1.404 Z0.000
G1 X32.830 Y1.408 Z0.000
G1 X32.830 Y0.843 Z0.000
G1 X32.893 Y0.843 Z0.000
G1 X32.893 Y1.351 Z0.000
G1 X33.091 Y1.351 Z0.000
G1 X33.091 Y1.404 Z0.000
G1 X32.830 Y1.404 Z0.000
G1 X32.928 Y1.549 Z0.000
G1 X32.928 Y1.658 Z0.000
G1 X32.819 Y1.658 Z0.000
G1 X32.819 Y1.549 Z0.000
G1 X32.928 Y1.549 Z0.000
G0 X32.928 Y1.549 Z4.000

(shape postamble)


(shape preamble)

G0 X33.733 Y0.977 Z4.000
G1 X33.733 Y0.977 Z0.000
G1 X33.731 Y0.956 Z0.000
G1 X33.702 Y0.900 Z0.000
G1 X33.650 Y0.856 Z0.000
G1 X33.579 Y0.830 Z0.000
G1 X33.496 Y0.826 Z0.000
G1 X33.421 Y0.846 Z0.000
G1 X33.364 Y0.889 Z0.000
G1 X33.329 Y0.949 Z0.000
G1 X33.323 Y1.020 Z0.000
G1 X33.341 Y1.071 Z0.000
G1 X33.382 Y1.110 Z0.000
G1 X33.446 Y1.138 Z0.000
G1 X33.503 Y1.150 Z0.000
G1 X33.549 Y1.154 Z0.000
G1 X33.598 Y1.171 Z0.000
G1 X33.629 Y1.194 Z0.000
G1 X33.646 Y1.224 Z0.000
G1 X33.648 Y1.265 Z0.000
G1 X33.632 Y1.306 Z0.000
G1 X33.601 Y1.337 Z0.000
G1 X33.557 Y1.355 Z0.000
G1 X33.503 Y1.358 Z0.000
G1 X33.456 Y1.347 Z0.000
G1 X33.418 Y1.324 Z0.000
G1 X33.394 Y1.292 Z0.000
G1 X33.387 Y1.266 Z0.000
G1 X33.329 Y1.288 Z0.000
G1 X33.356 Y1.342 Z0.000
G1 X33.406 Y1.383 Z0.000
G1 X33.473 Y1.407 Z0.000
G1 X33.551 Y1.411 Z0.000
G1 X33.620 Y1.390 Z0.000
G1 X33.672 Y1.349 Z0.000
G1 X33.703 Y1.291 Z0.000
G1 X33.708 Y1.224 Z0.000
G1 X33.690 Y1.172 Z0.000
G1 X33.650 Y1.133 Z0.000
G1 X33.586 Y1.106 Z0.000
G1 X33.528 Y1.094 Z0.000
G1 X33.481 Y1.088 Z0.000
G1 X33.431 Y1.071 Z0.000
G1 X33.399 Y1.048 Z0.000
G1 X33.382 Y1.020 Z0.000
G1 X33.380 Y0.978 Z0.000
G1 X33.397 Y0.935 Z0.000
G1 X33.430 Y0.903 Z0.000
G1 X33.478 Y0.885 Z0.000
G1 X33.537 Y0.882 Z0.000
G1 X33.589 Y0.894 Z0.000
G1 X33.631 Y0.918 Z0.000
G1 X33.659 Y0.951 Z0.000
G1 X33.666 Y0.977 Z0.000
G1 X33.726 Y0.977 Z0.000
G1 X33.733 Y0.977 Z0.000
G0 X33.733 Y0.977 Z4.000

(shape postamble)


(shape preamble)

G0 X34.346 Y0.977 Z4.000
G1 X34.346 Y0.977 Z0.000
G1 X34.345 Y0.956 Z0.000
G1 X34.316 Y0.900 Z0.000
G1 X34.264 Y0.856 Z0.000
G1 X34.193 Y0.830 Z0.000
G1 X34.110 Y0.826 Z0.000
G1 X34.035 Y0.846 Z0.000
G1 X33.977 Y0.889 Z0.000
G1 X33.943 Y0.949 Z0.000
G1 X33.937 Y1.020 Z0.000
G1 X33.955 Y1.071 Z0.000
G1 X33.996 Y1.110 Z0.000
G1 X34.060 Y1.138 Z0.000
G1 X34.117 Y1.150 Z0.000
G1 X34.163 Y1.154 Z0.000
G1 X34.212 Y1.171 Z0.000
G1 X34.243 Y1.194 Z0.000
G1 X34.260 Y1.224 Z0.000
G1 X34.262 Y1.265 Z0.000
G1 X34.246 Y1.306 Z0.000
G1 X34.215 Y1.337 Z0.000
G1 X34.171 Y1.355 Z0.000
G1 X34.117 Y1.358 Z0.000
G1 X34.071 Y1.347 Z0.000
G1 X34.034 Y1.324 Z0.000
G1 X34.009 Y1.292 Z0.000
G1 X34.001 Y1.266 Z0.000
G1 X33.943 Y1.288 Z0.000
G1 X33.970 Y1.342 Z0.000
G1 X34.020 Y1.383 Z0.000
G1 X34.087 Y1.407 Z0.000
G1 X34.165 Y1.411 Z0.000
G1 X34.234 Y1.390 Z0.000
G1 X34.286 Y1.349 Z0.000
G1 X34.317 Y1.291 Z0.000
G1 X34.322 Y1.224 Z0.000
G1 X34.304 Y1.172 Z0.000
G1 X34.263 Y1.133 Z0.000
G1 X34.199 Y1.106 Z0.000
G1 X34.142 Y1.094 Z0.000
G1 X34.095 Y1.088 Z0.000
G1 X34.045 Y1.071 Z0.000
G1 X34.012 Y1.048 Z0.000
G1 X33.996 Y1.020 Z0.000
G1 X33.994 Y0.978 Z0.000
G1 X34.010 Y0.935 Z0.000
G1 X34.044 Y0.903 Z0.000
G1 X34.092 Y0.885 Z0.000
G1 X34.151 Y0.882 Z0.000
G1 X34.203 Y0.894 Z0.000
G1 X34.245 Y0.918 Z0.000
G1 X34.272 Y0.951 Z0.000
G1 X34.279 Y0.977 Z0.000
G1 X34.339 Y0.977 Z0.000
G1 X34.346 Y0.977 Z0.000
G0 X34.346 Y0.977 Z4.000

(shape postamble)


(shape preamble)

G0 X34.752 Y1.358 Z4.000
G1 X34.752 Y1.358 Z0.000
G1 X34.756 Y1.358 Z0.000
G1 X34.800 Y1.354 Z0.000
G1 X34.855 Y1.323 Z0.000
G1 X34.896 Y1.270 Z0.000
G1 X34.921 Y1.197 Z0.000
G1 X34.590 Y1.168 Z0.000
G1 X34.596 Y1.222 Z0.000
G1 X34.624 Y1.289 Z0.000
G1 X34.669 Y1.335 Z0.000
G1 X34.729 Y1.358 Z0.000
G1 X34.925 Y1.118 Z0.000
G1 X34.925 Y1.115 Z0.000
G1 X34.919 Y1.049 Z0.000
G1 X34.888 Y0.969 Z0.000
G1 X34.835 Y0.913 Z0.000
G1 X34.765 Y0.885 Z0.000
G1 X34.705 Y0.887 Z0.000
G1 X34.662 Y0.901 Z0.000
G1 X34.627 Y0.925 Z0.000
G1 X34.602 Y0.960 Z0.000
G1 X34.537 Y0.974 Z0.000
G1 X34.553 Y0.933 Z0.000
G1 X34.594 Y0.882 Z0.000
G1 X34.650 Y0.847 Z0.000
G1 X34.717 Y0.829 Z0.000
G1 X34.777 Y0.831 Z0.000
G1 X34.826 Y0.844 Z0.000
G1 X34.870 Y0.868 Z0.000
G1 X34.908 Y0.900 Z0.000
G1 X34.958 Y0.972 Z0.000
G1 X34.989 Y1.083 Z0.000
G1 X34.982 Y1.207 Z0.000
G1 X34.943 Y1.308 Z0.000
G1 X34.877 Y1.379 Z0.000
G1 X34.820 Y1.406 Z0.000
G1 X34.772 Y1.415 Z0.000
G1 X34.691 Y1.408 Z0.000
G1 X34.612 Y1.363 Z0.000
G1 X34.557 Y1.287 Z0.000
G1 X34.530 Y1.184 Z0.000
G1 X34.530 Y1.118 Z0.000
G1 X34.925 Y1.118 Z0.000
G0 X34.925 Y1.118 Z4.000

(shape postamble)


(shape preamble)

G0 X35.207 Y0.977 Z4.000
G1 X35.207 Y0.977 Z0.000
G1 X35.212 Y0.963 Z0.000
G1 X35.236 Y0.928 Z0.000
G1 X35.272 Y0.902 Z0.000
G1 X35.317 Y0.888 Z0.000
G1 X35.380 Y0.885 Z0.000
G1 X35.452 Y0.914 Z0.000
G1 X35.504 Y0.973 Z0.000
G1 X35.534 Y1.055 Z0.000
G1 X35.539 Y1.156 Z0.000
G1 X35.517 Y1.246 Z0.000
G1 X35.471 Y1.315 Z0.000
G1 X35.406 Y1.355 Z0.000
G1 X35.335 Y1.362 Z0.000
G1 X35.290 Y1.351 Z0.000
G1 X35.253 Y1.329 Z0.000
G1 X35.225 Y1.297 Z0.000
G1 X35.214 Y1.270 Z0.000
G1 X35.158 Y1.292 Z0.000
G1 X35.189 Y1.348 Z0.000
G1 X35.239 Y1.388 Z0.000
G1 X35.303 Y1.411 Z0.000
G1 X35.370 Y1.415 Z0.000
G1 X35.421 Y1.405 Z0.000
G1 X35.467 Y1.386 Z0.000
G1 X35.508 Y1.356 Z0.000
G1 X35.554 Y1.306 Z0.000
G1 X35.596 Y1.204 Z0.000
G1 X35.602 Y1.080 Z0.000
G1 X35.571 Y0.969 Z0.000
G1 X35.520 Y0.899 Z0.000
G1 X35.481 Y0.867 Z0.000
G1 X35.437 Y0.844 Z0.000
G1 X35.387 Y0.831 Z0.000
G1 X35.326 Y0.829 Z0.000
G1 X35.257 Y0.847 Z0.000
G1 X35.200 Y0.882 Z0.000
G1 X35.162 Y0.933 Z0.000
G1 X35.151 Y0.974 Z0.000
G1 X35.211 Y0.974 Z0.000
G1 X35.207 Y0.977 Z0.000
G0 X35.207 Y0.977 Z4.000

(shape postamble)


(shape preamble)

G0 X35.994 Y0.885 Z4.000
G1 X35.994 Y0.885 Z0.000
G1 X35.945 Y0.892 Z0.000
G1 X35.883 Y0.931 Z0.000
G1 X35.839 Y0.998 Z0.000
G1 X35.818 Y1.087 Z0.000
G1 X35.822 Y1.188 Z0.000
G1 X35.852 Y1.271 Z0.000
G1 X35.902 Y1.329 Z0.000
G1 X35.968 Y1.358 Z0.000
G1 X36.043 Y1.352 Z0.000
G1 X36.105 Y1.313 Z0.000
G1 X36.149 Y1.245 Z0.000
G1 X36.170 Y1.156 Z0.000
G1 X36.166 Y1.055 Z0.000
G1 X36.137 Y0.973 Z0.000
G1 X36.088 Y0.914 Z0.000
G1 X36.020 Y0.885 Z0.000
G1 X35.994 Y0.833 Z0.000
G1 X36.028 Y0.834 Z0.000
G1 X36.075 Y0.847 Z0.000
G1 X36.144 Y0.889 Z0.000
G1 X36.204 Y0.973 Z0.000
G1 X36.234 Y1.083 Z0.000
G1 X36.227 Y1.207 Z0.000
G1 X36.187 Y1.309 Z0.000
G1 X36.118 Y1.382 Z0.000
G1 X36.060 Y1.409 Z0.000
G1 X36.011 Y1.418 Z0.000
G1 X35.960 Y1.416 Z0.000
G1 X35.913 Y1.403 Z0.000
G1 X35.844 Y1.361 Z0.000
G1 X35.784 Y1.278 Z0.000
G1 X35.754 Y1.168 Z0.000
G1 X35.760 Y1.044 Z0.000
G1 X35.800 Y0.941 Z0.000
G1 X35.843 Y0.891 Z0.000
G1 X35.882 Y0.862 Z0.000
G1 X35.927 Y0.842 Z0.000
G1 X35.976 Y0.833 Z0.000
G1 X35.994 Y0.833 Z0.000
G0 X35.994 Y0.833 Z4.000

(shape postamble)


(shape preamble)

G0 X36.710 Y0.840 Z4.000
G1 X36.710 Y0.840 Z0.000
G1 X36.710 Y1.192 Z0.000
G1 X36.692 Y1.265 Z0.000
G1 X36.655 Y1.319 Z0.000
G1 X36.602 Y1.350 Z0.000
G1 X36.544 Y1.355 Z0.000
G1 X36.507 Y1.345 Z0.000
G1 X36.477 Y1.324 Z0.000
G1 X36.456 Y1.293 Z0.000
G1 X36.449 Y1.266 Z0.000
G1 X36.388 Y1.289 Z0.000
G1 X36.412 Y1.344 Z0.000
G1 X36.452 Y1.384 Z0.000
G1 X36.505 Y1.408 Z0.000
G1 X36.566 Y1.411 Z0.000
G1 X36.617 Y1.399 Z0.000
G1 X36.660 Y1.373 Z0.000
G1 X36.694 Y1.336 Z0.000
G1 X36.710 Y1.305 Z0.000
G1 X36.714 Y1.305 Z0.000
G1 X36.714 Y1.404 Z0.000
G1 X36.770 Y1.404 Z0.000
G1 X36.770 Y0.840 Z0.000
G1 X36.707 Y0.840 Z0.000
G1 X36.710 Y0.840 Z0.000
G0 X36.710 Y0.840 Z4.000

(shape postamble)


(shape preamble)

G0 X37.433 Y0.840 Z4.000
G1 X37.433 Y0.840 Z0.000
G1 X37.370 Y0.840 Z0.000
G1 X37.370 Y1.168 Z0.000
G1 X37.136 Y1.168 Z0.000
G1 X37.060 Y1.192 Z0.000
G1 X37.003 Y1.242 Z0.000
G1 X36.969 Y1.313 Z0.000
G1 X36.964 Y1.398 Z0.000
G1 X36.988 Y1.474 Z0.000
G1 X37.037 Y1.531 Z0.000
G1 X37.108 Y1.565 Z0.000
G1 X37.165 Y1.570 Z0.000
G1 X37.437 Y1.570 Z0.000
G1 X37.437 Y0.840 Z0.000
G1 X37.433 Y0.840 Z0.000
G1 X37.370 Y1.228 Z0.000
G1 X37.370 Y1.513 Z0.000
G1 X37.139 Y1.513 Z0.000
G1 X37.089 Y1.497 Z0.000
G1 X37.052 Y1.462 Z0.000
G1 X37.031 Y1.411 Z0.000
G1 X37.028 Y1.347 Z0.000
G1 X37.043 Y1.291 Z0.000
G1 X37.075 Y1.251 Z0.000
G1 X37.121 Y1.228 Z0.000
G1 X37.158 Y1.224 Z0.000
G1 X37.370 Y1.224 Z0.000
G1 X37.370 Y1.228 Z0.000
G0 X37.370 Y1.228 Z4.000

(shape postamble)


(shape preamble)

G0 X38.657 Y1.136 Z4.000
G1 X38.657 Y1.136 Z0.000
G1 X38.262 Y1.136 Z0.000
G1 X38.262 Y1.192 Z0.000
G1 X38.657 Y1.192 Z0.000
G1 X38.657 Y1.136 Z0.000
G0 X38.657 Y1.136 Z4.000

(shape postamble)


(shape preamble)

G0 X39.698 Y1.023 Z4.000
G1 X39.698 Y1.023 Z0.000
G1 X39.698 Y1.351 Z0.000
G1 X39.493 Y1.351 Z0.000
G1 X39.493 Y1.404 Z0.000
G1 X39.698 Y1.404 Z0.000
G1 X39.698 Y1.580 Z0.000
G1 X39.762 Y1.570 Z0.000
G1 X39.762 Y1.404 Z0.000
G1 X39.927 Y1.404 Z0.000
G1 X39.927 Y1.351 Z0.000
G1 X39.762 Y1.351 Z0.000
G1 X39.762 Y0.992 Z0.000
G1 X39.743 Y0.918 Z0.000
G1 X39.703 Y0.865 Z0.000
G1 X39.642 Y0.837 Z0.000
G1 X39.568 Y0.833 Z0.000
G1 X39.516 Y0.842 Z0.000
G1 X39.486 Y0.857 Z0.000
G1 X39.502 Y0.901 Z0.000
G1 X39.551 Y0.887 Z0.000
G1 X39.605 Y0.885 Z0.000
G1 X39.651 Y0.900 Z0.000
G1 X39.682 Y0.931 Z0.000
G1 X39.699 Y0.980 Z0.000
G1 X39.702 Y1.023 Z0.000
G1 X39.698 Y1.023 Z0.000
G0 X39.698 Y1.023 Z4.000

(shape postamble)


(shape preamble)

G0 X40.287 Y1.362 Z4.000
G1 X40.287 Y1.362 Z0.000
G1 X40.338 Y1.356 Z0.000
G1 X40.400 Y1.316 Z0.000
G1 X40.443 Y1.249 Z0.000
G1 X40.464 Y1.160 Z0.000
G1 X40.459 Y1.059 Z0.000
G1 X40.429 Y0.977 Z0.000
G1 X40.379 Y0.918 Z0.000
G1 X40.313 Y0.889 Z0.000
G1 X40.238 Y0.895 Z0.000
G1 X40.178 Y0.934 Z0.000
G1 X40.135 Y1.000 Z0.000
G1 X40.114 Y1.090 Z0.000
G1 X40.119 Y1.193 Z0.000
G1 X40.147 Y1.276 Z0.000
G1 X40.196 Y1.334 Z0.000
G1 X40.262 Y1.362 Z0.000
G1 X40.524 Y1.404 Z0.000
G1 X40.524 Y1.404 Z0.000
G1 X40.467 Y1.404 Z0.000
G1 X40.467 Y1.291 Z0.000
G1 X40.464 Y1.291 Z0.000
G1 X40.444 Y1.328 Z0.000
G1 X40.406 Y1.371 Z0.000
G1 X40.359 Y1.401 Z0.000
G1 X40.304 Y1.415 Z0.000
G1 X40.251 Y1.413 Z0.000
G1 X40.205 Y1.400 Z0.000
G1 X40.139 Y1.358 Z0.000
G1 X40.082 Y1.274 Z0.000
G1 X40.054 Y1.164 Z0.000
G1 X40.060 Y1.040 Z0.000
G1 X40.099 Y0.938 Z0.000
G1 X40.164 Y0.865 Z0.000
G1 X40.220 Y0.838 Z0.000
G1 X40.267 Y0.829 Z0.000
G1 X40.321 Y0.832 Z0.000
G1 X40.371 Y0.849 Z0.000
G1 X40.414 Y0.881 Z0.000
G1 X40.448 Y0.924 Z0.000
G1 X40.460 Y0.942 Z0.000
G1 X40.460 Y0.631 Z0.000
G1 X40.524 Y0.631 Z0.000
G1 X40.524 Y1.404 Z0.000
G0 X40.524 Y1.404 Z4.000

(shape postamble)


(shape preamble)

G0 X40.845 Y1.404 Z4.000
G1 X40.845 Y1.404 Z0.000
G1 X40.845 Y1.408 Z0.000
G1 X40.845 Y0.843 Z0.000
G1 X40.908 Y0.843 Z0.000
G1 X40.908 Y1.351 Z0.000
G1 X41.106 Y1.351 Z0.000
G1 X41.106 Y1.404 Z0.000
G1 X40.845 Y1.404 Z0.000
G1 X40.943 Y1.549 Z0.000
G1 X40.943 Y1.658 Z0.000
G1 X40.834 Y1.658 Z0.000
G1 X40.834 Y1.549 Z0.000
G1 X40.943 Y1.549 Z0.000
G0 X40.943 Y1.549 Z4.000

(shape postamble)


(shape preamble)

G0 X41.642 Y0.840 Z4.000
G1 X41.642 Y0.840 Z0.000
G1 X41.642 Y1.192 Z0.000
G1 X41.624 Y1.265 Z0.000
G1 X41.587 Y1.319 Z0.000
G1 X41.534 Y1.350 Z0.000
G1 X41.476 Y1.355 Z0.000
G1 X41.439 Y1.345 Z0.000
G1 X41.409 Y1.324 Z0.000
G1 X41.388 Y1.293 Z0.000
G1 X41.381 Y1.266 Z0.000
G1 X41.320 Y1.289 Z0.000
G1 X41.344 Y1.344 Z0.000
G1 X41.384 Y1.384 Z0.000
G1 X41.437 Y1.408 Z0.000
G1 X41.498 Y1.411 Z0.000
G1 X41.549 Y1.399 Z0.000
G1 X41.592 Y1.373 Z0.000
G1 X41.626 Y1.336 Z0.000
G1 X41.642 Y1.305 Z0.000
G1 X41.645 Y1.305 Z0.000
G1 X41.645 Y1.404 Z0.000
G1 X41.702 Y1.404 Z0.000
G1 X41.702 Y0.840 Z0.000
G1 X41.638 Y0.840 Z0.000
G1 X41.642 Y0.840 Z0.000
G0 X41.642 Y0.840 Z4.000

(shape postamble)


(shape preamble)

G0 X41.988 Y0.977 Z4.000
G1 X41.988 Y0.977 Z0.000
G1 X41.992 Y0.963 Z0.000
G1 X42.017 Y0.928 Z0.000
G1 X42.053 Y0.902 Z0.000
G1 X42.098 Y0.888 Z0.000
G1 X42.160 Y0.885 Z0.000
G1 X42.232 Y0.914 Z0.000
G1 X42.284 Y0.973 Z0.000
G1 X42.315 Y1.055 Z0.000
G1 X42.319 Y1.156 Z0.000
G1 X42.297 Y1.246 Z0.000
G1 X42.252 Y1.315 Z0.000
G1 X42.186 Y1.355 Z0.000
G1 X42.116 Y1.362 Z0.000
G1 X42.070 Y1.351 Z0.000
G1 X42.033 Y1.329 Z0.000
G1 X42.006 Y1.297 Z0.000
G1 X41.995 Y1.270 Z0.000
G1 X41.938 Y1.292 Z0.000
G1 X41.969 Y1.348 Z0.000
G1 X42.019 Y1.388 Z0.000
G1 X42.084 Y1.411 Z0.000
G1 X42.150 Y1.415 Z0.000
G1 X42.201 Y1.405 Z0.000
G1 X42.247 Y1.386 Z0.000
G1 X42.287 Y1.356 Z0.000
G1 X42.332 Y1.306 Z0.000
G1 X42.373 Y1.204 Z0.000
G1 X42.379 Y1.080 Z0.000
G1 X42.348 Y0.969 Z0.000
G1 X42.297 Y0.899 Z0.000
G1 X42.258 Y0.867 Z0.000
G1 X42.214 Y0.844 Z0.000
G1 X42.164 Y0.831 Z0.000
G1 X42.103 Y0.829 Z0.000
G1 X42.034 Y0.847 Z0.000
G1 X41.977 Y0.882 Z0.000
G1 X41.939 Y0.933 Z0.000
G1 X41.928 Y0.974 Z0.000
G1 X41.988 Y0.974 Z0.000
G1 X41.988 Y0.977 Z0.000
G0 X41.988 Y0.977 Z4.000

(shape postamble)


(shape preamble)

G0 X42.979 Y0.977 Z4.000
G1 X42.979 Y0.977 Z0.000
G1 X42.977 Y0.956 Z0.000
G1 X42.948 Y0.900 Z0.000
G1 X42.896 Y0.856 Z0.000
G1 X42.826 Y0.830 Z0.000
G1 X42.742 Y0.826 Z0.000
G1 X42.666 Y0.846 Z0.000
G1 X42.609 Y0.889 Z0.000
G1 X42.575 Y0.949 Z0.000
G1 X42.570 Y1.020 Z0.000
G1 X42.588 Y1.071 Z0.000
G1 X42.628 Y1.110 Z0.000
G1 X42.692 Y1.138 Z0.000
G1 X42.750 Y1.150 Z0.000
G1 X42.795 Y1.154 Z0.000
G1 X42.844 Y1.171 Z0.000
G1 X42.876 Y1.194 Z0.000
G1 X42.892 Y1.224 Z0.000
G1 X42.894 Y1.265 Z0.000
G1 X42.880 Y1.306 Z0.000
G1 X42.849 Y1.337 Z0.000
G1 X42.804 Y1.355 Z0.000
G1 X42.750 Y1.358 Z0.000
G1 X42.702 Y1.347 Z0.000
G1 X42.665 Y1.324 Z0.000
G1 X42.640 Y1.292 Z0.000
G1 X42.633 Y1.266 Z0.000
G1 X42.575 Y1.288 Z0.000
G1 X42.603 Y1.342 Z0.000
G1 X42.653 Y1.383 Z0.000
G1 X42.719 Y1.407 Z0.000
G1 X42.797 Y1.411 Z0.000
G1 X42.866 Y1.390 Z0.000
G1 X42.919 Y1.349 Z0.000
G1 X42.949 Y1.291 Z0.000
G1 X42.954 Y1.224 Z0.000
G1 X42.936 Y1.172 Z0.000
G1 X42.896 Y1.133 Z0.000
G1 X42.832 Y1.106 Z0.000
G1 X42.774 Y1.094 Z0.000
G1 X42.728 Y1.088 Z0.000
G1 X42.677 Y1.071 Z0.000
G1 X42.645 Y1.048 Z0.000
G1 X42.628 Y1.020 Z0.000
G1 X42.626 Y0.978 Z0.000
G1 X42.643 Y0.935 Z0.000
G1 X42.677 Y0.903 Z0.000
G1 X42.725 Y0.885 Z0.000
G1 X42.783 Y0.882 Z0.000
G1 X42.836 Y0.894 Z0.000
G1 X42.878 Y0.918 Z0.000
G1 X42.905 Y0.951 Z0.000
G1 X42.912 Y0.977 Z0.000
G1 X42.975 Y0.977 Z0.000
G1 X42.979 Y0.977 Z0.000
G0 X42.979 Y0.977 Z4.000

(shape postamble)


(shape preamble)

G0 X43.385 Y1.358 Z4.000
G1 X43.385 Y1.358 Z0.000
G1 X43.429 Y1.354 Z0.000
G1 X43.484 Y1.323 Z0.000
G1 X43.525 Y1.270 Z0.000
G1 X43.550 Y1.197 Z0.000
G1 X43.222 Y1.168 Z0.000
G1 X43.228 Y1.222 Z0.000
G1 X43.256 Y1.289 Z0.000
G1 X43.302 Y1.335 Z0.000
G1 X43.362 Y1.358 Z0.000
G1 X43.557 Y1.118 Z0.000
G1 X43.561 Y1.115 Z0.000
G1 X43.555 Y1.049 Z0.000
G1 X43.524 Y0.969 Z0.000
G1 X43.471 Y0.913 Z0.000
G1 X43.401 Y0.885 Z0.000
G1 X43.341 Y0.887 Z0.000
G1 X43.298 Y0.901 Z0.000
G1 X43.263 Y0.925 Z0.000
G1 X43.238 Y0.960 Z0.000
G1 X43.173 Y0.974 Z0.000
G1 X43.187 Y0.933 Z0.000
G1 X43.227 Y0.882 Z0.000
G1 X43.282 Y0.847 Z0.000
G1 X43.349 Y0.829 Z0.000
G1 X43.410 Y0.831 Z0.000
G1 X43.459 Y0.844 Z0.000
G1 X43.503 Y0.868 Z0.000
G1 X43.541 Y0.900 Z0.000
G1 X43.591 Y0.972 Z0.000
G1 X43.621 Y1.083 Z0.000
G1 X43.615 Y1.207 Z0.000
G1 X43.576 Y1.308 Z0.000
G1 X43.509 Y1.379 Z0.000
G1 X43.452 Y1.406 Z0.000
G1 X43.405 Y1.415 Z0.000
G1 X43.324 Y1.408 Z0.000
G1 X43.245 Y1.363 Z0.000
G1 X43.190 Y1.287 Z0.000
G1 X43.162 Y1.184 Z0.000
G1 X43.162 Y1.118 Z0.000
G1 X43.557 Y1.118 Z0.000
G0 X43.557 Y1.118 Z4.000

(shape postamble)


(shape preamble)

G0 X43.984 Y1.362 Z4.000
G1 X43.984 Y1.362 Z0.000
G1 X44.034 Y1.356 Z0.000
G1 X44.095 Y1.316 Z0.000
G1 X44.139 Y1.249 Z0.000
G1 X44.161 Y1.160 Z0.000
G1 X44.156 Y1.059 Z0.000
G1 X44.125 Y0.977 Z0.000
G1 X44.075 Y0.918 Z0.000
G1 X44.009 Y0.889 Z0.000
G1 X43.937 Y0.895 Z0.000
G1 X43.878 Y0.934 Z0.000
G1 X43.836 Y1.000 Z0.000
G1 X43.815 Y1.090 Z0.000
G1 X43.819 Y1.193 Z0.000
G1 X43.847 Y1.276 Z0.000
G1 X43.894 Y1.334 Z0.000
G1 X43.959 Y1.362 Z0.000
G1 X44.221 Y1.404 Z0.000
G1 X44.217 Y1.404 Z0.000
G1 X44.161 Y1.404 Z0.000
G1 X44.161 Y1.291 Z0.000
G1 X44.157 Y1.291 Z0.000
G1 X44.138 Y1.328 Z0.000
G1 X44.100 Y1.371 Z0.000
G1 X44.053 Y1.401 Z0.000
G1 X43.998 Y1.415 Z0.000
G1 X43.944 Y1.413 Z0.000
G1 X43.899 Y1.400 Z0.000
G1 X43.833 Y1.358 Z0.000
G1 X43.776 Y1.274 Z0.000
G1 X43.748 Y1.164 Z0.000
G1 X43.754 Y1.040 Z0.000
G1 X43.792 Y0.938 Z0.000
G1 X43.857 Y0.865 Z0.000
G1 X43.914 Y0.838 Z0.000
G1 X43.961 Y0.829 Z0.000
G1 X44.015 Y0.832 Z0.000
G1 X44.065 Y0.849 Z0.000
G1 X44.107 Y0.881 Z0.000
G1 X44.141 Y0.924 Z0.000
G1 X44.157 Y0.942 Z0.000
G1 X44.157 Y0.631 Z0.000
G1 X44.221 Y0.631 Z0.000
G1 X44.221 Y1.404 Z0.000
G0 X44.221 Y1.404 Z4.000

(shape postamble)


(shape preamble)

G0 X44.863 Y0.691 Z4.000
G1 X44.863 Y0.691 Z0.000
G1 X44.835 Y0.631 Z0.000
G1 X44.771 Y0.628 Z0.000
G1 X44.716 Y0.644 Z0.000
G1 X44.670 Y0.679 Z0.000
G1 X44.633 Y0.736 Z0.000
G1 X44.612 Y0.787 Z0.000
G1 X44.383 Y1.408 Z0.000
G1 X44.447 Y1.408 Z0.000
G1 X44.619 Y0.924 Z0.000
G1 X44.623 Y0.924 Z0.000
G1 X44.796 Y1.408 Z0.000
G1 X44.863 Y1.408 Z0.000
G1 X44.655 Y0.843 Z0.000
G1 X44.677 Y0.786 Z0.000
G1 X44.703 Y0.736 Z0.000
G1 X44.735 Y0.703 Z0.000
G1 X44.773 Y0.687 Z0.000
G1 X44.824 Y0.684 Z0.000
G1 X44.863 Y0.695 Z0.000
G1 X44.863 Y0.691 Z0.000
G0 X44.863 Y0.691 Z4.000

(shape postamble)


(shape preamble)

G0 X45.272 Y0.840 Z4.000
G1 X45.272 Y0.840 Z0.000
G1 X45.209 Y0.840 Z0.000
G1 X45.209 Y1.513 Z0.000
G1 X44.979 Y1.513 Z0.000
G1 X44.979 Y1.573 Z0.000
G1 X45.501 Y1.573 Z0.000
G1 X45.501 Y1.513 Z0.000
G1 X45.272 Y1.513 Z0.000
G1 X45.272 Y0.840 Z0.000
G1 X45.272 Y0.840 Z0.000
G0 X45.272 Y0.840 Z4.000

(shape postamble)


(shape preamble)

G0 X46.108 Y0.663 Z4.000
G1 X46.108 Y0.663 Z0.000
G1 X46.045 Y0.663 Z0.000
G1 X45.607 Y1.665 Z0.000
G1 X45.671 Y1.665 Z0.000
G1 X46.108 Y0.663 Z0.000
G0 X46.108 Y0.663 Z4.000

(shape postamble)


(shape preamble)

G0 X46.479 Y1.023 Z4.000
G1 X46.479 Y1.023 Z0.000
G1 X46.479 Y1.351 Z0.000
G1 X46.274 Y1.351 Z0.000
G1 X46.274 Y1.404 Z0.000
G1 X46.479 Y1.404 Z0.000
G1 X46.479 Y1.580 Z0.000
G1 X46.542 Y1.570 Z0.000
G1 X46.542 Y1.404 Z0.000
G1 X46.708 Y1.404 Z0.000
G1 X46.708 Y1.351 Z0.000
G1 X46.542 Y1.351 Z0.000
G1 X46.542 Y0.992 Z0.000
G1 X46.523 Y0.918 Z0.000
G1 X46.483 Y0.865 Z0.000
G1 X46.422 Y0.837 Z0.000
G1 X46.348 Y0.833 Z0.000
G1 X46.293 Y0.842 Z0.000
G1 X46.263 Y0.857 Z0.000
G1 X46.279 Y0.901 Z0.000
G1 X46.328 Y0.887 Z0.000
G1 X46.381 Y0.885 Z0.000
G1 X46.428 Y0.900 Z0.000
G1 X46.459 Y0.931 Z0.000
G1 X46.476 Y0.980 Z0.000
G1 X46.479 Y1.023 Z0.000
G0 X46.479 Y1.023 Z4.000

(shape postamble)


(shape preamble)

G0 X47.068 Y1.362 Z4.000
G1 X47.068 Y1.362 Z0.000
G1 X47.117 Y1.356 Z0.000
G1 X47.179 Y1.316 Z0.000
G1 X47.222 Y1.249 Z0.000
G1 X47.244 Y1.160 Z0.000
G1 X47.239 Y1.059 Z0.000
G1 X47.210 Y0.977 Z0.000
G1 X47.160 Y0.918 Z0.000
G1 X47.093 Y0.889 Z0.000
G1 X47.018 Y0.895 Z0.000
G1 X46.958 Y0.934 Z0.000
G1 X46.916 Y1.000 Z0.000
G1 X46.895 Y1.090 Z0.000
G1 X46.899 Y1.193 Z0.000
G1 X46.928 Y1.276 Z0.000
G1 X46.976 Y1.334 Z0.000
G1 X47.042 Y1.362 Z0.000
G1 X47.304 Y1.404 Z0.000
G1 X47.300 Y1.404 Z0.000
G1 X47.244 Y1.404 Z0.000
G1 X47.244 Y1.291 Z0.000
G1 X47.241 Y1.291 Z0.000
G1 X47.221 Y1.328 Z0.000
G1 X47.183 Y1.371 Z0.000
G1 X47.136 Y1.401 Z0.000
G1 X47.081 Y1.415 Z0.000
G1 X47.028 Y1.413 Z0.000
G1 X46.982 Y1.400 Z0.000
G1 X46.916 Y1.358 Z0.000
G1 X46.859 Y1.274 Z0.000
G1 X46.831 Y1.164 Z0.000
G1 X46.837 Y1.040 Z0.000
G1 X46.875 Y0.938 Z0.000
G1 X46.940 Y0.865 Z0.000
G1 X46.997 Y0.838 Z0.000
G1 X47.044 Y0.829 Z0.000
G1 X47.098 Y0.832 Z0.000
G1 X47.148 Y0.849 Z0.000
G1 X47.191 Y0.881 Z0.000
G1 X47.225 Y0.924 Z0.000
G1 X47.241 Y0.942 Z0.000
G1 X47.241 Y0.631 Z0.000
G1 X47.304 Y0.631 Z0.000
G1 X47.304 Y1.404 Z0.000
G0 X47.304 Y1.404 Z4.000

(shape postamble)


(shape preamble)

G0 X47.625 Y1.404 Z4.000
G1 X47.625 Y1.404 Z0.000
G1 X47.625 Y1.408 Z0.000
G1 X47.625 Y0.843 Z0.000
G1 X47.689 Y0.843 Z0.000
G1 X47.689 Y1.351 Z0.000
G1 X47.886 Y1.351 Z0.000
G1 X47.886 Y1.404 Z0.000
G1 X47.625 Y1.404 Z0.000
G1 X47.724 Y1.549 Z0.000
G1 X47.724 Y1.658 Z0.000
G1 X47.614 Y1.658 Z0.000
G1 X47.614 Y1.549 Z0.000
G1 X47.724 Y1.549 Z0.000
G0 X47.724 Y1.549 Z4.000

(shape postamble)


(shape preamble)

G0 X48.422 Y0.840 Z4.000
G1 X48.422 Y0.840 Z0.000
G1 X48.422 Y1.192 Z0.000
G1 X48.404 Y1.265 Z0.000
G1 X48.368 Y1.319 Z0.000
G1 X48.314 Y1.350 Z0.000
G1 X48.257 Y1.355 Z0.000
G1 X48.219 Y1.345 Z0.000
G1 X48.189 Y1.324 Z0.000
G1 X48.169 Y1.293 Z0.000
G1 X48.161 Y1.266 Z0.000
G1 X48.100 Y1.289 Z0.000
G1 X48.124 Y1.344 Z0.000
G1 X48.164 Y1.384 Z0.000
G1 X48.217 Y1.408 Z0.000
G1 X48.279 Y1.411 Z0.000
G1 X48.329 Y1.399 Z0.000
G1 X48.372 Y1.373 Z0.000
G1 X48.406 Y1.336 Z0.000
G1 X48.422 Y1.305 Z0.000
G1 X48.426 Y1.305 Z0.000
G1 X48.426 Y1.404 Z0.000
G1 X48.482 Y1.404 Z0.000
G1 X48.482 Y0.840 Z0.000
G1 X48.419 Y0.840 Z0.000
G1 X48.422 Y0.840 Z0.000
G0 X48.422 Y0.840 Z4.000

(shape postamble)


(shape preamble)

G0 X48.768 Y0.977 Z4.000
G1 X48.768 Y0.977 Z0.000
G1 X48.772 Y0.963 Z0.000
G1 X48.797 Y0.928 Z0.000
G1 X48.833 Y0.902 Z0.000
G1 X48.878 Y0.888 Z0.000
G1 X48.941 Y0.885 Z0.000
G1 X49.012 Y0.914 Z0.000
G1 X49.065 Y0.973 Z0.000
G1 X49.095 Y1.055 Z0.000
G1 X49.100 Y1.156 Z0.000
G1 X49.078 Y1.246 Z0.000
G1 X49.032 Y1.315 Z0.000
G1 X48.967 Y1.355 Z0.000
G1 X48.896 Y1.362 Z0.000
G1 X48.851 Y1.351 Z0.000
G1 X48.813 Y1.329 Z0.000
G1 X48.786 Y1.297 Z0.000
G1 X48.775 Y1.270 Z0.000
G1 X48.719 Y1.292 Z0.000
G1 X48.750 Y1.348 Z0.000
G1 X48.800 Y1.388 Z0.000
G1 X48.864 Y1.411 Z0.000
G1 X48.931 Y1.415 Z0.000
G1 X48.981 Y1.405 Z0.000
G1 X49.027 Y1.386 Z0.000
G1 X49.067 Y1.356 Z0.000
G1 X49.112 Y1.306 Z0.000
G1 X49.153 Y1.204 Z0.000
G1 X49.160 Y1.080 Z0.000
G1 X49.129 Y0.969 Z0.000
G1 X49.077 Y0.899 Z0.000
G1 X49.039 Y0.867 Z0.000
G1 X48.994 Y0.844 Z0.000
G1 X48.945 Y0.831 Z0.000
G1 X48.884 Y0.829 Z0.000
G1 X48.814 Y0.847 Z0.000
G1 X48.758 Y0.882 Z0.000
G1 X48.720 Y0.933 Z0.000
G1 X48.708 Y0.974 Z0.000
G1 X48.768 Y0.974 Z0.000
G1 X48.768 Y0.977 Z0.000
G0 X48.768 Y0.977 Z4.000

(shape postamble)


(shape preamble)

G0 X49.759 Y0.977 Z4.000
G1 X49.759 Y0.977 Z0.000
G1 X49.758 Y0.956 Z0.000
G1 X49.729 Y0.900 Z0.000
G1 X49.676 Y0.856 Z0.000
G1 X49.606 Y0.830 Z0.000
G1 X49.522 Y0.826 Z0.000
G1 X49.446 Y0.846 Z0.000
G1 X49.389 Y0.889 Z0.000
G1 X49.355 Y0.949 Z0.000
G1 X49.350 Y1.020 Z0.000
G1 X49.368 Y1.071 Z0.000
G1 X49.409 Y1.110 Z0.000
G1 X49.472 Y1.138 Z0.000
G1 X49.530 Y1.150 Z0.000
G1 X49.576 Y1.154 Z0.000
G1 X49.624 Y1.171 Z0.000
G1 X49.656 Y1.194 Z0.000
G1 X49.672 Y1.224 Z0.000
G1 X49.675 Y1.265 Z0.000
G1 X49.660 Y1.306 Z0.000
G1 X49.629 Y1.337 Z0.000
G1 X49.585 Y1.355 Z0.000
G1 X49.530 Y1.358 Z0.000
G1 X49.483 Y1.347 Z0.000
G1 X49.446 Y1.324 Z0.000
G1 X49.422 Y1.292 Z0.000
G1 X49.414 Y1.266 Z0.000
G1 X49.355 Y1.288 Z0.000
G1 X49.383 Y1.342 Z0.000
G1 X49.433 Y1.383 Z0.000
G1 X49.500 Y1.407 Z0.000
G1 X49.578 Y1.411 Z0.000
G1 X49.647 Y1.390 Z0.000
G1 X49.699 Y1.349 Z0.000
G1 X49.730 Y1.291 Z0.000
G1 X49.735 Y1.224 Z0.000
G1 X49.717 Y1.172 Z0.000
G1 X49.676 Y1.133 Z0.000
G1 X49.612 Y1.106 Z0.000
G1 X49.555 Y1.094 Z0.000
G1 X49.508 Y1.088 Z0.000
G1 X49.458 Y1.071 Z0.000
G1 X49.425 Y1.048 Z0.000
G1 X49.409 Y1.020 Z0.000
G1 X49.407 Y0.978 Z0.000
G1 X49.423 Y0.935 Z0.000
G1 X49.457 Y0.903 Z0.000
G1 X49.505 Y0.885 Z0.000
G1 X49.564 Y0.882 Z0.000
G1 X49.616 Y0.894 Z0.000
G1 X49.658 Y0.918 Z0.000
G1 X49.685 Y0.951 Z0.000
G1 X49.692 Y0.977 Z0.000
G1 X49.752 Y0.977 Z0.000
G1 X49.759 Y0.977 Z0.000
G0 X49.759 Y0.977 Z4.000

(shape postamble)


(shape preamble)

G0 X50.024 Y0.949 Z4.000
G1 X50.024 Y0.949 Z0.000
G1 X50.020 Y0.914 Z0.000
G1 X50.013 Y0.843 Z0.000
G1 X49.957 Y0.910 Z0.000
G1 X49.960 Y1.030 Z0.000
G1 X49.960 Y1.408 Z0.000
G1 X50.017 Y1.408 Z0.000
G1 X50.017 Y1.295 Z0.000
G1 X50.033 Y1.314 Z0.000
G1 X50.068 Y1.362 Z0.000
G1 X50.112 Y1.396 Z0.000
G1 X50.164 Y1.415 Z0.000
G1 X50.221 Y1.418 Z0.000
G1 X50.268 Y1.409 Z0.000
G1 X50.324 Y1.382 Z0.000
G1 X50.389 Y1.309 Z0.000
G1 X50.427 Y1.207 Z0.000
G1 X50.433 Y1.083 Z0.000
G1 X50.404 Y0.973 Z0.000
G1 X50.347 Y0.889 Z0.000
G1 X50.281 Y0.847 Z0.000
G1 X50.236 Y0.834 Z0.000
G1 X50.184 Y0.833 Z0.000
G1 X50.131 Y0.845 Z0.000
G1 X50.085 Y0.873 Z0.000
G1 X50.047 Y0.914 Z0.000
G1 X50.027 Y0.949 Z0.000
G1 X50.024 Y0.949 Z0.000
G1 X50.020 Y1.087 Z0.000
G1 X50.041 Y0.997 Z0.000
G1 X50.083 Y0.930 Z0.000
G1 X50.142 Y0.891 Z0.000
G1 X50.214 Y0.885 Z0.000
G1 X50.280 Y0.914 Z0.000
G1 X50.331 Y0.973 Z0.000
G1 X50.361 Y1.055 Z0.000
G1 X50.366 Y1.156 Z0.000
G1 X50.344 Y1.245 Z0.000
G1 X50.300 Y1.313 Z0.000
G1 X50.237 Y1.352 Z0.000
G1 X50.160 Y1.358 Z0.000
G1 X50.094 Y1.330 Z0.000
G1 X50.047 Y1.272 Z0.000
G1 X50.021 Y1.190 Z0.000
G1 X50.017 Y1.122 Z0.000
G1 X50.020 Y1.122 Z0.000
G0 X50.020 Y1.122 Z4.000

(shape postamble)


(shape preamble)

G0 X50.825 Y0.840 Z4.000
G1 X50.825 Y0.840 Z0.000
G1 X50.744 Y0.840 Z0.000
G1 X50.557 Y1.404 Z0.000
G1 X50.620 Y1.404 Z0.000
G1 X50.779 Y0.907 Z0.000
G1 X50.782 Y0.907 Z0.000
G1 X50.948 Y1.404 Z0.000
G1 X51.012 Y1.404 Z0.000
G1 X50.821 Y0.840 Z0.000
G1 X50.825 Y0.840 Z0.000
G0 X50.825 Y0.840 Z4.000

(shape postamble)


(shape preamble)

G0 X51.255 Y0.949 Z4.000
G1 X51.255 Y0.949 Z0.000
G1 X51.252 Y0.914 Z0.000
G1 X51.245 Y0.843 Z0.000
G1 X51.188 Y0.910 Z0.000
G1 X51.192 Y1.030 Z0.000
G1 X51.192 Y1.408 Z0.000
G1 X51.248 Y1.408 Z0.000
G1 X51.248 Y1.295 Z0.000
G1 X51.260 Y1.314 Z0.000
G1 X51.295 Y1.362 Z0.000
G1 X51.340 Y1.396 Z0.000
G1 X51.392 Y1.415 Z0.000
G1 X51.448 Y1.418 Z0.000
G1 X51.495 Y1.409 Z0.000
G1 X51.552 Y1.382 Z0.000
G1 X51.617 Y1.309 Z0.000
G1 X51.655 Y1.207 Z0.000
G1 X51.661 Y1.083 Z0.000
G1 X51.632 Y0.973 Z0.000
G1 X51.575 Y0.889 Z0.000
G1 X51.509 Y0.847 Z0.000
G1 X51.464 Y0.834 Z0.000
G1 X51.412 Y0.833 Z0.000
G1 X51.359 Y0.845 Z0.000
G1 X51.312 Y0.873 Z0.000
G1 X51.275 Y0.914 Z0.000
G1 X51.255 Y0.949 Z0.000
G1 X51.252 Y1.087 Z0.000
G1 X51.272 Y0.997 Z0.000
G1 X51.314 Y0.930 Z0.000
G1 X51.373 Y0.891 Z0.000
G1 X51.446 Y0.885 Z0.000
G1 X51.511 Y0.914 Z0.000
G1 X51.562 Y0.973 Z0.000
G1 X51.592 Y1.055 Z0.000
G1 X51.597 Y1.156 Z0.000
G1 X51.575 Y1.245 Z0.000
G1 X51.531 Y1.313 Z0.000
G1 X51.468 Y1.352 Z0.000
G1 X51.391 Y1.358 Z0.000
G1 X51.325 Y1.330 Z0.000
G1 X51.278 Y1.272 Z0.000
G1 X51.252 Y1.190 Z0.000
G1 X51.248 Y1.122 Z0.000
G1 X51.252 Y1.122 Z0.000
G0 X51.252 Y1.122 Z4.000

(shape postamble)


(shape preamble)

G0 X51.019 Y2.088 Z4.000
G1 X51.019 Y2.088 Z0.000
G1 X50.892 Y2.088 Z0.000
G1 X50.892 Y2.240 Z0.000
G1 X50.811 Y2.332 Z0.000
G1 X50.655 Y2.088 Z0.000
G1 X50.511 Y2.088 Z0.000
G1 X50.729 Y2.424 Z0.000
G1 X50.528 Y2.653 Z0.000
G1 X50.684 Y2.653 Z0.000
G1 X50.895 Y2.409 Z0.000
G1 X50.895 Y2.861 Z0.000
G1 X51.022 Y2.861 Z0.000
G1 X51.022 Y2.088 Z0.000
G1 X51.019 Y2.088 Z0.000
G0 X51.019 Y2.088 Z4.000

(shape postamble)


(shape preamble)

G0 X51.661 Y2.286 Z4.000
G1 X51.661 Y2.286 Z0.000
G1 X51.660 Y2.255 Z0.000
G1 X51.626 Y2.175 Z0.000
G1 X51.561 Y2.115 Z0.000
G1 X51.471 Y2.080 Z0.000
G1 X51.363 Y2.074 Z0.000
G1 X51.269 Y2.101 Z0.000
G1 X51.199 Y2.157 Z0.000
G1 X51.159 Y2.236 Z0.000
G1 X51.153 Y2.329 Z0.000
G1 X51.176 Y2.403 Z0.000
G1 X51.227 Y2.460 Z0.000
G1 X51.306 Y2.500 Z0.000
G1 X51.375 Y2.515 Z0.000
G1 X51.435 Y2.526 Z0.000
G1 X51.476 Y2.541 Z0.000
G1 X51.503 Y2.562 Z0.000
G1 X51.518 Y2.591 Z0.000
G1 X51.520 Y2.629 Z0.000
G1 X51.506 Y2.667 Z0.000
G1 X51.478 Y2.695 Z0.000
G1 X51.437 Y2.710 Z0.000
G1 X51.387 Y2.713 Z0.000
G1 X51.343 Y2.702 Z0.000
G1 X51.308 Y2.682 Z0.000
G1 X51.286 Y2.652 Z0.000
G1 X51.280 Y2.628 Z0.000
G1 X51.161 Y2.657 Z0.000
G1 X51.193 Y2.732 Z0.000
G1 X51.256 Y2.788 Z0.000
G1 X51.342 Y2.821 Z0.000
G1 X51.446 Y2.826 Z0.000
G1 X51.536 Y2.800 Z0.000
G1 X51.604 Y2.745 Z0.000
G1 X51.644 Y2.668 Z0.000
G1 X51.650 Y2.575 Z0.000
G1 X51.628 Y2.504 Z0.000
G1 X51.580 Y2.449 Z0.000
G1 X51.505 Y2.411 Z0.000
G1 X51.439 Y2.395 Z0.000
G1 X51.377 Y2.385 Z0.000
G1 X51.332 Y2.369 Z0.000
G1 X51.301 Y2.345 Z0.000
G1 X51.286 Y2.315 Z0.000
G1 X51.283 Y2.274 Z0.000
G1 X51.298 Y2.233 Z0.000
G1 X51.328 Y2.204 Z0.000
G1 X51.371 Y2.186 Z0.000
G1 X51.425 Y2.184 Z0.000
G1 X51.474 Y2.196 Z0.000
G1 X51.511 Y2.221 Z0.000
G1 X51.534 Y2.255 Z0.000
G1 X51.541 Y2.282 Z0.000
G1 X51.661 Y2.282 Z0.000
G1 X51.661 Y2.286 Z0.000
G0 X51.661 Y2.286 Z4.000

(shape postamble)


(shape preamble)

G0 X52.596 Y2.290 Z4.000
G1 X52.596 Y2.290 Z0.000
G1 X52.596 Y2.861 Z0.000
G1 X52.881 Y2.861 Z0.000
G1 X52.881 Y2.745 Z0.000
G1 X52.719 Y2.745 Z0.000
G1 X52.719 Y2.255 Z0.000
G1 X52.697 Y2.172 Z0.000
G1 X52.650 Y2.114 Z0.000
G1 X52.578 Y2.082 Z0.000
G1 X52.493 Y2.078 Z0.000
G1 X52.433 Y2.087 Z0.000
G1 X52.398 Y2.099 Z0.000
G1 X52.414 Y2.198 Z0.000
G1 X52.459 Y2.185 Z0.000
G1 X52.507 Y2.184 Z0.000
G1 X52.548 Y2.195 Z0.000
G1 X52.576 Y2.219 Z0.000
G1 X52.590 Y2.256 Z0.000
G1 X52.592 Y2.290 Z0.000
G1 X52.596 Y2.290 Z0.000
G0 X52.596 Y2.290 Z4.000

(shape postamble)


(shape preamble)

G0 X53.142 Y2.367 Z4.000
G1 X53.142 Y2.367 Z0.000
G1 X53.146 Y2.415 Z0.000
G1 X53.168 Y2.477 Z0.000
G1 X53.206 Y2.521 Z0.000
G1 X53.254 Y2.544 Z0.000
G1 X53.309 Y2.539 Z0.000
G1 X53.354 Y2.508 Z0.000
G1 X53.387 Y2.458 Z0.000
G1 X53.404 Y2.392 Z0.000
G1 X53.400 Y2.319 Z0.000
G1 X53.378 Y2.258 Z0.000
G1 X53.340 Y2.213 Z0.000
G1 X53.292 Y2.191 Z0.000
G1 X53.237 Y2.195 Z0.000
G1 X53.192 Y2.225 Z0.000
G1 X53.159 Y2.275 Z0.000
G1 X53.142 Y2.342 Z0.000
G1 X53.146 Y2.180 Z0.000
G1 X53.142 Y2.180 Z0.000
G1 X53.160 Y2.149 Z0.000
G1 X53.193 Y2.112 Z0.000
G1 X53.233 Y2.089 Z0.000
G1 X53.280 Y2.078 Z0.000
G1 X53.330 Y2.080 Z0.000
G1 X53.374 Y2.093 Z0.000
G1 X53.439 Y2.136 Z0.000
G1 X53.496 Y2.220 Z0.000
G1 X53.523 Y2.329 Z0.000
G1 X53.518 Y2.451 Z0.000
G1 X53.480 Y2.553 Z0.000
G1 X53.415 Y2.627 Z0.000
G1 X53.360 Y2.654 Z0.000
G1 X53.314 Y2.663 Z0.000
G1 X53.264 Y2.661 Z0.000
G1 X53.219 Y2.645 Z0.000
G1 X53.181 Y2.616 Z0.000
G1 X53.150 Y2.574 Z0.000
G1 X53.139 Y2.558 Z0.000
G1 X53.139 Y2.653 Z0.000
G1 X53.019 Y2.653 Z0.000
G1 X53.019 Y2.275 Z0.000
G1 X53.015 Y2.155 Z0.000
G1 X53.132 Y2.088 Z0.000
G1 X53.139 Y2.148 Z0.000
G1 X53.146 Y2.180 Z0.000
G0 X53.146 Y2.180 Z4.000

(shape postamble)


(shape preamble)

G0 X53.756 Y2.244 Z4.000
G1 X53.756 Y2.244 Z0.000
G1 X53.762 Y2.228 Z0.000
G1 X53.805 Y2.196 Z0.000
G1 X53.870 Y2.191 Z0.000
G1 X53.925 Y2.212 Z0.000
G1 X53.964 Y2.256 Z0.000
G1 X53.986 Y2.320 Z0.000
G1 X53.989 Y2.402 Z0.000
G1 X53.973 Y2.470 Z0.000
G1 X53.941 Y2.518 Z0.000
G1 X53.894 Y2.543 Z0.000
G1 X53.832 Y2.547 Z0.000
G1 X53.780 Y2.523 Z0.000
G1 X53.763 Y2.494 Z0.000
G1 X53.640 Y2.519 Z0.000
G1 X53.673 Y2.582 Z0.000
G1 X53.728 Y2.629 Z0.000
G1 X53.800 Y2.656 Z0.000
G1 X53.874 Y2.660 Z0.000
G1 X53.927 Y2.651 Z0.000
G1 X53.975 Y2.632 Z0.000
G1 X54.017 Y2.603 Z0.000
G1 X54.063 Y2.553 Z0.000
G1 X54.106 Y2.452 Z0.000
G1 X54.113 Y2.328 Z0.000
G1 X54.081 Y2.217 Z0.000
G1 X54.027 Y2.146 Z0.000
G1 X53.987 Y2.113 Z0.000
G1 X53.941 Y2.090 Z0.000
G1 X53.889 Y2.076 Z0.000
G1 X53.824 Y2.074 Z0.000
G1 X53.749 Y2.094 Z0.000
G1 X53.688 Y2.135 Z0.000
G1 X53.644 Y2.193 Z0.000
G1 X53.629 Y2.240 Z0.000
G1 X53.756 Y2.240 Z0.000
G1 X53.756 Y2.244 Z0.000
G0 X53.756 Y2.244 Z4.000

(shape postamble)


(shape preamble)

G0 X54.377 Y2.649 Z4.000
G1 X54.377 Y2.649 Z0.000
G1 X54.381 Y2.649 Z0.000
G1 X54.381 Y2.085 Z0.000
G1 X54.504 Y2.085 Z0.000
G1 X54.504 Y2.533 Z0.000
G1 X54.681 Y2.533 Z0.000
G1 X54.681 Y2.649 Z0.000
G1 X54.377 Y2.649 Z0.000
G1 X54.532 Y2.738 Z0.000
G1 X54.532 Y2.903 Z0.000
G1 X54.367 Y2.903 Z0.000
G1 X54.367 Y2.738 Z0.000
G1 X54.532 Y2.738 Z0.000
G0 X54.532 Y2.738 Z4.000

(shape postamble)


(shape preamble)

G0 X55.319 Y2.088 Z4.000
G1 X55.319 Y2.088 Z0.000
G1 X55.196 Y2.088 Z0.000
G1 X55.196 Y2.437 Z0.000
G1 X55.182 Y2.490 Z0.000
G1 X55.155 Y2.530 Z0.000
G1 X55.117 Y2.554 Z0.000
G1 X55.074 Y2.558 Z0.000
G1 X55.043 Y2.546 Z0.000
G1 X55.020 Y2.522 Z0.000
G1 X55.007 Y2.488 Z0.000
G1 X55.005 Y2.459 Z0.000
G1 X55.005 Y2.088 Z0.000
G1 X54.878 Y2.088 Z0.000
G1 X54.878 Y2.499 Z0.000
G1 X54.898 Y2.573 Z0.000
G1 X54.939 Y2.627 Z0.000
G1 X54.999 Y2.659 Z0.000
G1 X55.063 Y2.663 Z0.000
G1 X55.107 Y2.654 Z0.000
G1 X55.145 Y2.634 Z0.000
G1 X55.176 Y2.604 Z0.000
G1 X55.192 Y2.579 Z0.000
G1 X55.196 Y2.579 Z0.000
G1 X55.196 Y2.653 Z0.000
G1 X55.316 Y2.653 Z0.000
G1 X55.316 Y2.088 Z0.000
G1 X55.319 Y2.088 Z0.000
G0 X55.319 Y2.088 Z4.000

(shape postamble)


(shape preamble)

G0 X55.936 Y2.088 Z4.000
G1 X55.936 Y2.088 Z0.000
G1 X55.809 Y2.088 Z0.000
G1 X55.809 Y2.437 Z0.000
G1 X55.796 Y2.490 Z0.000
G1 X55.770 Y2.530 Z0.000
G1 X55.733 Y2.554 Z0.000
G1 X55.691 Y2.558 Z0.000
G1 X55.660 Y2.546 Z0.000
G1 X55.638 Y2.522 Z0.000
G1 X55.624 Y2.488 Z0.000
G1 X55.623 Y2.459 Z0.000
G1 X55.623 Y2.088 Z0.000
G1 X55.496 Y2.088 Z0.000
G1 X55.496 Y2.499 Z0.000
G1 X55.515 Y2.573 Z0.000
G1 X55.557 Y2.627 Z0.000
G1 X55.616 Y2.659 Z0.000
G1 X55.681 Y2.663 Z0.000
G1 X55.723 Y2.655 Z0.000
G1 X55.771 Y2.630 Z0.000
G1 X55.806 Y2.586 Z0.000
G1 X55.809 Y2.586 Z0.000
G1 X55.809 Y2.865 Z0.000
G1 X55.936 Y2.865 Z0.000
G1 X55.936 Y2.092 Z0.000
G1 X55.936 Y2.088 Z0.000
G0 X55.936 Y2.088 Z4.000

(shape postamble)


(shape preamble)

G0 X56.222 Y2.244 Z4.000
G1 X56.222 Y2.244 Z0.000
G1 X56.228 Y2.228 Z0.000
G1 X56.271 Y2.196 Z0.000
G1 X56.336 Y2.191 Z0.000
G1 X56.391 Y2.212 Z0.000
G1 X56.430 Y2.256 Z0.000
G1 X56.452 Y2.320 Z0.000
G1 X56.455 Y2.402 Z0.000
G1 X56.439 Y2.470 Z0.000
G1 X56.407 Y2.518 Z0.000
G1 X56.360 Y2.543 Z0.000
G1 X56.298 Y2.547 Z0.000
G1 X56.246 Y2.523 Z0.000
G1 X56.229 Y2.494 Z0.000
G1 X56.106 Y2.519 Z0.000
G1 X56.139 Y2.582 Z0.000
G1 X56.194 Y2.629 Z0.000
G1 X56.266 Y2.656 Z0.000
G1 X56.340 Y2.660 Z0.000
G1 X56.393 Y2.651 Z0.000
G1 X56.441 Y2.632 Z0.000
G1 X56.483 Y2.603 Z0.000
G1 X56.529 Y2.553 Z0.000
G1 X56.572 Y2.452 Z0.000
G1 X56.579 Y2.328 Z0.000
G1 X56.546 Y2.217 Z0.000
G1 X56.493 Y2.146 Z0.000
G1 X56.453 Y2.113 Z0.000
G1 X56.406 Y2.090 Z0.000
G1 X56.355 Y2.076 Z0.000
G1 X56.290 Y2.074 Z0.000
G1 X56.215 Y2.094 Z0.000
G1 X56.154 Y2.135 Z0.000
G1 X56.110 Y2.193 Z0.000
G1 X56.095 Y2.240 Z0.000
G1 X56.222 Y2.240 Z0.000
G1 X56.222 Y2.244 Z0.000
G0 X56.222 Y2.244 Z4.000

(shape postamble)


(shape preamble)

G0 X56.949 Y2.554 Z4.000
G1 X56.949 Y2.554 Z0.000
G1 X56.978 Y2.551 Z0.000
G1 X57.016 Y2.532 Z0.000
G1 X57.045 Y2.498 Z0.000
G1 X57.065 Y2.450 Z0.000
G1 X56.836 Y2.431 Z0.000
G1 X56.842 Y2.466 Z0.000
G1 X56.863 Y2.509 Z0.000
