
(Created with svg2gcode_grbl)
(https://github.com/arcadeperfect/svg2gcode_grbl)


(forked from svg2gcode by visphat)
(https://github.com/vishpat/svg2gcode)


F1000

(shape preamble)

G0 X39.409 Y30.085 Z4.000
G1 X39.409 Y30.085 Z0.000
G1 X39.409 Y-38.033 Z0.000
G0 X39.409 Y-38.033 Z4.000

(shape postamble)


(shape preamble)

G0 X38.520 Y-38.033 Z4.000
G1 X38.520 Y-38.033 Z0.000
G1 X35.465 Y-38.033 Z0.000
G0 X35.465 Y-38.033 Z4.000

(shape postamble)


(shape preamble)

G0 X33.193 Y-38.033 Z4.000
G1 X33.193 Y-38.033 Z0.000
G1 X33.193 Y30.085 Z0.000
G0 X33.193 Y30.085 Z4.000

(shape postamble)


(shape preamble)

G0 X26.973 Y30.085 Z4.000
G1 X26.973 Y30.085 Z0.000
G1 X26.973 Y-38.033 Z0.000
G0 X26.973 Y-38.033 Z4.000

(shape postamble)


(shape preamble)

G0 X26.120 Y-38.033 Z4.000
G1 X26.120 Y-38.033 Z0.000
G1 X23.068 Y-38.033 Z0.000
G0 X23.068 Y-38.033 Z4.000

(shape postamble)


(shape preamble)

G0 X20.757 Y-38.033 Z4.000
G1 X20.757 Y-38.033 Z0.000
G1 X20.757 Y30.085 Z0.000
G0 X20.757 Y30.085 Z4.000

(shape postamble)


(shape preamble)

G0 X14.538 Y30.085 Z4.000
G1 X14.538 Y30.085 Z0.000
G1 X14.538 Y-38.033 Z0.000
G0 X14.538 Y-38.033 Z4.000

(shape postamble)


(shape preamble)

G0 X13.723 Y-38.033 Z4.000
G1 X13.723 Y-38.033 Z0.000
G1 X10.668 Y-38.033 Z0.000
G0 X10.668 Y-38.033 Z4.000

(shape postamble)


(shape preamble)

G0 X8.322 Y-38.033 Z4.000
G1 X8.322 Y-38.033 Z0.000
G1 X8.322 Y30.085 Z0.000
G0 X8.322 Y30.085 Z4.000

(shape postamble)


(shape preamble)

G0 X14.383 Y14.887 Z4.000
G1 X14.383 Y14.887 Z0.000
G1 X8.322 Y8.516 Z0.000
G1 X8.322 Y8.827 Z0.000
G1 X20.757 Y8.827 Z0.000
G1 X20.757 Y8.516 Z0.000
G1 X8.322 Y8.516 Z0.000
G0 X8.322 Y8.516 Z4.000

(shape postamble)


(shape preamble)

G0 X9.126 Y9.550 Z4.000
G1 X9.126 Y9.550 Z0.000
G1 X8.692 Y9.550 Z0.000
G1 X8.692 Y9.622 Z0.000
G1 X8.723 Y9.735 Z0.000
G1 X8.773 Y9.805 Z0.000
G1 X8.811 Y9.837 Z0.000
G1 X8.855 Y9.860 Z0.000
G1 X8.904 Y9.872 Z0.000
G1 X8.957 Y9.874 Z0.000
G1 X9.009 Y9.864 Z0.000
G1 X9.055 Y9.843 Z0.000
G1 X9.097 Y9.812 Z0.000
G1 X9.143 Y9.758 Z0.000
G1 X9.187 Y9.649 Z0.000
G1 X9.193 Y9.537 Z0.000
G1 X9.185 Y9.472 Z0.000
G1 X9.167 Y9.413 Z0.000
G1 X9.140 Y9.360 Z0.000
G1 X9.106 Y9.315 Z0.000
G1 X9.064 Y9.279 Z0.000
G1 X9.016 Y9.253 Z0.000
G1 X8.963 Y9.238 Z0.000
G1 X8.898 Y9.236 Z0.000
G1 X8.824 Y9.255 Z0.000
G1 X8.763 Y9.293 Z0.000
G1 X8.719 Y9.349 Z0.000
G1 X8.703 Y9.394 Z0.000
G1 X8.772 Y9.379 Z0.000
G1 X8.799 Y9.342 Z0.000
G1 X8.837 Y9.314 Z0.000
G1 X8.884 Y9.298 Z0.000
G1 X8.948 Y9.296 Z0.000
G1 X9.025 Y9.326 Z0.000
G1 X9.082 Y9.387 Z0.000
G1 X9.116 Y9.475 Z0.000
G1 X9.123 Y9.546 Z0.000
G1 X9.126 Y9.550 Z0.000
G1 X8.911 Y9.814 Z0.000
G1 X8.846 Y9.789 Z0.000
G1 X8.796 Y9.738 Z0.000
G1 X8.766 Y9.665 Z0.000
G1 X8.759 Y9.606 Z0.000
G1 X9.119 Y9.638 Z0.000
G1 X9.091 Y9.718 Z0.000
G1 X9.045 Y9.776 Z0.000
G1 X8.984 Y9.809 Z0.000
G1 X8.936 Y9.814 Z0.000
G0 X8.936 Y9.814 Z4.000

(shape postamble)


(shape preamble)

G0 X9.627 Y9.444 Z4.000
G1 X9.627 Y9.444 Z0.000
G1 X9.627 Y10.089 Z0.000
G1 X9.885 Y10.089 Z0.000
G1 X9.885 Y10.029 Z0.000
G1 X9.698 Y10.029 Z0.000
G1 X9.698 Y9.406 Z0.000
G1 X9.678 Y9.324 Z0.000
G1 X9.635 Y9.267 Z0.000
G1 X9.569 Y9.237 Z0.000
G1 X9.488 Y9.232 Z0.000
G1 X9.429 Y9.245 Z0.000
G1 X9.398 Y9.260 Z0.000
G1 X9.416 Y9.308 Z0.000
G1 X9.469 Y9.291 Z0.000
G1 X9.525 Y9.289 Z0.000
G1 X9.575 Y9.304 Z0.000
G1 X9.610 Y9.339 Z0.000
G1 X9.628 Y9.392 Z0.000
G1 X9.631 Y9.440 Z0.000
G1 X9.627 Y9.444 Z0.000
G0 X9.627 Y9.444 Z4.000

(shape postamble)


(shape preamble)

G0 X10.269 Y9.814 Z4.000
G1 X10.269 Y9.814 Z0.000
G1 X10.317 Y9.809 Z0.000
G1 X10.378 Y9.776 Z0.000
G1 X10.425 Y9.718 Z0.000
G1 X10.453 Y9.638 Z0.000
G1 X10.093 Y9.606 Z0.000
G1 X10.099 Y9.665 Z0.000
G1 X10.130 Y9.738 Z0.000
G1 X10.180 Y9.789 Z0.000
G1 X10.245 Y9.814 Z0.000
G1 X10.456 Y9.550 Z0.000
G1 X10.453 Y9.546 Z0.000
G1 X10.446 Y9.475 Z0.000
G1 X10.412 Y9.387 Z0.000
G1 X10.355 Y9.326 Z0.000
G1 X10.278 Y9.296 Z0.000
G1 X10.214 Y9.298 Z0.000
G1 X10.167 Y9.314 Z0.000
G1 X10.129 Y9.342 Z0.000
G1 X10.102 Y9.379 Z0.000
G1 X10.033 Y9.394 Z0.000
G1 X10.049 Y9.349 Z0.000
G1 X10.093 Y9.293 Z0.000
G1 X10.154 Y9.255 Z0.000
G1 X10.228 Y9.236 Z0.000
G1 X10.293 Y9.238 Z0.000
G1 X10.346 Y9.253 Z0.000
G1 X10.394 Y9.279 Z0.000
G1 X10.436 Y9.315 Z0.000
G1 X10.470 Y9.360 Z0.000
G1 X10.497 Y9.413 Z0.000
G1 X10.515 Y9.472 Z0.000
G1 X10.523 Y9.537 Z0.000
G1 X10.517 Y9.649 Z0.000
G1 X10.473 Y9.758 Z0.000
G1 X10.427 Y9.812 Z0.000
G1 X10.385 Y9.843 Z0.000
G1 X10.339 Y9.864 Z0.000
G1 X10.287 Y9.874 Z0.000
G1 X10.234 Y9.872 Z0.000
G1 X10.185 Y9.860 Z0.000
G1 X10.141 Y9.837 Z0.000
G1 X10.103 Y9.805 Z0.000
G1 X10.053 Y9.735 Z0.000
G1 X10.022 Y9.622 Z0.000
G1 X10.022 Y9.550 Z0.000
G1 X10.456 Y9.550 Z0.000
G0 X10.456 Y9.550 Z4.000

(shape postamble)


(shape preamble)

G0 X10.763 Y9.451 Z4.000
G1 X10.763 Y9.451 Z0.000
G1 X10.763 Y9.864 Z0.000
G1 X10.830 Y9.864 Z0.000
G1 X10.830 Y9.479 Z0.000
G1 X10.851 Y9.398 Z0.000
G1 X10.893 Y9.337 Z0.000
G1 X10.952 Y9.301 Z0.000
G1 X11.020 Y9.296 Z0.000
G1 X11.071 Y9.314 Z0.000
G1 X11.109 Y9.352 Z0.000
G1 X11.130 Y9.407 Z0.000
G1 X11.134 Y9.454 Z0.000
G1 X11.134 Y9.867 Z0.000
G1 X11.201 Y9.867 Z0.000
G1 X11.201 Y9.419 Z0.000
G1 X11.178 Y9.338 Z0.000
G1 X11.131 Y9.279 Z0.000
G1 X11.064 Y9.245 Z0.000
G1 X10.990 Y9.239 Z0.000
G1 X10.935 Y9.251 Z0.000
G1 X10.888 Y9.277 Z0.000
G1 X10.852 Y9.315 Z0.000
G1 X10.834 Y9.349 Z0.000
G1 X10.830 Y9.317 Z0.000
G1 X10.823 Y9.250 Z0.000
G1 X10.763 Y9.320 Z0.000
G1 X10.767 Y9.454 Z0.000
G1 X10.763 Y9.451 Z0.000
G0 X10.763 Y9.451 Z4.000

(shape postamble)


(shape preamble)

G0 X11.638 Y9.444 Z4.000
G1 X11.638 Y9.444 Z0.000
G1 X11.638 Y9.804 Z0.000
G1 X11.416 Y9.804 Z0.000
G1 X11.416 Y9.864 Z0.000
G1 X11.638 Y9.864 Z0.000
G1 X11.638 Y10.058 Z0.000
G1 X11.705 Y10.047 Z0.000
G1 X11.705 Y9.864 Z0.000
G1 X11.889 Y9.864 Z0.000
G1 X11.889 Y9.804 Z0.000
G1 X11.705 Y9.804 Z0.000
G1 X11.705 Y9.409 Z0.000
G1 X11.685 Y9.327 Z0.000
G1 X11.642 Y9.271 Z0.000
G1 X11.576 Y9.240 Z0.000
G1 X11.495 Y9.236 Z0.000
G1 X11.436 Y9.248 Z0.000
G1 X11.405 Y9.264 Z0.000
G1 X11.423 Y9.312 Z0.000
G1 X11.476 Y9.295 Z0.000
G1 X11.532 Y9.292 Z0.000
G1 X11.583 Y9.308 Z0.000
G1 X11.617 Y9.342 Z0.000
G1 X11.636 Y9.396 Z0.000
G1 X11.638 Y9.444 Z0.000
G1 X11.638 Y9.444 Z0.000
G0 X11.638 Y9.444 Z4.000

(shape postamble)


(shape preamble)

G0 X12.107 Y9.394 Z4.000
G1 X12.107 Y9.394 Z0.000
G1 X12.112 Y9.379 Z0.000
G1 X12.138 Y9.341 Z0.000
G1 X12.177 Y9.312 Z0.000
G1 X12.226 Y9.295 Z0.000
G1 X12.293 Y9.292 Z0.000
G1 X12.372 Y9.323 Z0.000
G1 X12.429 Y9.387 Z0.000
G1 X12.462 Y9.479 Z0.000
G1 X12.467 Y9.592 Z0.000
G1 X12.443 Y9.691 Z0.000
G1 X12.393 Y9.765 Z0.000
G1 X12.322 Y9.808 Z0.000
G1 X12.244 Y9.814 Z0.000
G1 X12.194 Y9.803 Z0.000
G1 X12.152 Y9.778 Z0.000
G1 X12.122 Y9.742 Z0.000
G1 X12.111 Y9.712 Z0.000
G1 X12.052 Y9.736 Z0.000
G1 X12.086 Y9.796 Z0.000
G1 X12.140 Y9.841 Z0.000
G1 X12.209 Y9.867 Z0.000
G1 X12.282 Y9.871 Z0.000
G1 X12.338 Y9.861 Z0.000
G1 X12.388 Y9.839 Z0.000
G1 X12.433 Y9.807 Z0.000
G1 X12.470 Y9.766 Z0.000
G1 X12.500 Y9.716 Z0.000
G1 X12.521 Y9.659 Z0.000
G1 X12.532 Y9.596 Z0.000
G1 X12.534 Y9.526 Z0.000
G1 X12.525 Y9.461 Z0.000
G1 X12.507 Y9.401 Z0.000
G1 X12.479 Y9.349 Z0.000
G1 X12.444 Y9.305 Z0.000
G1 X12.401 Y9.270 Z0.000
G1 X12.352 Y9.245 Z0.000
G1 X12.298 Y9.231 Z0.000
G1 X12.232 Y9.229 Z0.000
G1 X12.156 Y9.248 Z0.000
G1 X12.094 Y9.286 Z0.000
G1 X12.050 Y9.342 Z0.000
G1 X12.037 Y9.387 Z0.000
G1 X12.100 Y9.387 Z0.000
G1 X12.107 Y9.394 Z0.000
G0 X12.107 Y9.394 Z4.000

(shape postamble)


(shape preamble)

G0 X13.130 Y9.553 Z4.000
G1 X13.130 Y9.553 Z0.000
G1 X12.859 Y9.553 Z0.000
G1 X12.993 Y9.966 Z0.000
G1 X12.996 Y9.966 Z0.000
G1 X13.130 Y9.553 Z0.000
G1 X13.229 Y9.246 Z0.000
G1 X13.300 Y9.246 Z0.000
G1 X13.039 Y10.044 Z0.000
G1 X12.947 Y10.044 Z0.000
G1 X12.686 Y9.246 Z0.000
G1 X12.760 Y9.246 Z0.000
G1 X12.838 Y9.490 Z0.000
G1 X13.152 Y9.490 Z0.000
G1 X13.229 Y9.246 Z0.000
G0 X13.229 Y9.246 Z4.000

(shape postamble)


(shape preamble)

G0 X14.418 Y9.246 Z4.000
G1 X14.418 Y9.246 Z0.000
G1 X14.418 Y9.630 Z0.000
G1 X14.398 Y9.709 Z0.000
G1 X14.358 Y9.768 Z0.000
G1 X14.300 Y9.802 Z0.000
G1 X14.236 Y9.807 Z0.000
G1 X14.195 Y9.797 Z0.000
G1 X14.162 Y9.774 Z0.000
G1 X14.140 Y9.740 Z0.000
G1 X14.132 Y9.712 Z0.000
G1 X14.068 Y9.736 Z0.000
G1 X14.093 Y9.795 Z0.000
G1 X14.137 Y9.839 Z0.000
G1 X14.196 Y9.863 Z0.000
G1 X14.262 Y9.867 Z0.000
G1 X14.317 Y9.854 Z0.000
G1 X14.364 Y9.825 Z0.000
G1 X14.402 Y9.785 Z0.000
G1 X14.422 Y9.751 Z0.000
G1 X14.425 Y9.751 Z0.000
G1 X14.425 Y9.860 Z0.000
G1 X14.489 Y9.860 Z0.000
G1 X14.489 Y9.243 Z0.000
G1 X14.422 Y9.243 Z0.000
G1 X14.418 Y9.246 Z0.000
G0 X14.418 Y9.246 Z4.000

(shape postamble)


(shape preamble)

G0 X14.982 Y9.236 Z4.000
G1 X14.982 Y9.236 Z0.000
G1 X14.964 Y9.236 Z0.000
G1 X14.910 Y9.246 Z0.000
G1 X14.861 Y9.267 Z0.000
G1 X14.818 Y9.299 Z0.000
G1 X14.782 Y9.340 Z0.000
G1 X14.752 Y9.390 Z0.000
G1 X14.731 Y9.447 Z0.000
G1 X14.720 Y9.511 Z0.000
G1 X14.718 Y9.603 Z0.000
G1 X14.744 Y9.705 Z0.000
G1 X14.770 Y9.757 Z0.000
G1 X14.804 Y9.802 Z0.000
G1 X14.845 Y9.837 Z0.000
G1 X14.892 Y9.862 Z0.000
G1 X14.944 Y9.876 Z0.000
G1 X15.002 Y9.878 Z0.000
G1 X15.056 Y9.868 Z0.000
G1 X15.105 Y9.846 Z0.000
G1 X15.148 Y9.814 Z0.000
G1 X15.185 Y9.773 Z0.000
G1 X15.213 Y9.724 Z0.000
G1 X15.240 Y9.647 Z0.000
G1 X15.247 Y9.510 Z0.000
G1 X15.221 Y9.408 Z0.000
G1 X15.195 Y9.356 Z0.000
G1 X15.161 Y9.312 Z0.000
G1 X15.120 Y9.277 Z0.000
G1 X15.073 Y9.252 Z0.000
G1 X15.021 Y9.238 Z0.000
G1 X14.982 Y9.236 Z0.000
G1 X15.011 Y9.296 Z0.000
G1 X15.084 Y9.327 Z0.000
G1 X15.139 Y9.390 Z0.000
G1 X15.171 Y9.480 Z0.000
G1 X15.177 Y9.591 Z0.000
G1 X15.153 Y9.689 Z0.000
G1 X15.105 Y9.762 Z0.000
G1 X15.037 Y9.804 Z0.000
G1 X14.954 Y9.811 Z0.000
G1 X14.881 Y9.780 Z0.000
G1 X14.826 Y9.716 Z0.000
G1 X14.794 Y9.626 Z0.000
G1 X14.788 Y9.515 Z0.000
G1 X14.812 Y9.418 Z0.000
G1 X14.860 Y9.345 Z0.000
G1 X14.928 Y9.302 Z0.000
G1 X14.982 Y9.296 Z0.000
G0 X14.982 Y9.296 Z4.000

(shape postamble)


(shape preamble)

G0 X15.670 Y9.296 Z4.000
G1 X15.670 Y9.296 Z0.000
G1 X15.616 Y9.302 Z0.000
G1 X15.548 Y9.345 Z0.000
G1 X15.500 Y9.418 Z0.000
G1 X15.476 Y9.515 Z0.000
G1 X15.481 Y9.626 Z0.000
G1 X15.514 Y9.716 Z0.000
G1 X15.569 Y9.780 Z0.000
G1 X15.642 Y9.811 Z0.000
G1 X15.725 Y9.804 Z0.000
G1 X15.793 Y9.762 Z0.000
G1 X15.841 Y9.689 Z0.000
G1 X15.864 Y9.591 Z0.000
G1 X15.859 Y9.480 Z0.000
G1 X15.827 Y9.390 Z0.000
G1 X15.772 Y9.327 Z0.000
G1 X15.699 Y9.296 Z0.000
G1 X15.670 Y9.236 Z0.000
G1 X15.708 Y9.238 Z0.000
G1 X15.761 Y9.252 Z0.000
G1 X15.808 Y9.277 Z0.000
G1 X15.849 Y9.312 Z0.000
G1 X15.883 Y9.356 Z0.000
G1 X15.909 Y9.408 Z0.000
G1 X15.935 Y9.510 Z0.000
G1 X15.928 Y9.647 Z0.000
G1 X15.901 Y9.724 Z0.000
G1 X15.873 Y9.773 Z0.000
G1 X15.836 Y9.814 Z0.000
G1 X15.793 Y9.846 Z0.000
G1 X15.744 Y9.868 Z0.000
G1 X15.690 Y9.878 Z0.000
G1 X15.632 Y9.876 Z0.000
G1 X15.580 Y9.862 Z0.000
G1 X15.532 Y9.837 Z0.000
G1 X15.492 Y9.802 Z0.000
G1 X15.458 Y9.757 Z0.000
G1 X15.432 Y9.705 Z0.000
G1 X15.406 Y9.603 Z0.000
G1 X15.408 Y9.511 Z0.000
G1 X15.419 Y9.447 Z0.000
G1 X15.440 Y9.390 Z0.000
G1 X15.469 Y9.340 Z0.000
G1 X15.506 Y9.299 Z0.000
G1 X15.549 Y9.267 Z0.000
G1 X15.598 Y9.246 Z0.000
G1 X15.651 Y9.236 Z0.000
G1 X15.670 Y9.236 Z0.000
G0 X15.670 Y9.236 Z4.000

(shape postamble)


(shape preamble)

G0 X16.404 Y9.246 Z4.000
G1 X16.404 Y9.246 Z0.000
G1 X16.316 Y9.246 Z0.000
G1 X16.111 Y9.864 Z0.000
G1 X16.178 Y9.864 Z0.000
G1 X16.355 Y9.320 Z0.000
G1 X16.358 Y9.320 Z0.000
G1 X16.538 Y9.864 Z0.000
G1 X16.609 Y9.864 Z0.000
G1 X16.397 Y9.246 Z0.000
G1 X16.404 Y9.246 Z0.000
G0 X16.404 Y9.246 Z4.000

(shape postamble)


(shape preamble)

G0 X16.397 Y10.619 Z4.000
G1 X16.397 Y10.619 Z0.000
G1 X16.327 Y10.619 Z0.000
G1 X16.327 Y11.352 Z0.000
G1 X16.076 Y11.352 Z0.000
G1 X16.076 Y11.416 Z0.000
G1 X16.648 Y11.416 Z0.000
G1 X16.648 Y11.352 Z0.000
G1 X16.397 Y11.352 Z0.000
G1 X16.397 Y10.619 Z0.000
G1 X16.397 Y10.619 Z0.000
G0 X16.397 Y10.619 Z4.000

(shape postamble)


(shape preamble)

G0 X15.850 Y10.918 Z4.000
G1 X15.850 Y10.918 Z0.000
G1 X15.416 Y10.918 Z0.000
G1 X15.416 Y10.991 Z0.000
G1 X15.446 Y11.103 Z0.000
G1 X15.497 Y11.174 Z0.000
G1 X15.535 Y11.206 Z0.000
G1 X15.579 Y11.229 Z0.000
G1 X15.628 Y11.241 Z0.000
G1 X15.681 Y11.243 Z0.000
G1 X15.733 Y11.233 Z0.000
G1 X15.779 Y11.212 Z0.000
G1 X15.821 Y11.181 Z0.000
G1 X15.867 Y11.127 Z0.000
G1 X15.911 Y11.017 Z0.000
G1 X15.917 Y10.906 Z0.000
G1 X15.909 Y10.841 Z0.000
G1 X15.891 Y10.781 Z0.000
G1 X15.864 Y10.729 Z0.000
G1 X15.830 Y10.683 Z0.000
G1 X15.788 Y10.647 Z0.000
G1 X15.740 Y10.621 Z0.000
G1 X15.687 Y10.607 Z0.000
G1 X15.622 Y10.605 Z0.000
G1 X15.548 Y10.623 Z0.000
G1 X15.487 Y10.662 Z0.000
G1 X15.443 Y10.718 Z0.000
G1 X15.427 Y10.763 Z0.000
G1 X15.496 Y10.748 Z0.000
G1 X15.523 Y10.710 Z0.000
G1 X15.561 Y10.683 Z0.000
G1 X15.608 Y10.667 Z0.000
G1 X15.672 Y10.664 Z0.000
G1 X15.749 Y10.695 Z0.000
G1 X15.806 Y10.756 Z0.000
G1 X15.840 Y10.844 Z0.000
G1 X15.847 Y10.915 Z0.000
G1 X15.850 Y10.918 Z0.000
G1 X15.639 Y11.183 Z0.000
G1 X15.574 Y11.158 Z0.000
G1 X15.524 Y11.107 Z0.000
G1 X15.493 Y11.034 Z0.000
G1 X15.487 Y10.975 Z0.000
G1 X15.847 Y11.007 Z0.000
G1 X15.819 Y11.086 Z0.000
G1 X15.772 Y11.145 Z0.000
G1 X15.711 Y11.178 Z0.000
G1 X15.663 Y11.183 Z0.000
G0 X15.663 Y11.183 Z4.000

(shape postamble)


(shape preamble)

G0 X14.831 Y10.926 Z4.000
G1 X14.831 Y10.926 Z0.000
G1 X14.831 Y10.926 Z0.000
G1 X14.835 Y11.000 Z0.000
G1 X14.864 Y11.090 Z0.000
G1 X14.915 Y11.153 Z0.000
G1 X14.986 Y11.183 Z0.000
G1 X15.069 Y11.176 Z0.000
G1 X15.136 Y11.133 Z0.000
G1 X15.184 Y11.059 Z0.000
G1 X15.208 Y10.963 Z0.000
G1 X15.203 Y10.854 Z0.000
G1 X15.170 Y10.764 Z0.000
G1 X15.114 Y10.700 Z0.000
G1 X15.042 Y10.668 Z0.000
G1 X14.962 Y10.674 Z0.000
G1 X14.898 Y10.716 Z0.000
G1 X14.853 Y10.788 Z0.000
G1 X14.831 Y10.887 Z0.000
G1 X14.834 Y10.735 Z0.000
G1 X14.834 Y10.732 Z0.000
G1 X14.857 Y10.693 Z0.000
G1 X14.899 Y10.648 Z0.000
G1 X14.949 Y10.619 Z0.000
G1 X15.007 Y10.605 Z0.000
G1 X15.064 Y10.607 Z0.000
G1 X15.113 Y10.621 Z0.000
G1 X15.158 Y10.646 Z0.000
G1 X15.197 Y10.681 Z0.000
G1 X15.248 Y10.758 Z0.000
G1 X15.279 Y10.879 Z0.000
G1 X15.272 Y11.016 Z0.000
G1 X15.230 Y11.128 Z0.000
G1 X15.184 Y11.183 Z0.000
G1 X15.144 Y11.215 Z0.000
G1 X15.097 Y11.236 Z0.000
G1 X15.046 Y11.247 Z0.000
G1 X14.986 Y11.243 Z0.000
G1 X14.929 Y11.223 Z0.000
G1 X14.882 Y11.186 Z0.000
G1 X14.844 Y11.134 Z0.000
G1 X14.827 Y11.113 Z0.000
G1 X14.827 Y11.236 Z0.000
G1 X14.764 Y11.236 Z0.000
G1 X14.764 Y10.823 Z0.000
G1 X14.760 Y10.689 Z0.000
G1 X14.820 Y10.619 Z0.000
G1 X14.831 Y10.696 Z0.000
G1 X14.834 Y10.735 Z0.000
G0 X14.834 Y10.735 Z4.000

(shape postamble)


(shape preamble)

G0 X14.139 Y10.767 Z4.000
G1 X14.139 Y10.767 Z0.000
G1 X14.144 Y10.752 Z0.000
G1 X14.170 Y10.713 Z0.000
G1 X14.209 Y10.684 Z0.000
G1 X14.258 Y10.667 Z0.000
G1 X14.325 Y10.664 Z0.000
G1 X14.404 Y10.696 Z0.000
G1 X14.461 Y10.760 Z0.000
G1 X14.494 Y10.851 Z0.000
G1 X14.499 Y10.964 Z0.000
G1 X14.475 Y11.064 Z0.000
G1 X14.425 Y11.137 Z0.000
G1 X14.354 Y11.180 Z0.000
G1 X14.276 Y11.187 Z0.000
G1 X14.226 Y11.175 Z0.000
G1 X14.184 Y11.150 Z0.000
G1 X14.154 Y11.114 Z0.000
G1 X14.143 Y11.084 Z0.000
G1 X14.084 Y11.108 Z0.000
G1 X14.118 Y11.169 Z0.000
G1 X14.172 Y11.213 Z0.000
G1 X14.241 Y11.239 Z0.000
G1 X14.314 Y11.243 Z0.000
G1 X14.370 Y11.233 Z0.000
G1 X14.420 Y11.211 Z0.000
G1 X14.465 Y11.180 Z0.000
G1 X14.502 Y11.138 Z0.000
G1 X14.532 Y11.089 Z0.000
G1 X14.553 Y11.032 Z0.000
G1 X14.564 Y10.968 Z0.000
G1 X14.566 Y10.899 Z0.000
G1 X14.557 Y10.833 Z0.000
G1 X14.539 Y10.774 Z0.000
G1 X14.511 Y10.721 Z0.000
G1 X14.476 Y10.677 Z0.000
G1 X14.433 Y10.642 Z0.000
G1 X14.384 Y10.617 Z0.000
G1 X14.330 Y10.603 Z0.000
G1 X14.264 Y10.601 Z0.000
G1 X14.188 Y10.620 Z0.000
G1 X14.126 Y10.659 Z0.000
G1 X14.082 Y10.714 Z0.000
G1 X14.069 Y10.760 Z0.000
G1 X14.132 Y10.760 Z0.000
G1 X14.139 Y10.767 Z0.000
G0 X14.139 Y10.767 Z4.000

(shape postamble)


(shape preamble)

G0 X13.864 Y10.619 Z4.000
G1 X13.864 Y10.619 Z0.000
G1 X13.797 Y10.619 Z0.000
G1 X13.797 Y11.002 Z0.000
G1 X13.776 Y11.083 Z0.000
G1 X13.735 Y11.144 Z0.000
G1 X13.675 Y11.181 Z0.000
G1 X13.608 Y11.187 Z0.000
G1 X13.556 Y11.168 Z0.000
G1 X13.519 Y11.129 Z0.000
G1 X13.497 Y11.073 Z0.000
G1 X13.494 Y11.028 Z0.000
G1 X13.494 Y10.619 Z0.000
G1 X13.427 Y10.619 Z0.000
G1 X13.427 Y11.067 Z0.000
G1 X13.450 Y11.147 Z0.000
G1 X13.496 Y11.207 Z0.000
G1 X13.563 Y11.241 Z0.000
G1 X13.637 Y11.247 Z0.000
G1 X13.690 Y11.234 Z0.000
G1 X13.736 Y11.208 Z0.000
G1 X13.774 Y11.169 Z0.000
G1 X13.794 Y11.137 Z0.000
G1 X13.797 Y11.137 Z0.000
G1 X13.797 Y11.462 Z0.000
G1 X13.864 Y11.462 Z0.000
G1 X13.864 Y10.619 Z0.000
G0 X13.864 Y10.619 Z4.000

(shape postamble)


(shape preamble)

G0 X13.148 Y10.918 Z4.000
G1 X13.148 Y10.918 Z0.000
G1 X12.714 Y10.918 Z0.000
G1 X12.714 Y10.991 Z0.000
G1 X12.744 Y11.103 Z0.000
G1 X12.794 Y11.174 Z0.000
G1 X12.832 Y11.206 Z0.000
G1 X12.876 Y11.229 Z0.000
G1 X12.926 Y11.241 Z0.000
G1 X12.979 Y11.243 Z0.000
G1 X13.030 Y11.233 Z0.000
G1 X13.077 Y11.212 Z0.000
G1 X13.118 Y11.181 Z0.000
G1 X13.165 Y11.127 Z0.000
G1 X13.208 Y11.017 Z0.000
G1 X13.215 Y10.906 Z0.000
G1 X13.207 Y10.841 Z0.000
G1 X13.188 Y10.781 Z0.000
G1 X13.162 Y10.729 Z0.000
G1 X13.127 Y10.683 Z0.000
G1 X13.086 Y10.647 Z0.000
G1 X13.038 Y10.621 Z0.000
G1 X12.985 Y10.607 Z0.000
G1 X12.920 Y10.605 Z0.000
G1 X12.846 Y10.623 Z0.000
G1 X12.785 Y10.662 Z0.000
G1 X12.741 Y10.718 Z0.000
G1 X12.725 Y10.763 Z0.000
G1 X12.793 Y10.748 Z0.000
G1 X12.821 Y10.710 Z0.000
G1 X12.859 Y10.683 Z0.000
G1 X12.905 Y10.667 Z0.000
G1 X12.970 Y10.664 Z0.000
G1 X13.047 Y10.695 Z0.000
G1 X13.104 Y10.756 Z0.000
G1 X13.138 Y10.844 Z0.000
G1 X13.145 Y10.915 Z0.000
G1 X13.148 Y10.918 Z0.000
G1 X12.933 Y11.183 Z0.000
G1 X12.868 Y11.158 Z0.000
G1 X12.818 Y11.107 Z0.000
G1 X12.787 Y11.034 Z0.000
G1 X12.781 Y10.975 Z0.000
G1 X13.141 Y11.007 Z0.000
G1 X13.113 Y11.086 Z0.000
G1 X13.066 Y11.145 Z0.000
G1 X13.005 Y11.178 Z0.000
G1 X12.958 Y11.183 Z0.000
G0 X12.958 Y11.183 Z4.000

(shape postamble)


(shape preamble)

G0 X12.400 Y10.619 Z4.000
G1 X12.400 Y10.619 Z0.000
G1 X12.400 Y11.002 Z0.000
G1 X12.380 Y11.081 Z0.000
G1 X12.340 Y11.140 Z0.000
G1 X12.282 Y11.174 Z0.000
G1 X12.218 Y11.180 Z0.000
G1 X12.177 Y11.169 Z0.000
G1 X12.144 Y11.146 Z0.000
G1 X12.122 Y11.113 Z0.000
G1 X12.114 Y11.084 Z0.000
G1 X12.050 Y11.108 Z0.000
G1 X12.076 Y11.168 Z0.000
G1 X12.119 Y11.211 Z0.000
G1 X12.178 Y11.236 Z0.000
G1 X12.244 Y11.240 Z0.000
G1 X12.299 Y11.226 Z0.000
G1 X12.346 Y11.198 Z0.000
G1 X12.384 Y11.157 Z0.000
G1 X12.404 Y11.123 Z0.000
G1 X12.407 Y11.123 Z0.000
G1 X12.407 Y11.232 Z0.000
G1 X12.471 Y11.232 Z0.000
G1 X12.471 Y10.615 Z0.000
G1 X12.404 Y10.615 Z0.000
G1 X12.400 Y10.619 Z0.000
G0 X12.400 Y10.619 Z4.000

(shape postamble)


(shape preamble)

G0 X7.800 Y10.047 Z4.000
G1 X7.800 Y10.047 Z0.000
G1 X7.870 Y10.047 Z0.000
G1 X7.870 Y9.250 Z0.000
G1 X7.800 Y9.250 Z0.000
G1 X7.800 Y9.511 Z0.000
G1 X7.666 Y9.659 Z0.000
G1 X7.373 Y9.250 Z0.000
G1 X7.288 Y9.250 Z0.000
G1 X7.616 Y9.708 Z0.000
G1 X7.306 Y10.047 Z0.000
G1 X7.394 Y10.047 Z0.000
G1 X7.800 Y9.606 Z0.000
G1 X7.800 Y10.047 Z0.000
G1 X7.800 Y10.047 Z0.000
G0 X7.800 Y10.047 Z4.000

(shape postamble)


(shape preamble)

G0 X6.703 Y9.451 Z4.000
G1 X6.703 Y9.451 Z0.000
G1 X6.703 Y9.864 Z0.000
G1 X6.770 Y9.864 Z0.000
G1 X6.770 Y9.479 Z0.000
G1 X6.791 Y9.398 Z0.000
G1 X6.832 Y9.337 Z0.000
G1 X6.892 Y9.301 Z0.000
G1 X6.959 Y9.296 Z0.000
G1 X7.011 Y9.314 Z0.000
G1 X7.048 Y9.352 Z0.000
G1 X7.070 Y9.407 Z0.000
G1 X7.073 Y9.454 Z0.000
G1 X7.073 Y9.867 Z0.000
G1 X7.140 Y9.867 Z0.000
G1 X7.140 Y9.419 Z0.000
G1 X7.117 Y9.338 Z0.000
G1 X7.071 Y9.279 Z0.000
G1 X7.004 Y9.245 Z0.000
G1 X6.929 Y9.239 Z0.000
G1 X6.875 Y9.251 Z0.000
G1 X6.830 Y9.277 Z0.000
G1 X6.793 Y9.315 Z0.000
G1 X6.773 Y9.349 Z0.000
G1 X6.770 Y9.317 Z0.000
G1 X6.763 Y9.250 Z0.000
G1 X6.703 Y9.320 Z0.000
G1 X6.706 Y9.454 Z0.000
G1 X6.703 Y9.451 Z0.000
G0 X6.703 Y9.451 Z4.000

(shape postamble)


(shape preamble)

G0 X6.463 Y9.246 Z4.000
G1 X6.463 Y9.246 Z0.000
G1 X6.396 Y9.246 Z0.000
G1 X6.396 Y9.631 Z0.000
G1 X6.375 Y9.712 Z0.000
G1 X6.333 Y9.773 Z0.000
G1 X6.274 Y9.809 Z0.000
G1 X6.206 Y9.814 Z0.000
G1 X6.155 Y9.796 Z0.000
G1 X6.117 Y9.758 Z0.000
G1 X6.096 Y9.702 Z0.000
G1 X6.092 Y9.656 Z0.000
G1 X6.092 Y9.246 Z0.000
G1 X6.025 Y9.246 Z0.000
G1 X6.025 Y9.694 Z0.000
G1 X6.048 Y9.775 Z0.000
G1 X6.095 Y9.835 Z0.000
G1 X6.162 Y9.869 Z0.000
G1 X6.236 Y9.874 Z0.000
G1 X6.291 Y9.861 Z0.000
G1 X6.338 Y9.835 Z0.000
G1 X6.376 Y9.795 Z0.000
G1 X6.396 Y9.761 Z0.000
G1 X6.396 Y9.864 Z0.000
G1 X6.459 Y9.864 Z0.000
G1 X6.459 Y9.246 Z0.000
G1 X6.463 Y9.246 Z0.000
G0 X6.463 Y9.246 Z4.000

(shape postamble)


(shape preamble)

G0 X5.789 Y9.394 Z4.000
G1 X5.789 Y9.394 Z0.000
G1 X5.787 Y9.371 Z0.000
G1 X5.755 Y9.308 Z0.000
G1 X5.698 Y9.261 Z0.000
G1 X5.620 Y9.233 Z0.000
G1 X5.529 Y9.229 Z0.000
G1 X5.447 Y9.252 Z0.000
G1 X5.384 Y9.298 Z0.000
G1 X5.347 Y9.365 Z0.000
G1 X5.341 Y9.442 Z0.000
G1 X5.360 Y9.499 Z0.000
G1 X5.404 Y9.542 Z0.000
G1 X5.475 Y9.572 Z0.000
G1 X5.539 Y9.585 Z0.000
G1 X5.586 Y9.590 Z0.000
G1 X5.640 Y9.609 Z0.000
G1 X5.676 Y9.634 Z0.000
G1 X5.695 Y9.666 Z0.000
G1 X5.697 Y9.712 Z0.000
G1 X5.681 Y9.757 Z0.000
G1 X5.647 Y9.789 Z0.000
G1 X5.599 Y9.808 Z0.000
G1 X5.541 Y9.811 Z0.000
G1 X5.490 Y9.798 Z0.000
G1 X5.449 Y9.774 Z0.000
G1 X5.420 Y9.739 Z0.000
G1 X5.412 Y9.712 Z0.000
G1 X5.350 Y9.735 Z0.000
G1 X5.381 Y9.795 Z0.000
G1 X5.435 Y9.840 Z0.000
G1 X5.508 Y9.867 Z0.000
G1 X5.592 Y9.871 Z0.000
G1 X5.666 Y9.849 Z0.000
G1 X5.724 Y9.804 Z0.000
G1 X5.759 Y9.740 Z0.000
G1 X5.764 Y9.664 Z0.000
G1 X5.745 Y9.608 Z0.000
G1 X5.702 Y9.566 Z0.000
G1 X5.633 Y9.535 Z0.000
G1 X5.570 Y9.521 Z0.000
G1 X5.521 Y9.516 Z0.000
G1 X5.466 Y9.497 Z0.000
G1 X5.431 Y9.471 Z0.000
G1 X5.414 Y9.439 Z0.000
G1 X5.412 Y9.394 Z0.000
G1 X5.429 Y9.347 Z0.000
G1 X5.466 Y9.312 Z0.000
G1 X5.519 Y9.292 Z0.000
G1 X5.584 Y9.289 Z0.000
G1 X5.642 Y9.302 Z0.000
G1 X5.688 Y9.328 Z0.000
G1 X5.718 Y9.363 Z0.000
G1 X5.726 Y9.391 Z0.000
G1 X5.793 Y9.391 Z0.000
G1 X5.789 Y9.394 Z0.000
G0 X5.789 Y9.394 Z4.000

(shape postamble)


(shape preamble)

G0 X4.900 Y9.444 Z4.000
G1 X4.900 Y9.444 Z0.000
G1 X4.900 Y9.804 Z0.000
G1 X4.678 Y9.804 Z0.000
G1 X4.678 Y9.864 Z0.000
G1 X4.900 Y9.864 Z0.000
G1 X4.900 Y10.058 Z0.000
G1 X4.967 Y10.047 Z0.000
G1 X4.967 Y9.864 Z0.000
G1 X5.151 Y9.864 Z0.000
G1 X5.151 Y9.804 Z0.000
G1 X4.967 Y9.804 Z0.000
G1 X4.967 Y9.409 Z0.000
G1 X4.947 Y9.327 Z0.000
G1 X4.904 Y9.271 Z0.000
G1 X4.838 Y9.240 Z0.000
G1 X4.757 Y9.236 Z0.000
G1 X4.698 Y9.248 Z0.000
G1 X4.667 Y9.264 Z0.000
G1 X4.685 Y9.312 Z0.000
G1 X4.738 Y9.295 Z0.000
G1 X4.794 Y9.292 Z0.000
G1 X4.845 Y9.308 Z0.000
G1 X4.879 Y9.342 Z0.000
G1 X4.897 Y9.396 Z0.000
G1 X4.900 Y9.444 Z0.000
G0 X4.900 Y9.444 Z4.000

(shape postamble)


(shape preamble)

G0 X8.322 Y4.473 Z4.000
G1 X8.322 Y4.473 Z0.000
G1 X33.179 Y4.473 Z0.000
G1 X33.179 Y4.784 Z0.000
G1 X8.322 Y4.784 Z0.000
G1 X8.322 Y4.473 Z0.000
G1 X20.595 Y17.057 Z0.000
G0 X20.595 Y17.057 Z4.000

(shape postamble)


(shape preamble)

G0 X20.595 Y14.309 Z4.000
G1 X20.595 Y14.309 Z0.000
G1 X8.322 Y1.725 Z0.000
G1 X8.322 Y2.036 Z0.000
G1 X33.179 Y2.036 Z0.000
G1 X33.179 Y1.725 Z0.000
G1 X8.322 Y1.725 Z0.000
G0 X8.322 Y1.725 Z4.000

(shape postamble)


(shape preamble)

G0 X8.322 Y-2.265 Z4.000
G1 X8.322 Y-2.265 Z0.000
G1 X33.179 Y-2.265 Z0.000
G1 X33.179 Y-1.954 Z0.000
G1 X8.322 Y-1.954 Z0.000
G1 X8.322 Y-2.265 Z0.000
G1 X20.595 Y10.319 Z0.000
G0 X20.595 Y10.319 Z4.000

(shape postamble)


(shape preamble)

G0 X20.563 Y9.694 Z4.000
G1 X20.563 Y9.694 Z0.000
G1 X20.563 Y9.694 Z0.000
G1 X20.359 Y9.694 Z0.000
G1 X20.321 Y9.698 Z0.000
G1 X20.275 Y9.723 Z0.000
G1 X20.241 Y9.766 Z0.000
G1 X20.225 Y9.821 Z0.000
G1 X20.228 Y9.883 Z0.000
G1 X20.250 Y9.932 Z0.000
G1 X20.287 Y9.967 Z0.000
G1 X20.339 Y9.984 Z0.000
G1 X20.563 Y9.984 Z0.000
G1 X20.563 Y9.694 Z0.000
G1 X20.563 Y9.310 Z0.000
G1 X20.345 Y9.310 Z0.000
G1 X20.304 Y9.314 Z0.000
G1 X20.253 Y9.340 Z0.000
G1 X20.218 Y9.384 Z0.000
G1 X20.200 Y9.445 Z0.000
G1 X20.204 Y9.514 Z0.000
G1 X20.227 Y9.570 Z0.000
G1 X20.267 Y9.608 Z0.000
G1 X20.323 Y9.627 Z0.000
G1 X20.563 Y9.627 Z0.000
G1 X20.563 Y9.310 Z0.000
G1 X20.634 Y9.246 Z0.000
G1 X20.638 Y9.250 Z0.000
G1 X20.638 Y10.047 Z0.000
G1 X20.369 Y10.047 Z0.000
G1 X20.308 Y10.042 Z0.000
G1 X20.233 Y10.008 Z0.000
G1 X20.180 Y9.951 Z0.000
G1 X20.154 Y9.875 Z0.000
G1 X20.157 Y9.805 Z0.000
G1 X20.176 Y9.751 Z0.000
G1 X20.208 Y9.706 Z0.000
G1 X20.253 Y9.671 Z0.000
G1 X20.271 Y9.663 Z0.000
G1 X20.229 Y9.646 Z0.000
G1 X20.178 Y9.606 Z0.000
G1 X20.143 Y9.552 Z0.000
G1 X20.126 Y9.486 Z0.000
G1 X20.132 Y9.402 Z0.000
G1 X20.169 Y9.327 Z0.000
G1 X20.231 Y9.273 Z0.000
G1 X20.316 Y9.246 Z0.000
G1 X20.634 Y9.246 Z0.000
G0 X20.634 Y9.246 Z4.000

(shape postamble)


(shape preamble)

G0 X19.523 Y9.363 Z4.000
G1 X19.523 Y9.363 Z0.000
G1 X19.519 Y9.324 Z0.000
G1 X19.509 Y9.246 Z0.000
G1 X19.449 Y9.317 Z0.000
G1 X19.452 Y9.451 Z0.000
G1 X19.452 Y9.864 Z0.000
G1 X19.516 Y9.864 Z0.000
G1 X19.516 Y9.740 Z0.000
G1 X19.532 Y9.761 Z0.000
G1 X19.570 Y9.813 Z0.000
G1 X19.618 Y9.850 Z0.000
G1 X19.674 Y9.871 Z0.000
G1 X19.735 Y9.874 Z0.000
G1 X19.786 Y9.864 Z0.000
G1 X19.832 Y9.843 Z0.000
G1 X19.873 Y9.811 Z0.000
G1 X19.919 Y9.755 Z0.000
G1 X19.961 Y9.643 Z0.000
G1 X19.967 Y9.506 Z0.000
G1 X19.936 Y9.385 Z0.000
G1 X19.885 Y9.308 Z0.000
G1 X19.846 Y9.273 Z0.000
G1 X19.802 Y9.248 Z0.000
G1 X19.752 Y9.234 Z0.000
G1 X19.696 Y9.232 Z0.000
G1 X19.638 Y9.246 Z0.000
G1 X19.588 Y9.276 Z0.000
G1 X19.545 Y9.321 Z0.000
G1 X19.523 Y9.359 Z0.000
G1 X19.523 Y9.363 Z0.000
G1 X19.516 Y9.514 Z0.000
G1 X19.538 Y9.416 Z0.000
G1 X19.582 Y9.344 Z0.000
G1 X19.647 Y9.302 Z0.000
G1 X19.726 Y9.296 Z0.000
G1 X19.799 Y9.328 Z0.000
G1 X19.855 Y9.392 Z0.000
G1 X19.888 Y9.482 Z0.000
G1 X19.893 Y9.590 Z0.000
G1 X19.869 Y9.687 Z0.000
G1 X19.821 Y9.760 Z0.000
G1 X19.754 Y9.804 Z0.000
G1 X19.671 Y9.811 Z0.000
G1 X19.600 Y9.780 Z0.000
G1 X19.549 Y9.718 Z0.000
G1 X19.520 Y9.628 Z0.000
G1 X19.516 Y9.553 Z0.000
G0 X19.516 Y9.553 Z4.000

(shape postamble)


(shape preamble)

G0 X19.244 Y9.394 Z4.000
G1 X19.244 Y9.394 Z0.000
G1 X19.242 Y9.371 Z0.000
G1 X19.210 Y9.308 Z0.000
G1 X19.153 Y9.261 Z0.000
G1 X19.075 Y9.233 Z0.000
G1 X18.984 Y9.229 Z0.000
G1 X18.902 Y9.252 Z0.000
G1 X18.839 Y9.298 Z0.000
G1 X18.802 Y9.365 Z0.000
G1 X18.796 Y9.442 Z0.000
G1 X18.815 Y9.499 Z0.000
G1 X18.859 Y9.542 Z0.000
G1 X18.930 Y9.572 Z0.000
G1 X18.994 Y9.585 Z0.000
G1 X19.041 Y9.590 Z0.000
G1 X19.095 Y9.609 Z0.000
G1 X19.131 Y9.634 Z0.000
G1 X19.150 Y9.666 Z0.000
G1 X19.152 Y9.712 Z0.000
G1 X19.136 Y9.757 Z0.000
G1 X19.102 Y9.789 Z0.000
G1 X19.054 Y9.808 Z0.000
G1 X18.996 Y9.811 Z0.000
G1 X18.945 Y9.798 Z0.000
G1 X18.904 Y9.774 Z0.000
G1 X18.875 Y9.739 Z0.000
G1 X18.867 Y9.712 Z0.000
G1 X18.805 Y9.735 Z0.000
G1 X18.835 Y9.795 Z0.000
G1 X18.890 Y9.840 Z0.000
G1 X18.963 Y9.867 Z0.000
G1 X19.046 Y9.871 Z0.000
G1 X19.121 Y9.849 Z0.000
G1 X19.179 Y9.804 Z0.000
G1 X19.214 Y9.740 Z0.000
G1 X19.219 Y9.664 Z0.000
G1 X19.200 Y9.608 Z0.000
G1 X19.157 Y9.566 Z0.000
G1 X19.088 Y9.535 Z0.000
G1 X19.025 Y9.521 Z0.000
G1 X18.976 Y9.516 Z0.000
G1 X18.921 Y9.497 Z0.000
G1 X18.886 Y9.471 Z0.000
G1 X18.869 Y9.439 Z0.000
G1 X18.867 Y9.394 Z0.000
G1 X18.884 Y9.347 Z0.000
G1 X18.921 Y9.312 Z0.000
G1 X18.974 Y9.292 Z0.000
G1 X19.039 Y9.289 Z0.000
G1 X19.097 Y9.302 Z0.000
G1 X19.143 Y9.328 Z0.000
G1 X19.173 Y9.363 Z0.000
G1 X19.181 Y9.391 Z0.000
G1 X19.248 Y9.391 Z0.000
G1 X19.244 Y9.394 Z0.000
G0 X19.244 Y9.394 Z4.000

(shape postamble)


(shape preamble)

G0 X18.380 Y10.019 Z4.000
G1 X18.380 Y10.019 Z0.000
G1 X18.260 Y10.019 Z0.000
G1 X18.260 Y10.139 Z0.000
G1 X18.380 Y10.139 Z0.000
G1 X18.380 Y10.019 Z0.000
G1 X18.274 Y9.864 Z0.000
G1 X18.560 Y9.864 Z0.000
G1 X18.560 Y9.804 Z0.000
G1 X18.344 Y9.804 Z0.000
G1 X18.344 Y9.246 Z0.000
G1 X18.277 Y9.246 Z0.000
G1 X18.277 Y9.864 Z0.000
G1 X18.274 Y9.864 Z0.000
G0 X18.274 Y9.864 Z4.000

(shape postamble)


(shape preamble)

G0 X17.911 Y9.394 Z4.000
G1 X17.911 Y9.394 Z0.000
G1 X17.909 Y9.371 Z0.000
G1 X17.877 Y9.308 Z0.000
G1 X17.819 Y9.261 Z0.000
G1 X17.741 Y9.233 Z0.000
G1 X17.649 Y9.229 Z0.000
G1 X17.565 Y9.252 Z0.000
G1 X17.504 Y9.298 Z0.000
G1 X17.468 Y9.365 Z0.000
G1 X17.463 Y9.442 Z0.000
G1 X17.482 Y9.499 Z0.000
G1 X17.526 Y9.542 Z0.000
G1 X17.596 Y9.572 Z0.000
G1 X17.660 Y9.585 Z0.000
G1 X17.709 Y9.590 Z0.000
G1 X17.763 Y9.609 Z0.000
G1 X17.798 Y9.634 Z0.000
G1 X17.816 Y9.666 Z0.000
G1 X17.819 Y9.712 Z0.000
G1 X17.802 Y9.757 Z0.000
G1 X17.768 Y9.789 Z0.000
G1 X17.720 Y9.808 Z0.000
G1 X17.663 Y9.811 Z0.000
G1 X17.612 Y9.798 Z0.000
G1 X17.570 Y9.774 Z0.000
G1 X17.542 Y9.739 Z0.000
G1 X17.533 Y9.712 Z0.000
G1 X17.471 Y9.735 Z0.000
G1 X17.502 Y9.795 Z0.000
G1 X17.557 Y9.840 Z0.000
G1 X17.629 Y9.867 Z0.000
G1 X17.713 Y9.871 Z0.000
G1 X17.788 Y9.849 Z0.000
G1 X17.846 Y9.804 Z0.000
G1 X17.880 Y9.740 Z0.000
G1 X17.886 Y9.664 Z0.000
G1 X17.867 Y9.608 Z0.000
G1 X17.823 Y9.566 Z0.000
G1 X17.754 Y9.535 Z0.000
G1 X17.692 Y9.521 Z0.000
G1 X17.642 Y9.516 Z0.000
G1 X17.587 Y9.497 Z0.000
G1 X17.552 Y9.471 Z0.000
G1 X17.535 Y9.439 Z0.000
G1 X17.533 Y9.394 Z0.000
G1 X17.551 Y9.347 Z0.000
G1 X17.588 Y9.312 Z0.000
G1 X17.641 Y9.292 Z0.000
G1 X17.706 Y9.289 Z0.000
G1 X17.763 Y9.302 Z0.000
G1 X17.810 Y9.328 Z0.000
G1 X17.840 Y9.363 Z0.000
G1 X17.847 Y9.391 Z0.000
G1 X17.914 Y9.391 Z0.000
G1 X17.911 Y9.394 Z0.000
G0 X17.911 Y9.394 Z4.000

(shape postamble)


(shape preamble)

G0 X17.681 Y10.816 Z4.000
G1 X17.681 Y10.816 Z0.000
G1 X17.681 Y11.176 Z0.000
G1 X17.459 Y11.176 Z0.000
G1 X17.459 Y11.236 Z0.000
G1 X17.681 Y11.236 Z0.000
G1 X17.681 Y11.430 Z0.000
G1 X17.748 Y11.419 Z0.000
G1 X17.748 Y11.236 Z0.000
G1 X17.932 Y11.236 Z0.000
G1 X17.932 Y11.176 Z0.000
G1 X17.748 Y11.176 Z0.000
G1 X17.748 Y10.782 Z0.000
G1 X17.729 Y10.700 Z0.000
G1 X17.685 Y10.643 Z0.000
G1 X17.619 Y10.612 Z0.000
G1 X17.538 Y10.608 Z0.000
G1 X17.479 Y10.620 Z0.000
G1 X17.448 Y10.636 Z0.000
G1 X17.466 Y10.684 Z0.000
G1 X17.519 Y10.667 Z0.000
G1 X17.575 Y10.664 Z0.000
G1 X17.626 Y10.680 Z0.000
G1 X17.660 Y10.715 Z0.000
G1 X17.679 Y10.768 Z0.000
G1 X17.681 Y10.816 Z0.000
G0 X17.681 Y10.816 Z4.000

(shape postamble)


(shape preamble)

G0 X18.570 Y10.767 Z4.000
G1 X18.570 Y10.767 Z0.000
G1 X18.568 Y10.743 Z0.000
G1 X18.537 Y10.681 Z0.000
G1 X18.479 Y10.633 Z0.000
G1 X18.401 Y10.605 Z0.000
G1 X18.310 Y10.601 Z0.000
G1 X18.228 Y10.624 Z0.000
G1 X18.166 Y10.671 Z0.000
G1 X18.128 Y10.737 Z0.000
G1 X18.122 Y10.814 Z0.000
G1 X18.141 Y10.871 Z0.000
G1 X18.185 Y10.915 Z0.000
G1 X18.256 Y10.945 Z0.000
G1 X18.320 Y10.957 Z0.000
G1 X18.367 Y10.963 Z0.000
G1 X18.421 Y10.981 Z0.000
G1 X18.457 Y11.006 Z0.000
G1 X18.476 Y11.039 Z0.000
G1 X18.479 Y11.084 Z0.000
G1 X18.462 Y11.129 Z0.000
G1 X18.428 Y11.161 Z0.000
G1 X18.380 Y11.180 Z0.000
G1 X18.322 Y11.183 Z0.000
G1 X18.271 Y11.171 Z0.000
G1 X18.230 Y11.146 Z0.000
G1 X18.201 Y11.112 Z0.000
G1 X18.193 Y11.084 Z0.000
G1 X18.131 Y11.107 Z0.000
G1 X18.162 Y11.167 Z0.000
G1 X18.217 Y11.212 Z0.000
G1 X18.289 Y11.239 Z0.000
G1 X18.373 Y11.243 Z0.000
G1 X18.448 Y11.221 Z0.000
G1 X18.505 Y11.176 Z0.000
G1 X18.540 Y11.112 Z0.000
G1 X18.546 Y11.037 Z0.000
G1 X18.526 Y10.981 Z0.000
G1 X18.483 Y10.938 Z0.000
G1 X18.414 Y10.908 Z0.000
G1 X18.352 Y10.894 Z0.000
G1 X18.302 Y10.888 Z0.000
G1 X18.247 Y10.869 Z0.000
G1 X18.212 Y10.844 Z0.000
G1 X18.195 Y10.811 Z0.000
G1 X18.193 Y10.766 Z0.000
G1 X18.211 Y10.719 Z0.000
G1 X18.247 Y10.684 Z0.000
G1 X18.301 Y10.664 Z0.000
G1 X18.366 Y10.661 Z0.000
G1 X18.423 Y10.674 Z0.000
G1 X18.469 Y10.700 Z0.000
G1 X18.499 Y10.736 Z0.000
G1 X18.507 Y10.763 Z0.000
G1 X18.574 Y10.763 Z0.000
G1 X18.570 Y10.767 Z0.000
G0 X18.570 Y10.767 Z4.000

(shape postamble)


(shape preamble)

G0 X19.025 Y11.183 Z4.000
G1 X19.025 Y11.183 Z0.000
G1 X19.073 Y11.178 Z0.000
G1 X19.134 Y11.145 Z0.000
G1 X19.181 Y11.086 Z0.000
G1 X19.209 Y11.007 Z0.000
G1 X18.849 Y10.975 Z0.000
G1 X18.855 Y11.034 Z0.000
G1 X18.886 Y11.107 Z0.000
G1 X18.936 Y11.158 Z0.000
G1 X19.001 Y11.183 Z0.000
G1 X19.212 Y10.918 Z0.000
G1 X19.209 Y10.915 Z0.000
G1 X19.202 Y10.844 Z0.000
G1 X19.168 Y10.756 Z0.000
G1 X19.111 Y10.695 Z0.000
G1 X19.034 Y10.664 Z0.000
G1 X18.970 Y10.667 Z0.000
G1 X18.923 Y10.683 Z0.000
G1 X18.885 Y10.710 Z0.000
G1 X18.858 Y10.748 Z0.000
G1 X18.789 Y10.763 Z0.000
G1 X18.805 Y10.718 Z0.000
G1 X18.849 Y10.662 Z0.000
G1 X18.910 Y10.623 Z0.000
G1 X18.984 Y10.605 Z0.000
G1 X19.049 Y10.607 Z0.000
G1 X19.102 Y10.621 Z0.000
G1 X19.150 Y10.647 Z0.000
G1 X19.192 Y10.683 Z0.000
G1 X19.226 Y10.729 Z0.000
G1 X19.253 Y10.781 Z0.000
G1 X19.271 Y10.841 Z0.000
G1 X19.279 Y10.906 Z0.000
G1 X19.272 Y11.017 Z0.000
G1 X19.229 Y11.127 Z0.000
G1 X19.183 Y11.181 Z0.000
G1 X19.141 Y11.212 Z0.000
G1 X19.095 Y11.233 Z0.000
G1 X19.043 Y11.243 Z0.000
G1 X18.990 Y11.241 Z0.000
G1 X18.941 Y11.229 Z0.000
G1 X18.897 Y11.206 Z0.000
G1 X18.859 Y11.174 Z0.000
G1 X18.808 Y11.103 Z0.000
G1 X18.778 Y10.991 Z0.000
G1 X18.778 Y10.918 Z0.000
G1 X19.212 Y10.918 Z0.000
G0 X19.212 Y10.918 Z4.000

(shape postamble)


(shape preamble)

G0 X19.480 Y10.823 Z4.000
G1 X19.480 Y10.823 Z0.000
G1 X19.480 Y11.236 Z0.000
G1 X19.547 Y11.236 Z0.000
G1 X19.547 Y10.851 Z0.000
G1 X19.568 Y10.770 Z0.000
G1 X19.610 Y10.709 Z0.000
G1 X19.669 Y10.674 Z0.000
G1 X19.737 Y10.668 Z0.000
G1 X19.788 Y10.686 Z0.000
G1 X19.826 Y10.724 Z0.000
G1 X19.848 Y10.780 Z0.000
G1 X19.851 Y10.827 Z0.000
G1 X19.851 Y11.240 Z0.000
G1 X19.918 Y11.240 Z0.000
G1 X19.918 Y10.791 Z0.000
G1 X19.895 Y10.711 Z0.000
G1 X19.848 Y10.651 Z0.000
G1 X19.782 Y10.617 Z0.000
G1 X19.707 Y10.612 Z0.000
G1 X19.653 Y10.623 Z0.000
G1 X19.607 Y10.649 Z0.000
G1 X19.570 Y10.688 Z0.000
G1 X19.551 Y10.721 Z0.000
G1 X19.547 Y10.689 Z0.000
G1 X19.540 Y10.622 Z0.000
G1 X19.480 Y10.693 Z0.000
G1 X19.484 Y10.827 Z0.000
G1 X19.480 Y10.823 Z0.000
G0 X19.480 Y10.823 Z4.000

(shape postamble)


(shape preamble)

G0 X20.398 Y10.971 Z4.000
G1 X20.398 Y10.971 Z0.000
G1 X20.197 Y10.927 Z0.000
G1 X20.221 Y10.814 Z0.000
G1 X20.272 Y10.729 Z0.000
G1 X20.331 Y10.686 Z0.000
G1 X20.372 Y10.673 Z0.000
G1 X20.417 Y10.672 Z0.000
G1 X20.463 Y10.682 Z0.000
G1 X20.503 Y10.704 Z0.000
G1 X20.538 Y10.738 Z0.000
G1 X20.576 Y10.797 Z0.000
G1 X20.611 Y10.918 Z0.000
G1 X20.616 Y11.069 Z0.000
G1 X20.588 Y11.202 Z0.000
G1 X20.541 Y11.285 Z0.000
G1 X20.504 Y11.323 Z0.000
G1 X20.462 Y11.349 Z0.000
G1 X20.415 Y11.364 Z0.000
G1 X20.358 Y11.367 Z0.000
G1 X20.298 Y11.351 Z0.000
G1 X20.248 Y11.319 Z0.000
G1 X20.212 Y11.273 Z0.000
G1 X20.200 Y11.236 Z0.000
G1 X20.138 Y11.264 Z0.000
G1 X20.178 Y11.337 Z0.000
G1 X20.241 Y11.393 Z0.000
G1 X20.322 Y11.425 Z0.000
G1 X20.406 Y11.430 Z0.000
G1 X20.469 Y11.417 Z0.000
G1 X20.526 Y11.390 Z0.000
G1 X20.576 Y11.349 Z0.000
G1 X20.618 Y11.297 Z0.000
G1 X20.651 Y11.233 Z0.000
G1 X20.675 Y11.159 Z0.000
G1 X20.688 Y11.077 Z0.000
G1 X20.690 Y10.987 Z0.000
G1 X20.682 Y10.902 Z0.000
G1 X20.663 Y10.826 Z0.000
G1 X20.635 Y10.761 Z0.000
G1 X20.600 Y10.705 Z0.000
G1 X20.556 Y10.662 Z0.000
G1 X20.507 Y10.631 Z0.000
G1 X20.452 Y10.614 Z0.000
G1 X20.388 Y10.612 Z0.000
G1 X20.323 Y10.629 Z0.000
G1 X20.268 Y10.666 Z0.000
G1 X20.223 Y10.719 Z0.000
G1 X20.200 Y10.763 Z0.000
G1 X20.197 Y10.763 Z0.000
G1 X20.197 Y10.622 Z0.000
G1 X20.130 Y10.622 Z0.000
G1 X20.130 Y11.038 Z0.000
G1 X20.398 Y11.038 Z0.000
G1 X20.398 Y10.975 Z0.000
G1 X20.398 Y10.971 Z0.000
G0 X20.398 Y10.971 Z4.000

(shape postamble)


(shape preamble)

G0 X29.926 Y-5.969 Z4.000
G1 X29.926 Y-5.969 Z0.000
G1 X20.754 Y-15.455 Z0.000
G1 X20.754 Y-15.145 Z0.000
G1 X39.409 Y-15.145 Z0.000
G1 X39.409 Y-15.455 Z0.000
G1 X20.754 Y-15.455 Z0.000
G0 X20.754 Y-15.455 Z4.000

(shape postamble)


(shape preamble)

G0 X20.757 Y-18.369 Z4.000
G1 X20.757 Y-18.369 Z0.000
G1 X26.977 Y-18.369 Z0.000
G1 X26.977 Y-18.059 Z0.000
G1 X20.757 Y-18.059 Z0.000
G1 X20.757 Y-18.369 Z0.000
G1 X23.710 Y-15.106 Z0.000
G0 X23.710 Y-15.106 Z4.000

(shape postamble)


(shape preamble)

G0 X23.710 Y-15.826 Z4.000
G1 X23.710 Y-15.826 Z0.000
G1 X8.322 Y-31.528 Z0.000
G1 X8.322 Y-31.217 Z0.000
G1 X39.412 Y-31.217 Z0.000
G1 X39.412 Y-31.528 Z0.000
G1 X8.322 Y-31.528 Z0.000
G0 X8.322 Y-31.528 Z4.000

(shape postamble)


(shape preamble)

G0 X7.525 Y-38.033 Z4.000
G1 X7.525 Y-38.033 Z0.000
G1 X4.470 Y-38.033 Z0.000
G0 X4.470 Y-38.033 Z4.000

(shape postamble)


(shape preamble)

G0 X16.866 Y-38.033 Z4.000
G1 X16.866 Y-38.033 Z0.000
G1 X19.921 Y-38.033 Z0.000
G0 X19.921 Y-38.033 Z4.000

(shape postamble)


(shape preamble)

G0 X29.266 Y-38.033 Z4.000
G1 X29.266 Y-38.033 Z0.000
G1 X32.322 Y-38.033 Z0.000
G0 X32.322 Y-38.033 Z4.000

(shape postamble)


(shape preamble)

G0 X41.663 Y-38.033 Z4.000
G1 X41.663 Y-38.033 Z0.000
G1 X44.718 Y-38.033 Z0.000
G0 X44.718 Y-38.033 Z4.000

(shape postamble)


(shape preamble)

G0 X47.865 Y-38.033 Z4.000
G1 X47.865 Y-38.033 Z0.000
G1 X50.916 Y-38.033 Z0.000
G0 X50.916 Y-38.033 Z4.000

(shape postamble)


(shape preamble)

G0 X54.063 Y-38.033 Z4.000
G1 X54.063 Y-38.033 Z0.000
G1 X57.118 Y-38.033 Z0.000
G0 X57.118 Y-38.033 Z4.000

(shape postamble)


(shape preamble)

G0 X60.653 Y-38.033 Z4.000
G1 X60.653 Y-38.033 Z0.000
G1 X63.708 Y-38.033 Z0.000
G0 X63.708 Y-38.033 Z4.000

(shape postamble)


(shape preamble)

G0 X48.599 Y-28.138 Z4.000
G1 X48.599 Y-28.138 Z0.000
G1 X45.628 Y-31.418 Z0.000
G1 X45.628 Y-31.108 Z0.000
G1 X51.880 Y-31.108 Z0.000
G1 X51.880 Y-31.418 Z0.000
G1 X45.628 Y-31.418 Z0.000
G0 X45.628 Y-31.418 Z4.000

(shape postamble)


(shape preamble)

G0 X45.628 Y-27.778 Z4.000
G1 X45.628 Y-27.778 Z0.000
G1 X51.848 Y-27.778 Z0.000
G1 X51.848 Y-27.467 Z0.000
G1 X45.628 Y-27.467 Z0.000
G1 X45.628 Y-27.778 Z0.000
G1 X48.581 Y-24.515 Z0.000
G0 X48.581 Y-24.515 Z4.000

(shape postamble)


(shape preamble)

G0 X51.848 Y-12.450 Z4.000
G1 X51.848 Y-12.450 Z0.000
G1 X58.000 Y-12.450 Z0.000
G1 X58.000 Y-12.143 Z0.000
G1 X51.848 Y-12.143 Z0.000
G1 X51.848 Y-12.450 Z0.000
G1 X54.769 Y-9.222 Z0.000
G0 X54.769 Y-9.222 Z4.000

(shape postamble)


(shape preamble)

G0 X39.254 Y-3.493 Z4.000
G1 X39.254 Y-3.493 Z0.000
G1 X33.189 Y-9.867 Z0.000
G1 X33.189 Y-9.557 Z0.000
G1 X45.625 Y-9.557 Z0.000
G1 X45.625 Y-9.867 Z0.000
G1 X33.189 Y-9.867 Z0.000
G0 X33.189 Y-9.867 Z4.000

(shape postamble)


(shape preamble)

G0 X33.193 Y-12.661 Z4.000
G1 X33.193 Y-12.661 Z0.000
G1 X39.412 Y-12.661 Z0.000
G1 X39.412 Y-12.351 Z0.000
G1 X33.193 Y-12.351 Z0.000
G1 X33.193 Y-12.661 Z0.000
G1 X36.146 Y-9.394 Z0.000
G0 X36.146 Y-9.394 Z4.000

(shape postamble)


(shape preamble)

G0 X26.818 Y-14.601 Z4.000
G1 X26.818 Y-14.601 Z0.000
G1 X20.754 Y-20.976 Z0.000
G1 X20.754 Y-20.666 Z0.000
G1 X33.189 Y-20.666 Z0.000
G1 X33.189 Y-20.976 Z0.000
G1 X20.754 Y-20.976 Z0.000
G0 X20.754 Y-20.976 Z4.000

(shape postamble)


(shape preamble)

G0 X20.602 Y-21.611 Z4.000
G1 X20.602 Y-21.611 Z0.000
G1 X14.538 Y-27.986 Z0.000
G1 X14.538 Y-27.675 Z0.000
G1 X26.973 Y-27.675 Z0.000
G1 X26.973 Y-27.986 Z0.000
G1 X14.538 Y-27.986 Z0.000
G0 X14.538 Y-27.986 Z4.000

(shape postamble)


(shape preamble)

G0 X14.538 Y-25.139 Z4.000
G1 X14.538 Y-25.139 Z0.000
G1 X20.757 Y-25.139 Z0.000
G1 X20.757 Y-24.829 Z0.000
G1 X14.538 Y-24.829 Z0.000
G1 X14.538 Y-25.139 Z0.000
G1 X17.494 Y-21.876 Z0.000
G0 X17.494 Y-21.876 Z4.000

(shape postamble)


(shape preamble)

G0 X8.322 Y-15.452 Z4.000
G1 X8.322 Y-15.452 Z0.000
G1 X14.542 Y-15.452 Z0.000
G1 X14.542 Y-15.141 Z0.000
G1 X8.322 Y-15.141 Z0.000
G1 X8.322 Y-15.452 Z0.000
G1 X11.275 Y-12.188 Z0.000
G0 X11.275 Y-12.188 Z4.000

(shape postamble)


(shape preamble)

G0 X10.478 Y-57.118 Z4.000
G1 X10.478 Y-57.118 Z0.000
G1 X10.520 Y-57.123 Z0.000
G1 X10.575 Y-57.153 Z0.000
G1 X10.617 Y-57.207 Z0.000
G1 X10.643 Y-57.280 Z0.000
G1 X10.315 Y-57.309 Z0.000
G1 X10.321 Y-57.255 Z0.000
G1 X10.349 Y-57.188 Z0.000
G1 X10.395 Y-57.141 Z0.000
G1 X10.455 Y-57.118 Z0.000
G1 X10.650 Y-57.362 Z0.000
G1 X10.654 Y-57.365 Z0.000
G1 X10.648 Y-57.431 Z0.000
G1 X10.616 Y-57.511 Z0.000
G1 X10.564 Y-57.567 Z0.000
G1 X10.494 Y-57.595 Z0.000
G1 X10.434 Y-57.593 Z0.000
G1 X10.391 Y-57.579 Z0.000
G1 X10.356 Y-57.555 Z0.000
G1 X10.331 Y-57.520 Z0.000
G1 X10.266 Y-57.506 Z0.000
G1 X10.280 Y-57.547 Z0.000
G1 X10.320 Y-57.598 Z0.000
G1 X10.375 Y-57.633 Z0.000
G1 X10.442 Y-57.651 Z0.000
G1 X10.502 Y-57.649 Z0.000
G1 X10.552 Y-57.636 Z0.000
G1 X10.596 Y-57.612 Z0.000
G1 X10.634 Y-57.580 Z0.000
G1 X10.684 Y-57.508 Z0.000
G1 X10.714 Y-57.397 Z0.000
G1 X10.708 Y-57.273 Z0.000
G1 X10.668 Y-57.172 Z0.000
G1 X10.602 Y-57.101 Z0.000
G1 X10.545 Y-57.074 Z0.000
G1 X10.498 Y-57.065 Z0.000
G1 X10.417 Y-57.072 Z0.000
G1 X10.338 Y-57.117 Z0.000
G1 X10.282 Y-57.193 Z0.000
G1 X10.255 Y-57.296 Z0.000
G1 X10.255 Y-57.362 Z0.000
G1 X10.650 Y-57.362 Z0.000
G0 X10.650 Y-57.362 Z4.000

(shape postamble)


(shape preamble)

G0 X11.201 Y-57.637 Z4.000
G1 X11.201 Y-57.637 Z0.000
G1 X11.201 Y-57.284 Z0.000
G1 X11.183 Y-57.212 Z0.000
G1 X11.146 Y-57.158 Z0.000
G1 X11.093 Y-57.127 Z0.000
G1 X11.035 Y-57.122 Z0.000
G1 X10.998 Y-57.132 Z0.000
G1 X10.968 Y-57.152 Z0.000
G1 X10.947 Y-57.183 Z0.000
G1 X10.940 Y-57.210 Z0.000
G1 X10.879 Y-57.188 Z0.000
G1 X10.902 Y-57.133 Z0.000
G1 X10.942 Y-57.092 Z0.000
G1 X10.996 Y-57.069 Z0.000
G1 X11.057 Y-57.065 Z0.000
G1 X11.108 Y-57.078 Z0.000
G1 X11.151 Y-57.104 Z0.000
G1 X11.185 Y-57.141 Z0.000
G1 X11.201 Y-57.171 Z0.000
G1 X11.204 Y-57.171 Z0.000
G1 X11.204 Y-57.072 Z0.000
G1 X11.261 Y-57.072 Z0.000
G1 X11.261 Y-57.637 Z0.000
G1 X11.197 Y-57.637 Z0.000
G1 X11.201 Y-57.637 Z0.000
G0 X11.201 Y-57.637 Z4.000

(shape postamble)


(shape preamble)

G0 X11.913 Y-57.637 Z4.000
G1 X11.913 Y-57.637 Z0.000
G1 X11.850 Y-57.637 Z0.000
G1 X11.850 Y-57.284 Z0.000
G1 X11.831 Y-57.210 Z0.000
G1 X11.793 Y-57.154 Z0.000
G1 X11.739 Y-57.120 Z0.000
G1 X11.676 Y-57.115 Z0.000
G1 X11.629 Y-57.132 Z0.000
G1 X11.594 Y-57.167 Z0.000
G1 X11.574 Y-57.217 Z0.000
G1 X11.571 Y-57.259 Z0.000
G1 X11.571 Y-57.637 Z0.000
G1 X11.508 Y-57.637 Z0.000
G1 X11.508 Y-57.227 Z0.000
G1 X11.528 Y-57.153 Z0.000
G1 X11.571 Y-57.098 Z0.000
G1 X11.631 Y-57.067 Z0.000
G1 X11.698 Y-57.062 Z0.000
G1 X11.746 Y-57.073 Z0.000
G1 X11.789 Y-57.097 Z0.000
G1 X11.824 Y-57.132 Z0.000
G1 X11.843 Y-57.161 Z0.000
G1 X11.846 Y-57.161 Z0.000
G1 X11.846 Y-56.864 Z0.000
G1 X11.910 Y-56.864 Z0.000
G1 X11.910 Y-57.637 Z0.000
G1 X11.913 Y-57.637 Z0.000
G0 X11.913 Y-57.637 Z4.000

(shape postamble)


(shape preamble)

G0 X12.368 Y-57.637 Z4.000
G1 X12.368 Y-57.637 Z0.000
G1 X12.305 Y-57.637 Z0.000
G1 X12.305 Y-56.963 Z0.000
G1 X12.076 Y-56.963 Z0.000
G1 X12.076 Y-56.903 Z0.000
G1 X12.598 Y-56.903 Z0.000
G1 X12.598 Y-56.963 Z0.000
G1 X12.368 Y-56.963 Z0.000
G1 X12.368 Y-57.637 Z0.000
G0 X12.368 Y-57.637 Z4.000

(shape postamble)


(shape preamble)

G0 X13.765 Y-57.341 Z4.000
G1 X13.765 Y-57.341 Z0.000
G1 X13.370 Y-57.341 Z0.000
G1 X13.370 Y-57.284 Z0.000
G1 X13.765 Y-57.284 Z0.000
G1 X13.765 Y-57.341 Z0.000
G0 X13.765 Y-57.341 Z4.000

(shape postamble)


(shape preamble)

G0 X15.042 Y-57.460 Z4.000
G1 X15.042 Y-57.460 Z0.000
G1 X15.042 Y-57.488 Z0.000
G1 X15.010 Y-57.559 Z0.000
G1 X14.950 Y-57.614 Z0.000
G1 X14.868 Y-57.646 Z0.000
G1 X14.769 Y-57.651 Z0.000
G1 X14.681 Y-57.625 Z0.000
G1 X14.613 Y-57.573 Z0.000
G1 X14.573 Y-57.501 Z0.000
G1 X14.566 Y-57.416 Z0.000
G1 X14.588 Y-57.349 Z0.000
G1 X14.637 Y-57.296 Z0.000
G1 X14.712 Y-57.256 Z0.000
G1 X14.778 Y-57.238 Z0.000
G1 X14.843 Y-57.222 Z0.000
G1 X14.898 Y-57.200 Z0.000
G1 X14.935 Y-57.167 Z0.000
G1 X14.955 Y-57.125 Z0.000
G1 X14.958 Y-57.070 Z0.000
G1 X14.940 Y-57.018 Z0.000
G1 X14.903 Y-56.979 Z0.000
G1 X14.850 Y-56.956 Z0.000
G1 X14.784 Y-56.952 Z0.000
G1 X14.726 Y-56.967 Z0.000
G1 X14.680 Y-56.997 Z0.000
G1 X14.649 Y-57.038 Z0.000
G1 X14.640 Y-57.072 Z0.000
G1 X14.582 Y-57.047 Z0.000
G1 X14.614 Y-56.980 Z0.000
G1 X14.672 Y-56.930 Z0.000
G1 X14.749 Y-56.901 Z0.000
G1 X14.840 Y-56.896 Z0.000
G1 X14.921 Y-56.920 Z0.000
G1 X14.983 Y-56.969 Z0.000
G1 X15.019 Y-57.038 Z0.000
G1 X15.025 Y-57.119 Z0.000
G1 X15.004 Y-57.185 Z0.000
G1 X14.960 Y-57.236 Z0.000
G1 X14.893 Y-57.273 Z0.000
G1 X14.834 Y-57.288 Z0.000
G1 X14.766 Y-57.304 Z0.000
G1 X14.705 Y-57.330 Z0.000
G1 X14.663 Y-57.364 Z0.000
G1 X14.640 Y-57.408 Z0.000
G1 X14.637 Y-57.465 Z0.000
G1 X14.658 Y-57.521 Z0.000
G1 X14.701 Y-57.563 Z0.000
G1 X14.762 Y-57.587 Z0.000
G1 X14.838 Y-57.591 Z0.000
G1 X14.902 Y-57.574 Z0.000
G1 X14.951 Y-57.541 Z0.000
G1 X14.982 Y-57.494 Z0.000
G1 X14.990 Y-57.457 Z0.000
G1 X15.050 Y-57.457 Z0.000
G1 X15.042 Y-57.460 Z0.000
G0 X15.042 Y-57.460 Z4.000

(shape postamble)


(shape preamble)

G0 X15.663 Y-57.460 Z4.000
G1 X15.663 Y-57.460 Z0.000
G1 X15.663 Y-57.488 Z0.000
G1 X15.635 Y-57.558 Z0.000
G1 X15.578 Y-57.612 Z0.000
G1 X15.501 Y-57.643 Z0.000
G1 X15.410 Y-57.647 Z0.000
G1 X15.328 Y-57.623 Z0.000
G1 X15.264 Y-57.573 Z0.000
G1 X15.225 Y-57.505 Z0.000
G1 X15.219 Y-57.450 Z0.000
G1 X15.219 Y-56.907 Z0.000
G1 X15.586 Y-56.907 Z0.000
G1 X15.586 Y-56.967 Z0.000
G1 X15.286 Y-56.967 Z0.000
G1 X15.286 Y-57.471 Z0.000
G1 X15.305 Y-57.525 Z0.000
G1 X15.343 Y-57.565 Z0.000
G1 X15.399 Y-57.587 Z0.000
G1 X15.468 Y-57.591 Z0.000
G1 X15.528 Y-57.575 Z0.000
G1 X15.573 Y-57.543 Z0.000
G1 X15.600 Y-57.498 Z0.000
G1 X15.607 Y-57.460 Z0.000
G1 X15.667 Y-57.460 Z0.000
G1 X15.663 Y-57.460 Z0.000
G0 X15.663 Y-57.460 Z4.000

(shape postamble)


(shape preamble)

G0 X16.030 Y-57.118 Z4.000
G1 X16.030 Y-57.118 Z0.000
G1 X16.073 Y-57.123 Z0.000
G1 X16.128 Y-57.153 Z0.000
G1 X16.170 Y-57.207 Z0.000
G1 X16.196 Y-57.280 Z0.000
G1 X15.868 Y-57.309 Z0.000
G1 X15.874 Y-57.255 Z0.000
G1 X15.902 Y-57.188 Z0.000
G1 X15.947 Y-57.141 Z0.000
G1 X16.007 Y-57.118 Z0.000
G1 X16.200 Y-57.362 Z0.000
G1 X16.203 Y-57.365 Z0.000
G1 X16.197 Y-57.431 Z0.000
G1 X16.166 Y-57.511 Z0.000
G1 X16.113 Y-57.567 Z0.000
G1 X16.043 Y-57.595 Z0.000
G1 X15.983 Y-57.593 Z0.000
G1 X15.940 Y-57.579 Z0.000
G1 X15.906 Y-57.555 Z0.000
G1 X15.880 Y-57.520 Z0.000
G1 X15.815 Y-57.506 Z0.000
G1 X15.829 Y-57.547 Z0.000
G1 X15.869 Y-57.598 Z0.000
G1 X15.924 Y-57.633 Z0.000
G1 X15.991 Y-57.651 Z0.000
G1 X16.052 Y-57.649 Z0.000
G1 X16.101 Y-57.636 Z0.000
G1 X16.145 Y-57.612 Z0.000
G1 X16.183 Y-57.580 Z0.000
G1 X16.233 Y-57.508 Z0.000
G1 X16.263 Y-57.397 Z0.000
G1 X16.257 Y-57.273 Z0.000
G1 X16.218 Y-57.172 Z0.000
G1 X16.151 Y-57.101 Z0.000
G1 X16.094 Y-57.074 Z0.000
G1 X16.047 Y-57.065 Z0.000
G1 X15.966 Y-57.072 Z0.000
G1 X15.887 Y-57.117 Z0.000
G1 X15.832 Y-57.193 Z0.000
G1 X15.804 Y-57.296 Z0.000
G1 X15.804 Y-57.362 Z0.000
G1 X16.200 Y-57.362 Z0.000
G0 X16.200 Y-57.362 Z4.000

(shape postamble)


(shape preamble)

G0 X16.489 Y-57.637 Z4.000
G1 X16.489 Y-57.637 Z0.000
G1 X16.432 Y-57.570 Z0.000
G1 X16.436 Y-57.450 Z0.000
G1 X16.436 Y-56.864 Z0.000
G1 X16.499 Y-56.864 Z0.000
G1 X16.499 Y-57.175 Z0.000
G1 X16.512 Y-57.157 Z0.000
G1 X16.546 Y-57.113 Z0.000
G1 X16.588 Y-57.082 Z0.000
G1 X16.638 Y-57.064 Z0.000
G1 X16.693 Y-57.062 Z0.000
G1 X16.740 Y-57.071 Z0.000
G1 X16.796 Y-57.098 Z0.000
G1 X16.861 Y-57.171 Z0.000
G1 X16.899 Y-57.273 Z0.000
G1 X16.905 Y-57.397 Z0.000
G1 X16.877 Y-57.507 Z0.000
G1 X16.820 Y-57.591 Z0.000
G1 X16.754 Y-57.633 Z0.000
G1 X16.709 Y-57.646 Z0.000
G1 X16.656 Y-57.647 Z0.000
G1 X16.603 Y-57.635 Z0.000
G1 X16.557 Y-57.607 Z0.000
G1 X16.519 Y-57.566 Z0.000
G1 X16.499 Y-57.531 Z0.000
G1 X16.496 Y-57.566 Z0.000
G1 X16.489 Y-57.637 Z0.000
G1 X16.694 Y-57.591 Z0.000
G1 X16.761 Y-57.562 Z0.000
G1 X16.811 Y-57.503 Z0.000
G1 X16.841 Y-57.421 Z0.000
G1 X16.845 Y-57.320 Z0.000
G1 X16.823 Y-57.231 Z0.000
G1 X16.779 Y-57.164 Z0.000
G1 X16.716 Y-57.124 Z0.000
G1 X16.639 Y-57.118 Z0.000
G1 X16.573 Y-57.147 Z0.000
G1 X16.526 Y-57.204 Z0.000
G1 X16.500 Y-57.287 Z0.000
G1 X16.496 Y-57.390 Z0.000
G1 X16.516 Y-57.480 Z0.000
G1 X16.557 Y-57.546 Z0.000
G1 X16.616 Y-57.585 Z0.000
G1 X16.665 Y-57.591 Z0.000
G1 X16.669 Y-57.591 Z0.000
G0 X16.669 Y-57.591 Z4.000

(shape postamble)


(shape preamble)

G0 X17.268 Y-57.591 Z4.000
G1 X17.268 Y-57.591 Z0.000
G1 X17.219 Y-57.585 Z0.000
G1 X17.158 Y-57.545 Z0.000
G1 X17.114 Y-57.478 Z0.000
G1 X17.092 Y-57.389 Z0.000
G1 X17.097 Y-57.288 Z0.000
G1 X17.126 Y-57.206 Z0.000
G1 X17.176 Y-57.147 Z0.000
G1 X17.243 Y-57.118 Z0.000
G1 X17.318 Y-57.124 Z0.000
G1 X17.379 Y-57.164 Z0.000
G1 X17.423 Y-57.231 Z0.000
G1 X17.445 Y-57.320 Z0.000
G1 X17.440 Y-57.421 Z0.000
G1 X17.412 Y-57.503 Z0.000
G1 X17.362 Y-57.562 Z0.000
G1 X17.295 Y-57.591 Z0.000
G1 X17.268 Y-57.647 Z0.000
G1 X17.302 Y-57.646 Z0.000
G1 X17.350 Y-57.633 Z0.000
G1 X17.419 Y-57.591 Z0.000
G1 X17.478 Y-57.507 Z0.000
G1 X17.508 Y-57.397 Z0.000
G1 X17.502 Y-57.273 Z0.000
G1 X17.461 Y-57.171 Z0.000
G1 X17.393 Y-57.098 Z0.000
G1 X17.334 Y-57.071 Z0.000
G1 X17.286 Y-57.062 Z0.000
G1 X17.235 Y-57.064 Z0.000
G1 X17.187 Y-57.077 Z0.000
G1 X17.118 Y-57.119 Z0.000
G1 X17.058 Y-57.202 Z0.000
G1 X17.029 Y-57.312 Z0.000
G1 X17.035 Y-57.436 Z0.000
G1 X17.074 Y-57.539 Z0.000
G1 X17.118 Y-57.589 Z0.000
G1 X17.157 Y-57.618 Z0.000
G1 X17.201 Y-57.638 Z0.000
G1 X17.251 Y-57.647 Z0.000
G1 X17.268 Y-57.647 Z0.000
G0 X17.268 Y-57.647 Z4.000

(shape postamble)


(shape preamble)

G0 X17.702 Y-57.545 Z4.000
G1 X17.702 Y-57.545 Z0.000
G1 X17.706 Y-57.545 Z0.000
G1 X18.038 Y-56.907 Z0.000
G1 X18.129 Y-56.907 Z0.000
G1 X18.129 Y-57.637 Z0.000
G1 X18.069 Y-57.637 Z0.000
G1 X18.069 Y-56.977 Z0.000
G1 X18.066 Y-56.977 Z0.000
G1 X17.724 Y-57.637 Z0.000
G1 X17.642 Y-57.637 Z0.000
G1 X17.642 Y-56.907 Z0.000
G1 X17.702 Y-56.907 Z0.000
G1 X17.702 Y-57.545 Z0.000
G0 X17.702 Y-57.545 Z4.000

(shape postamble)


(shape preamble)

G0 X19.318 Y-57.341 Z4.000
G1 X19.318 Y-57.341 Z0.000
G1 X18.923 Y-57.341 Z0.000
G1 X18.923 Y-57.284 Z0.000
G1 X19.318 Y-57.284 Z0.000
G1 X19.318 Y-57.341 Z0.000
G0 X19.318 Y-57.341 Z4.000

(shape postamble)


(shape preamble)

G0 X20.451 Y-57.637 Z4.000
G1 X20.451 Y-57.637 Z0.000
G1 X20.451 Y-57.284 Z0.000
G1 X20.433 Y-57.212 Z0.000
G1 X20.396 Y-57.158 Z0.000
G1 X20.343 Y-57.127 Z0.000
G1 X20.285 Y-57.122 Z0.000
G1 X20.247 Y-57.132 Z0.000
G1 X20.217 Y-57.152 Z0.000
G1 X20.197 Y-57.183 Z0.000
G1 X20.189 Y-57.210 Z0.000
G1 X20.129 Y-57.188 Z0.000
G1 X20.152 Y-57.133 Z0.000
G1 X20.192 Y-57.092 Z0.000
G1 X20.246 Y-57.069 Z0.000
G1 X20.307 Y-57.065 Z0.000
G1 X20.357 Y-57.078 Z0.000
G1 X20.400 Y-57.104 Z0.000
G1 X20.434 Y-57.141 Z0.000
G1 X20.451 Y-57.171 Z0.000
G1 X20.454 Y-57.171 Z0.000
G1 X20.454 Y-57.072 Z0.000
G1 X20.511 Y-57.072 Z0.000
G1 X20.511 Y-57.637 Z0.000
G1 X20.447 Y-57.637 Z0.000
G1 X20.451 Y-57.637 Z0.000
G0 X20.451 Y-57.637 Z4.000

(shape postamble)


(shape preamble)

G0 X20.962 Y-57.118 Z4.000
G1 X20.962 Y-57.118 Z0.000
G1 X21.005 Y-57.123 Z0.000
G1 X21.060 Y-57.153 Z0.000
G1 X21.102 Y-57.207 Z0.000
G1 X21.128 Y-57.280 Z0.000
G1 X20.800 Y-57.309 Z0.000
G1 X20.806 Y-57.255 Z0.000
G1 X20.834 Y-57.188 Z0.000
G1 X20.879 Y-57.141 Z0.000
G1 X20.939 Y-57.118 Z0.000
G1 X21.135 Y-57.362 Z0.000
G1 X21.138 Y-57.365 Z0.000
G1 X21.132 Y-57.431 Z0.000
G1 X21.101 Y-57.511 Z0.000
G1 X21.049 Y-57.567 Z0.000
G1 X20.979 Y-57.595 Z0.000
G1 X20.919 Y-57.593 Z0.000
G1 X20.876 Y-57.579 Z0.000
G1 X20.841 Y-57.555 Z0.000
G1 X20.816 Y-57.520 Z0.000
G1 X20.750 Y-57.506 Z0.000
G1 X20.765 Y-57.547 Z0.000
G1 X20.804 Y-57.598 Z0.000
G1 X20.860 Y-57.633 Z0.000
G1 X20.927 Y-57.651 Z0.000
G1 X20.987 Y-57.649 Z0.000
G1 X21.036 Y-57.636 Z0.000
G1 X21.080 Y-57.612 Z0.000
G1 X21.118 Y-57.580 Z0.000
G1 X21.168 Y-57.508 Z0.000
G1 X21.198 Y-57.397 Z0.000
G1 X21.192 Y-57.273 Z0.000
G1 X21.153 Y-57.172 Z0.000
G1 X21.087 Y-57.101 Z0.000
G1 X21.030 Y-57.074 Z0.000
G1 X20.982 Y-57.065 Z0.000
G1 X20.901 Y-57.072 Z0.000
G1 X20.822 Y-57.117 Z0.000
G1 X20.767 Y-57.193 Z0.000
G1 X20.740 Y-57.296 Z0.000
G1 X20.740 Y-57.362 Z0.000
G1 X21.135 Y-57.362 Z0.000
G0 X21.135 Y-57.362 Z4.000

(shape postamble)


(shape preamble)

G0 X21.788 Y-57.637 Z4.000
G1 X21.788 Y-57.637 Z0.000
G1 X21.724 Y-57.637 Z0.000
G1 X21.724 Y-57.468 Z0.000
G1 X21.611 Y-57.351 Z0.000
G1 X21.407 Y-57.640 Z0.000
G1 X21.329 Y-57.640 Z0.000
G1 X21.569 Y-57.305 Z0.000
G1 X21.350 Y-57.076 Z0.000
G1 X21.435 Y-57.076 Z0.000
G1 X21.728 Y-57.386 Z0.000
G1 X21.728 Y-56.868 Z0.000
G1 X21.791 Y-56.868 Z0.000
G1 X21.791 Y-57.640 Z0.000
G1 X21.788 Y-57.637 Z0.000
G0 X21.788 Y-57.637 Z4.000

(shape postamble)


(shape preamble)

G0 X22.031 Y-57.503 Z4.000
G1 X22.031 Y-57.503 Z0.000
G1 X22.035 Y-57.517 Z0.000
G1 X22.060 Y-57.552 Z0.000
G1 X22.096 Y-57.578 Z0.000
G1 X22.141 Y-57.592 Z0.000
G1 X22.204 Y-57.595 Z0.000
G1 X22.275 Y-57.566 Z0.000
G1 X22.328 Y-57.507 Z0.000
G1 X22.358 Y-57.425 Z0.000
G1 X22.363 Y-57.324 Z0.000
G1 X22.341 Y-57.234 Z0.000
G1 X22.295 Y-57.165 Z0.000
G1 X22.230 Y-57.125 Z0.000
G1 X22.159 Y-57.118 Z0.000
G1 X22.114 Y-57.129 Z0.000
G1 X22.076 Y-57.151 Z0.000
G1 X22.049 Y-57.183 Z0.000
G1 X22.038 Y-57.210 Z0.000
G1 X21.982 Y-57.188 Z0.000
G1 X22.012 Y-57.133 Z0.000
G1 X22.063 Y-57.092 Z0.000
G1 X22.127 Y-57.069 Z0.000
G1 X22.194 Y-57.065 Z0.000
G1 X22.244 Y-57.075 Z0.000
G1 X22.290 Y-57.094 Z0.000
G1 X22.330 Y-57.124 Z0.000
G1 X22.375 Y-57.174 Z0.000
G1 X22.416 Y-57.276 Z0.000
G1 X22.423 Y-57.401 Z0.000
G1 X22.392 Y-57.511 Z0.000
G1 X22.340 Y-57.581 Z0.000
G1 X22.302 Y-57.613 Z0.000
G1 X22.257 Y-57.636 Z0.000
G1 X22.208 Y-57.649 Z0.000
G1 X22.147 Y-57.651 Z0.000
G1 X22.077 Y-57.633 Z0.000
G1 X22.021 Y-57.598 Z0.000
G1 X21.982 Y-57.547 Z0.000
G1 X21.971 Y-57.506 Z0.000
G1 X22.031 Y-57.506 Z0.000
G1 X22.031 Y-57.503 Z0.000
G0 X22.031 Y-57.503 Z4.000

(shape postamble)


(shape preamble)

G0 X22.818 Y-57.591 Z4.000
G1 X22.818 Y-57.591 Z0.000
G1 X22.768 Y-57.585 Z0.000
G1 X22.707 Y-57.545 Z0.000
G1 X22.663 Y-57.478 Z0.000
G1 X22.641 Y-57.389 Z0.000
G1 X22.646 Y-57.288 Z0.000
G1 X22.675 Y-57.206 Z0.000
G1 X22.726 Y-57.147 Z0.000
G1 X22.792 Y-57.118 Z0.000
G1 X22.867 Y-57.124 Z0.000
G1 X22.929 Y-57.164 Z0.000
G1 X22.972 Y-57.231 Z0.000
G1 X22.994 Y-57.320 Z0.000
G1 X22.990 Y-57.421 Z0.000
G1 X22.961 Y-57.503 Z0.000
G1 X22.911 Y-57.562 Z0.000
G1 X22.844 Y-57.591 Z0.000
G1 X22.818 Y-57.647 Z0.000
G1 X22.852 Y-57.646 Z0.000
G1 X22.899 Y-57.633 Z0.000
G1 X22.968 Y-57.591 Z0.000
G1 X23.028 Y-57.507 Z0.000
G1 X23.058 Y-57.397 Z0.000
G1 X23.051 Y-57.273 Z0.000
G1 X23.011 Y-57.171 Z0.000
G1 X22.942 Y-57.098 Z0.000
G1 X22.883 Y-57.071 Z0.000
G1 X22.835 Y-57.062 Z0.000
G1 X22.784 Y-57.064 Z0.000
G1 X22.737 Y-57.077 Z0.000
G1 X22.668 Y-57.119 Z0.000
G1 X22.608 Y-57.202 Z0.000
G1 X22.578 Y-57.312 Z0.000
G1 X22.584 Y-57.436 Z0.000
G1 X22.624 Y-57.539 Z0.000
G1 X22.667 Y-57.589 Z0.000
G1 X22.706 Y-57.618 Z0.000
G1 X22.751 Y-57.638 Z0.000
G1 X22.800 Y-57.647 Z0.000
G1 X22.818 Y-57.647 Z0.000
G0 X22.818 Y-57.647 Z4.000

(shape postamble)


(shape preamble)

G0 X23.594 Y-57.577 Z4.000
G1 X23.594 Y-57.577 Z0.000
G1 X23.456 Y-57.577 Z0.000
G1 X23.423 Y-57.575 Z0.000
G1 X23.377 Y-57.562 Z0.000
G1 X23.336 Y-57.539 Z0.000
G1 X23.302 Y-57.507 Z0.000
G1 X23.257 Y-57.434 Z0.000
G1 X23.230 Y-57.317 Z0.000
G1 X23.236 Y-57.181 Z0.000
G1 X23.272 Y-57.073 Z0.000
G1 X23.312 Y-57.021 Z0.000
G1 X23.349 Y-56.992 Z0.000
G1 X23.391 Y-56.972 Z0.000
G1 X23.439 Y-56.963 Z0.000
G1 X23.594 Y-56.963 Z0.000
G1 X23.594 Y-57.577 Z0.000
G1 X23.661 Y-57.637 Z0.000
G1 X23.661 Y-57.633 Z0.000
G1 X23.661 Y-56.903 Z0.000
G1 X23.456 Y-56.903 Z0.000
G1 X23.414 Y-56.905 Z0.000
G1 X23.355 Y-56.921 Z0.000
G1 X23.303 Y-56.949 Z0.000
G1 X23.258 Y-56.988 Z0.000
G1 X23.221 Y-57.038 Z0.000
G1 X23.192 Y-57.098 Z0.000
G1 X23.173 Y-57.166 Z0.000
G1 X23.163 Y-57.243 Z0.000
G1 X23.165 Y-57.324 Z0.000
G1 X23.178 Y-57.397 Z0.000
G1 X23.200 Y-57.463 Z0.000
G1 X23.232 Y-57.519 Z0.000
G1 X23.272 Y-57.566 Z0.000
G1 X23.320 Y-57.602 Z0.000
G1 X23.374 Y-57.626 Z0.000
G1 X23.435 Y-57.637 Z0.000
G1 X23.661 Y-57.637 Z0.000
G0 X23.661 Y-57.637 Z4.000

(shape postamble)


(shape preamble)

G0 X24.867 Y-57.341 Z4.000
G1 X24.867 Y-57.341 Z0.000
G1 X24.472 Y-57.341 Z0.000
G1 X24.472 Y-57.284 Z0.000
G1 X24.867 Y-57.284 Z0.000
G1 X24.867 Y-57.341 Z0.000
G0 X24.867 Y-57.341 Z4.000

(shape postamble)


(shape preamble)

G0 X26.141 Y-57.460 Z4.000
G1 X26.141 Y-57.460 Z0.000
G1 X26.140 Y-57.488 Z0.000
G1 X26.109 Y-57.559 Z0.000
G1 X26.048 Y-57.614 Z0.000
G1 X25.966 Y-57.646 Z0.000
G1 X25.867 Y-57.651 Z0.000
G1 X25.779 Y-57.625 Z0.000
G1 X25.711 Y-57.573 Z0.000
G1 X25.671 Y-57.501 Z0.000
G1 X25.665 Y-57.416 Z0.000
G1 X25.687 Y-57.349 Z0.000
G1 X25.735 Y-57.296 Z0.000
G1 X25.810 Y-57.256 Z0.000
G1 X25.876 Y-57.238 Z0.000
G1 X25.942 Y-57.222 Z0.000
G1 X25.996 Y-57.200 Z0.000
G1 X26.033 Y-57.167 Z0.000
G1 X26.053 Y-57.125 Z0.000
G1 X26.056 Y-57.070 Z0.000
G1 X26.038 Y-57.018 Z0.000
G1 X26.002 Y-56.979 Z0.000
G1 X25.948 Y-56.956 Z0.000
G1 X25.882 Y-56.952 Z0.000
G1 X25.824 Y-56.967 Z0.000
G1 X25.778 Y-56.997 Z0.000
G1 X25.748 Y-57.038 Z0.000
G1 X25.739 Y-57.072 Z0.000
G1 X25.680 Y-57.047 Z0.000
G1 X25.712 Y-56.980 Z0.000
G1 X25.770 Y-56.930 Z0.000
G1 X25.848 Y-56.901 Z0.000
G1 X25.939 Y-56.896 Z0.000
G1 X26.020 Y-56.920 Z0.000
G1 X26.081 Y-56.969 Z0.000
G1 X26.117 Y-57.038 Z0.000
G1 X26.123 Y-57.119 Z0.000
G1 X26.103 Y-57.185 Z0.000
G1 X26.058 Y-57.236 Z0.000
G1 X25.991 Y-57.273 Z0.000
G1 X25.933 Y-57.288 Z0.000
G1 X25.865 Y-57.304 Z0.000
G1 X25.804 Y-57.330 Z0.000
G1 X25.761 Y-57.364 Z0.000
G1 X25.738 Y-57.408 Z0.000
G1 X25.735 Y-57.465 Z0.000
G1 X25.756 Y-57.521 Z0.000
G1 X25.799 Y-57.563 Z0.000
G1 X25.861 Y-57.587 Z0.000
G1 X25.936 Y-57.591 Z0.000
G1 X26.000 Y-57.574 Z0.000
G1 X26.050 Y-57.541 Z0.000
G1 X26.080 Y-57.494 Z0.000
G1 X26.088 Y-57.457 Z0.000
G1 X26.148 Y-57.457 Z0.000
G1 X26.141 Y-57.460 Z0.000
G0 X26.141 Y-57.460 Z4.000

(shape postamble)


(shape preamble)

G0 X26.765 Y-57.460 Z4.000
G1 X26.765 Y-57.460 Z0.000
G1 X26.765 Y-57.488 Z0.000
G1 X26.737 Y-57.558 Z0.000
G1 X26.680 Y-57.612 Z0.000
G1 X26.603 Y-57.643 Z0.000
G1 X26.512 Y-57.647 Z0.000
G1 X26.430 Y-57.623 Z0.000
G1 X26.366 Y-57.573 Z0.000
G1 X26.327 Y-57.505 Z0.000
G1 X26.321 Y-57.450 Z0.000
G1 X26.321 Y-56.907 Z0.000
G1 X26.688 Y-56.907 Z0.000
G1 X26.688 Y-56.967 Z0.000
G1 X26.388 Y-56.967 Z0.000
G1 X26.388 Y-57.471 Z0.000
G1 X26.407 Y-57.525 Z0.000
G1 X26.445 Y-57.565 Z0.000
G1 X26.501 Y-57.587 Z0.000
G1 X26.570 Y-57.591 Z0.000
G1 X26.630 Y-57.575 Z0.000
G1 X26.675 Y-57.543 Z0.000
G1 X26.702 Y-57.498 Z0.000
G1 X26.709 Y-57.460 Z0.000
G1 X26.769 Y-57.460 Z0.000
G1 X26.765 Y-57.460 Z0.000
G0 X26.765 Y-57.460 Z4.000

(shape postamble)


(shape preamble)

G0 X27.129 Y-57.118 Z4.000
G1 X27.129 Y-57.118 Z0.000
G1 X27.171 Y-57.123 Z0.000
G1 X27.226 Y-57.153 Z0.000
G1 X27.268 Y-57.207 Z0.000
G1 X27.294 Y-57.280 Z0.000
G1 X26.966 Y-57.309 Z0.000
G1 X26.972 Y-57.255 Z0.000
G1 X27.000 Y-57.188 Z0.000
G1 X27.046 Y-57.141 Z0.000
G1 X27.106 Y-57.118 Z0.000
G1 X27.301 Y-57.362 Z0.000
G1 X27.305 Y-57.365 Z0.000
G1 X27.299 Y-57.431 Z0.000
G1 X27.268 Y-57.511 Z0.000
G1 X27.215 Y-57.567 Z0.000
G1 X27.145 Y-57.595 Z0.000
G1 X27.085 Y-57.593 Z0.000
G1 X27.042 Y-57.579 Z0.000
G1 X27.007 Y-57.555 Z0.000
G1 X26.982 Y-57.520 Z0.000
G1 X26.917 Y-57.506 Z0.000
G1 X26.931 Y-57.547 Z0.000
G1 X26.971 Y-57.598 Z0.000
G1 X27.026 Y-57.633 Z0.000
G1 X27.093 Y-57.651 Z0.000
G1 X27.154 Y-57.649 Z0.000
G1 X27.203 Y-57.636 Z0.000
G1 X27.247 Y-57.612 Z0.000
G1 X27.285 Y-57.580 Z0.000
G1 X27.335 Y-57.508 Z0.000
G1 X27.365 Y-57.397 Z0.000
G1 X27.359 Y-57.273 Z0.000
G1 X27.320 Y-57.172 Z0.000
G1 X27.253 Y-57.101 Z0.000
G1 X27.196 Y-57.074 Z0.000
G1 X27.149 Y-57.065 Z0.000
G1 X27.068 Y-57.072 Z0.000
G1 X26.989 Y-57.117 Z0.000
G1 X26.933 Y-57.193 Z0.000
G1 X26.906 Y-57.296 Z0.000
G1 X26.906 Y-57.362 Z0.000
G1 X27.301 Y-57.362 Z0.000
G0 X27.301 Y-57.362 Z4.000

(shape postamble)


(shape preamble)

G0 X27.559 Y-57.450 Z4.000
G1 X27.559 Y-57.450 Z0.000
G1 X27.559 Y-57.072 Z0.000
G1 X27.623 Y-57.072 Z0.000
G1 X27.623 Y-57.426 Z0.000
G1 X27.641 Y-57.501 Z0.000
G1 X27.679 Y-57.557 Z0.000
G1 X27.732 Y-57.589 Z0.000
G1 X27.793 Y-57.595 Z0.000
G1 X27.840 Y-57.578 Z0.000
G1 X27.875 Y-57.543 Z0.000
G1 X27.895 Y-57.492 Z0.000
G1 X27.898 Y-57.450 Z0.000
G1 X27.898 Y-57.072 Z0.000
G1 X27.961 Y-57.072 Z0.000
G1 X27.961 Y-57.483 Z0.000
G1 X27.940 Y-57.557 Z0.000
G1 X27.897 Y-57.611 Z0.000
G1 X27.836 Y-57.643 Z0.000
G1 X27.766 Y-57.647 Z0.000
G1 X27.716 Y-57.637 Z0.000
G1 X27.674 Y-57.613 Z0.000
G1 X27.640 Y-57.579 Z0.000
G1 X27.623 Y-57.549 Z0.000
G1 X27.619 Y-57.577 Z0.000
G1 X27.612 Y-57.637 Z0.000
G1 X27.555 Y-57.570 Z0.000
G1 X27.559 Y-57.450 Z0.000
G1 X27.559 Y-57.450 Z0.000
G0 X27.559 Y-57.450 Z4.000

(shape postamble)


(shape preamble)

G0 X28.413 Y-57.637 Z4.000
G1 X28.413 Y-57.637 Z0.000
G1 X28.328 Y-57.637 Z0.000
G1 X28.088 Y-56.907 Z0.000
G1 X28.155 Y-56.907 Z0.000
G1 X28.367 Y-57.563 Z0.000
G1 X28.370 Y-57.563 Z0.000
G1 X28.582 Y-56.907 Z0.000
G1 X28.649 Y-56.907 Z0.000
G1 X28.409 Y-57.637 Z0.000
G1 X28.413 Y-57.637 Z0.000
G0 X28.413 Y-57.637 Z4.000

(shape postamble)


(shape preamble)

G0 X29.799 Y-57.341 Z4.000
G1 X29.799 Y-57.341 Z0.000
G1 X29.404 Y-57.341 Z0.000
G1 X29.404 Y-57.284 Z0.000
G1 X29.799 Y-57.284 Z0.000
G1 X29.799 Y-57.341 Z0.000
G0 X29.799 Y-57.341 Z4.000

(shape postamble)


(shape preamble)

G0 X31.041 Y-57.503 Z4.000
G1 X31.041 Y-57.503 Z0.000
G1 X31.039 Y-57.524 Z0.000
G1 X31.010 Y-57.580 Z0.000
G1 X30.958 Y-57.624 Z0.000
G1 X30.888 Y-57.650 Z0.000
G1 X30.804 Y-57.655 Z0.000
G1 X30.728 Y-57.634 Z0.000
G1 X30.671 Y-57.591 Z0.000
G1 X30.637 Y-57.531 Z0.000
G1 X30.632 Y-57.460 Z0.000
G1 X30.650 Y-57.409 Z0.000
G1 X30.690 Y-57.370 Z0.000
G1 X30.754 Y-57.342 Z0.000
G1 X30.812 Y-57.330 Z0.000
G1 X30.857 Y-57.326 Z0.000
G1 X30.906 Y-57.309 Z0.000
G1 X30.938 Y-57.286 Z0.000
G1 X30.954 Y-57.256 Z0.000
G1 X30.956 Y-57.215 Z0.000
G1 X30.942 Y-57.174 Z0.000
G1 X30.912 Y-57.143 Z0.000
G1 X30.868 Y-57.125 Z0.000
G1 X30.815 Y-57.122 Z0.000
G1 X30.768 Y-57.133 Z0.000
G1 X30.730 Y-57.156 Z0.000
G1 X30.705 Y-57.188 Z0.000
G1 X30.699 Y-57.214 Z0.000
G1 X30.641 Y-57.192 Z0.000
G1 X30.668 Y-57.138 Z0.000
G1 X30.718 Y-57.097 Z0.000
G1 X30.785 Y-57.073 Z0.000
G1 X30.863 Y-57.069 Z0.000
G1 X30.932 Y-57.090 Z0.000
G1 X30.984 Y-57.131 Z0.000
G1 X31.015 Y-57.189 Z0.000
G1 X31.020 Y-57.256 Z0.000
G1 X31.002 Y-57.308 Z0.000
G1 X30.961 Y-57.347 Z0.000
G1 X30.897 Y-57.374 Z0.000
G1 X30.840 Y-57.386 Z0.000
G1 X30.793 Y-57.392 Z0.000
G1 X30.743 Y-57.409 Z0.000
G1 X30.710 Y-57.432 Z0.000
G1 X30.694 Y-57.460 Z0.000
G1 X30.692 Y-57.502 Z0.000
G1 X30.708 Y-57.545 Z0.000
G1 X30.742 Y-57.577 Z0.000
G1 X30.790 Y-57.595 Z0.000
G1 X30.849 Y-57.598 Z0.000
G1 X30.901 Y-57.586 Z0.000
G1 X30.943 Y-57.562 Z0.000
G1 X30.970 Y-57.529 Z0.000
G1 X30.977 Y-57.503 Z0.000
G1 X31.037 Y-57.503 Z0.000
G1 X31.041 Y-57.503 Z0.000
G0 X31.041 Y-57.503 Z4.000

(shape postamble)


(shape preamble)

G0 X31.358 Y-57.665 Z4.000
G1 X31.358 Y-57.665 Z0.000
G1 X31.358 Y-57.662 Z0.000
G1 X31.362 Y-57.720 Z0.000
G1 X31.388 Y-57.787 Z0.000
G1 X31.435 Y-57.831 Z0.000
G1 X31.503 Y-57.852 Z0.000
G1 X31.572 Y-57.850 Z0.000
G1 X31.623 Y-57.836 Z0.000
G1 X31.637 Y-57.774 Z0.000
G1 X31.604 Y-57.789 Z0.000
G1 X31.554 Y-57.799 Z0.000
G1 X31.502 Y-57.797 Z0.000
G1 X31.461 Y-57.777 Z0.000
G1 X31.434 Y-57.741 Z0.000
G1 X31.422 Y-57.685 Z0.000
G1 X31.422 Y-57.125 Z0.000
G1 X31.630 Y-57.125 Z0.000
G1 X31.630 Y-57.072 Z0.000
G1 X31.358 Y-57.072 Z0.000
G1 X31.358 Y-57.665 Z0.000
G1 X31.454 Y-56.931 Z0.000
G1 X31.454 Y-56.822 Z0.000
G1 X31.344 Y-56.822 Z0.000
G1 X31.344 Y-56.931 Z0.000
G1 X31.454 Y-56.931 Z0.000
G0 X31.454 Y-56.931 Z4.000

(shape postamble)


(shape preamble)

G0 X32.127 Y-57.637 Z4.000
G1 X32.127 Y-57.637 Z0.000
G1 X32.011 Y-57.637 Z0.000
G1 X32.011 Y-57.520 Z0.000
G1 X32.127 Y-57.520 Z0.000
G1 X32.127 Y-57.637 Z0.000
G0 X32.127 Y-57.637 Z4.000

(shape postamble)


(shape preamble)

G0 X32.854 Y-57.460 Z4.000
G1 X32.854 Y-57.460 Z0.000
G1 X32.911 Y-57.488 Z0.000
G1 X32.877 Y-57.558 Z0.000
G1 X32.820 Y-57.612 Z0.000
G1 X32.745 Y-57.643 Z0.000
G1 X32.650 Y-57.647 Z0.000
G1 X32.561 Y-57.619 Z0.000
G1 X32.494 Y-57.561 Z0.000
G1 X32.455 Y-57.479 Z0.000
G1 X32.449 Y-57.381 Z0.000
G1 X32.476 Y-57.294 Z0.000
G1 X32.532 Y-57.227 Z0.000
G1 X32.609 Y-57.188 Z0.000
G1 X32.699 Y-57.182 Z0.000
G1 X32.774 Y-57.206 Z0.000
G1 X32.815 Y-57.238 Z0.000
G1 X32.819 Y-57.238 Z0.000
G1 X32.791 Y-56.967 Z0.000
G1 X32.484 Y-56.967 Z0.000
G1 X32.484 Y-56.910 Z0.000
G1 X32.844 Y-56.910 Z0.000
G1 X32.886 Y-57.309 Z0.000
G1 X32.826 Y-57.303 Z0.000
G1 X32.798 Y-57.273 Z0.000
G1 X32.762 Y-57.252 Z0.000
G1 X32.719 Y-57.240 Z0.000
G1 X32.663 Y-57.238 Z0.000
G1 X32.596 Y-57.261 Z0.000
G1 X32.546 Y-57.306 Z0.000
G1 X32.517 Y-57.369 Z0.000
G1 X32.512 Y-57.444 Z0.000
G1 X32.534 Y-57.510 Z0.000
G1 X32.577 Y-57.560 Z0.000
G1 X32.637 Y-57.590 Z0.000
G1 X32.706 Y-57.595 Z0.000
G1 X32.764 Y-57.579 Z0.000
G1 X32.810 Y-57.547 Z0.000
G1 X32.840 Y-57.501 Z0.000
G1 X32.847 Y-57.464 Z0.000
G1 X32.854 Y-57.460 Z0.000
G0 X32.854 Y-57.460 Z4.000

(shape postamble)


(shape preamble)

G0 X33.447 Y-57.249 Z4.000
G1 X33.447 Y-57.249 Z0.000
G1 X33.447 Y-57.252 Z0.000
G1 X33.235 Y-57.252 Z0.000
G1 X33.198 Y-57.249 Z0.000
G1 X33.152 Y-57.226 Z0.000
G1 X33.120 Y-57.185 Z0.000
G1 X33.105 Y-57.130 Z0.000
G1 X33.108 Y-57.066 Z0.000
G1 X33.129 Y-57.015 Z0.000
G1 X33.166 Y-56.980 Z0.000
G1 X33.216 Y-56.963 Z0.000
G1 X33.447 Y-56.963 Z0.000
G1 X33.447 Y-57.249 Z0.000
G1 X33.510 Y-57.637 Z0.000
G1 X33.514 Y-57.637 Z0.000
G1 X33.514 Y-56.907 Z0.000
G1 X33.242 Y-56.907 Z0.000
G1 X33.185 Y-56.912 Z0.000
G1 X33.114 Y-56.946 Z0.000
G1 X33.065 Y-57.003 Z0.000
G1 X33.041 Y-57.079 Z0.000
G1 X33.046 Y-57.164 Z0.000
G1 X33.080 Y-57.234 Z0.000
G1 X33.137 Y-57.284 Z0.000
G1 X33.213 Y-57.309 Z0.000
G1 X33.447 Y-57.309 Z0.000
G1 X33.447 Y-57.637 Z0.000
G1 X33.510 Y-57.637 Z0.000
G0 X33.510 Y-57.637 Z4.000

(shape postamble)


(shape preamble)

G0 X34.170 Y-57.813 Z4.000
G1 X34.170 Y-57.813 Z0.000
G1 X34.107 Y-57.813 Z0.000
G1 X33.669 Y-56.811 Z0.000
G1 X33.733 Y-56.811 Z0.000
G1 X34.170 Y-57.813 Z0.000
G0 X34.170 Y-57.813 Z4.000

(shape postamble)


(shape preamble)

G0 X34.392 Y-57.513 Z4.000
G1 X34.392 Y-57.513 Z0.000
G1 X34.392 Y-57.676 Z0.000
G1 X34.411 Y-57.731 Z0.000
G1 X34.449 Y-57.774 Z0.000
G1 X34.501 Y-57.799 Z0.000
G1 X34.563 Y-57.803 Z0.000
G1 X34.615 Y-57.789 Z0.000
G1 X34.656 Y-57.761 Z0.000
G1 X34.684 Y-57.722 Z0.000
G1 X34.692 Y-57.690 Z0.000
G1 X34.754 Y-57.714 Z0.000
G1 X34.724 Y-57.778 Z0.000
G1 X34.671 Y-57.826 Z0.000
G1 X34.601 Y-57.855 Z0.000
G1 X34.517 Y-57.859 Z0.000
G1 X34.436 Y-57.833 Z0.000
G1 X34.374 Y-57.782 Z0.000
G1 X34.338 Y-57.711 Z0.000
G1 X34.332 Y-57.655 Z0.000
G1 X34.332 Y-57.072 Z0.000
G1 X34.389 Y-57.072 Z0.000
G1 X34.389 Y-57.175 Z0.000
G1 X34.401 Y-57.157 Z0.000
G1 X34.434 Y-57.113 Z0.000
G1 X34.475 Y-57.082 Z0.000
G1 X34.522 Y-57.064 Z0.000
G1 X34.574 Y-57.062 Z0.000
G1 X34.617 Y-57.071 Z0.000
G1 X34.670 Y-57.097 Z0.000
G1 X34.731 Y-57.166 Z0.000
G1 X34.768 Y-57.262 Z0.000
G1 X34.773 Y-57.376 Z0.000
G1 X34.746 Y-57.479 Z0.000
G1 X34.691 Y-57.557 Z0.000
G1 X34.628 Y-57.598 Z0.000
G1 X34.585 Y-57.610 Z0.000
G1 X34.537 Y-57.612 Z0.000
G1 X34.490 Y-57.600 Z0.000
G1 X34.449 Y-57.576 Z0.000
G1 X34.415 Y-57.540 Z0.000
G1 X34.396 Y-57.510 Z0.000
G1 X34.392 Y-57.513 Z0.000
G1 X34.574 Y-57.559 Z0.000
G1 X34.634 Y-57.531 Z0.000
G1 X34.679 Y-57.476 Z0.000
G1 X34.706 Y-57.399 Z0.000
G1 X34.710 Y-57.305 Z0.000
G1 X34.690 Y-57.222 Z0.000
G1 X34.651 Y-57.158 Z0.000
G1 X34.595 Y-57.121 Z0.000
G1 X34.528 Y-57.115 Z0.000
G1 X34.468 Y-57.143 Z0.000
G1 X34.423 Y-57.198 Z0.000
G1 X34.397 Y-57.275 Z0.000
G1 X34.392 Y-57.369 Z0.000
G1 X34.412 Y-57.452 Z0.000
G1 X34.451 Y-57.516 Z0.000
G1 X34.507 Y-57.553 Z0.000
G1 X34.551 Y-57.559 Z0.000
G0 X34.551 Y-57.559 Z4.000

(shape postamble)


(shape preamble)

G0 X35.345 Y-57.637 Z4.000
G1 X35.345 Y-57.637 Z0.000
G1 X35.281 Y-57.637 Z0.000
G1 X35.281 Y-57.283 Z0.000
G1 X35.263 Y-57.208 Z0.000
G1 X35.225 Y-57.152 Z0.000
G1 X35.172 Y-57.120 Z0.000
G1 X35.111 Y-57.115 Z0.000
G1 X35.064 Y-57.132 Z0.000
G1 X35.029 Y-57.167 Z0.000
G1 X35.009 Y-57.217 Z0.000
G1 X35.006 Y-57.259 Z0.000
G1 X35.006 Y-57.637 Z0.000
G1 X34.943 Y-57.637 Z0.000
G1 X34.943 Y-57.227 Z0.000
G1 X34.964 Y-57.153 Z0.000
G1 X35.007 Y-57.098 Z0.000
G1 X35.068 Y-57.067 Z0.000
G1 X35.138 Y-57.062 Z0.000
G1 X35.188 Y-57.074 Z0.000
G1 X35.232 Y-57.099 Z0.000
G1 X35.267 Y-57.136 Z0.000
G1 X35.285 Y-57.168 Z0.000
G1 X35.285 Y-57.072 Z0.000
G1 X35.341 Y-57.072 Z0.000
G1 X35.341 Y-57.637 Z0.000
G1 X35.345 Y-57.637 Z0.000
G0 X35.345 Y-57.637 Z4.000

(shape postamble)


(shape preamble)

G0 X35.687 Y-57.072 Z4.000
G1 X35.687 Y-57.072 Z0.000
G1 X35.687 Y-57.069 Z0.000
G1 X35.687 Y-57.633 Z0.000
G1 X35.751 Y-57.633 Z0.000
G1 X35.751 Y-57.125 Z0.000
G1 X35.948 Y-57.125 Z0.000
G1 X35.948 Y-57.072 Z0.000
G1 X35.687 Y-57.072 Z0.000
G1 X35.786 Y-56.931 Z0.000
G1 X35.786 Y-56.822 Z0.000
G1 X35.676 Y-56.822 Z0.000
G1 X35.676 Y-56.931 Z0.000
G1 X35.786 Y-56.931 Z0.000
G0 X35.786 Y-56.931 Z4.000

(shape postamble)


(shape preamble)

G0 X36.590 Y-57.503 Z4.000
G1 X36.590 Y-57.503 Z0.000
G1 X36.588 Y-57.524 Z0.000
G1 X36.559 Y-57.580 Z0.000
G1 X36.507 Y-57.624 Z0.000
G1 X36.437 Y-57.650 Z0.000
G1 X36.354 Y-57.655 Z0.000
G1 X36.279 Y-57.634 Z0.000
G1 X36.221 Y-57.591 Z0.000
G1 X36.186 Y-57.531 Z0.000
G1 X36.181 Y-57.460 Z0.000
G1 X36.199 Y-57.409 Z0.000
G1 X36.239 Y-57.370 Z0.000
G1 X36.303 Y-57.342 Z0.000
G1 X36.361 Y-57.330 Z0.000
G1 X36.407 Y-57.326 Z0.000
G1 X36.455 Y-57.309 Z0.000
G1 X36.487 Y-57.286 Z0.000
G1 X36.503 Y-57.256 Z0.000
G1 X36.505 Y-57.215 Z0.000
G1 X36.490 Y-57.174 Z0.000
G1 X36.459 Y-57.143 Z0.000
G1 X36.414 Y-57.125 Z0.000
G1 X36.361 Y-57.122 Z0.000
G1 X36.313 Y-57.133 Z0.000
G1 X36.276 Y-57.156 Z0.000
G1 X36.251 Y-57.188 Z0.000
G1 X36.244 Y-57.214 Z0.000
G1 X36.186 Y-57.192 Z0.000
G1 X36.214 Y-57.138 Z0.000
G1 X36.264 Y-57.097 Z0.000
G1 X36.330 Y-57.073 Z0.000
G1 X36.408 Y-57.069 Z0.000
G1 X36.477 Y-57.090 Z0.000
G1 X36.530 Y-57.131 Z0.000
G1 X36.561 Y-57.189 Z0.000
G1 X36.565 Y-57.256 Z0.000
G1 X36.547 Y-57.308 Z0.000
G1 X36.507 Y-57.347 Z0.000
G1 X36.443 Y-57.374 Z0.000
G1 X36.386 Y-57.386 Z0.000
G1 X36.339 Y-57.392 Z0.000
G1 X36.289 Y-57.409 Z0.000
G1 X36.256 Y-57.432 Z0.000
G1 X36.240 Y-57.460 Z0.000
G1 X36.237 Y-57.502 Z0.000
G1 X36.254 Y-57.545 Z0.000
G1 X36.288 Y-57.577 Z0.000
G1 X36.336 Y-57.595 Z0.000
G1 X36.394 Y-57.598 Z0.000
G1 X36.447 Y-57.586 Z0.000
G1 X36.489 Y-57.562 Z0.000
G1 X36.516 Y-57.529 Z0.000
G1 X36.523 Y-57.503 Z0.000
G1 X36.583 Y-57.503 Z0.000
G1 X36.590 Y-57.503 Z0.000
G0 X36.590 Y-57.503 Z4.000

(shape postamble)


(shape preamble)

G0 X37.204 Y-57.503 Z4.000
G1 X37.204 Y-57.503 Z0.000
G1 X37.202 Y-57.524 Z0.000
G1 X37.173 Y-57.580 Z0.000
G1 X37.121 Y-57.624 Z0.000
G1 X37.051 Y-57.650 Z0.000
G1 X36.968 Y-57.655 Z0.000
G1 X36.893 Y-57.634 Z0.000
G1 X36.835 Y-57.591 Z0.000
G1 X36.800 Y-57.531 Z0.000
G1 X36.795 Y-57.460 Z0.000
G1 X36.813 Y-57.409 Z0.000
G1 X36.853 Y-57.370 Z0.000
G1 X36.917 Y-57.342 Z0.000
G1 X36.975 Y-57.330 Z0.000
G1 X37.021 Y-57.326 Z0.000
G1 X37.069 Y-57.309 Z0.000
G1 X37.101 Y-57.286 Z0.000
G1 X37.117 Y-57.256 Z0.000
G1 X37.119 Y-57.215 Z0.000
G1 X37.104 Y-57.174 Z0.000
G1 X37.072 Y-57.143 Z0.000
G1 X37.028 Y-57.125 Z0.000
G1 X36.975 Y-57.122 Z0.000
G1 X36.928 Y-57.133 Z0.000
G1 X36.891 Y-57.156 Z0.000
G1 X36.866 Y-57.188 Z0.000
G1 X36.858 Y-57.214 Z0.000
G1 X36.800 Y-57.192 Z0.000
G1 X36.828 Y-57.138 Z0.000
G1 X36.878 Y-57.097 Z0.000
G1 X36.944 Y-57.073 Z0.000
G1 X37.022 Y-57.069 Z0.000
G1 X37.091 Y-57.090 Z0.000
G1 X37.144 Y-57.131 Z0.000
G1 X37.174 Y-57.189 Z0.000
G1 X37.179 Y-57.256 Z0.000
G1 X37.161 Y-57.308 Z0.000
G1 X37.121 Y-57.347 Z0.000
G1 X37.057 Y-57.374 Z0.000
G1 X36.999 Y-57.386 Z0.000
G1 X36.953 Y-57.392 Z0.000
G1 X36.902 Y-57.409 Z0.000
G1 X36.870 Y-57.432 Z0.000
G1 X36.853 Y-57.460 Z0.000
G1 X36.851 Y-57.502 Z0.000
G1 X36.868 Y-57.545 Z0.000
G1 X36.902 Y-57.577 Z0.000
G1 X36.950 Y-57.595 Z0.000
G1 X37.008 Y-57.598 Z0.000
G1 X37.061 Y-57.586 Z0.000
G1 X37.103 Y-57.562 Z0.000
G1 X37.130 Y-57.529 Z0.000
G1 X37.137 Y-57.503 Z0.000
G1 X37.197 Y-57.503 Z0.000
G1 X37.204 Y-57.503 Z0.000
G0 X37.204 Y-57.503 Z4.000

(shape postamble)


(shape preamble)

G0 X37.610 Y-57.118 Z4.000
G1 X37.610 Y-57.118 Z0.000
G1 X37.613 Y-57.118 Z0.000
G1 X37.657 Y-57.123 Z0.000
G1 X37.712 Y-57.153 Z0.000
G1 X37.754 Y-57.207 Z0.000
G1 X37.779 Y-57.280 Z0.000
G1 X37.447 Y-57.309 Z0.000
G1 X37.453 Y-57.255 Z0.000
G1 X37.481 Y-57.188 Z0.000
G1 X37.527 Y-57.141 Z0.000
G1 X37.587 Y-57.118 Z0.000
G1 X37.783 Y-57.362 Z0.000
G1 X37.783 Y-57.365 Z0.000
G1 X37.776 Y-57.431 Z0.000
G1 X37.745 Y-57.511 Z0.000
G1 X37.693 Y-57.567 Z0.000
G1 X37.623 Y-57.595 Z0.000
G1 X37.563 Y-57.593 Z0.000
G1 X37.520 Y-57.579 Z0.000
G1 X37.485 Y-57.555 Z0.000
G1 X37.460 Y-57.520 Z0.000
G1 X37.394 Y-57.506 Z0.000
G1 X37.410 Y-57.547 Z0.000
G1 X37.451 Y-57.598 Z0.000
G1 X37.507 Y-57.633 Z0.000
G1 X37.574 Y-57.651 Z0.000
G1 X37.635 Y-57.649 Z0.000
G1 X37.684 Y-57.636 Z0.000
G1 X37.728 Y-57.612 Z0.000
G1 X37.766 Y-57.580 Z0.000
G1 X37.816 Y-57.508 Z0.000
G1 X37.846 Y-57.397 Z0.000
G1 X37.840 Y-57.273 Z0.000
G1 X37.801 Y-57.172 Z0.000
G1 X37.734 Y-57.101 Z0.000
G1 X37.677 Y-57.074 Z0.000
G1 X37.630 Y-57.065 Z0.000
G1 X37.549 Y-57.072 Z0.000
G1 X37.470 Y-57.117 Z0.000
G1 X37.415 Y-57.193 Z0.000
G1 X37.387 Y-57.296 Z0.000
G1 X37.387 Y-57.362 Z0.000
G1 X37.783 Y-57.362 Z0.000
G0 X37.783 Y-57.362 Z4.000

(shape postamble)


(shape preamble)

G0 X38.065 Y-57.503 Z4.000
G1 X38.065 Y-57.503 Z0.000
G1 X38.069 Y-57.517 Z0.000
G1 X38.094 Y-57.552 Z0.000
G1 X38.130 Y-57.578 Z0.000
G1 X38.175 Y-57.592 Z0.000
G1 X38.238 Y-57.595 Z0.000
G1 X38.309 Y-57.566 Z0.000
G1 X38.362 Y-57.507 Z0.000
G1 X38.392 Y-57.425 Z0.000
G1 X38.396 Y-57.324 Z0.000
G1 X38.374 Y-57.234 Z0.000
G1 X38.329 Y-57.165 Z0.000
G1 X38.263 Y-57.125 Z0.000
G1 X38.193 Y-57.118 Z0.000
G1 X38.147 Y-57.129 Z0.000
G1 X38.110 Y-57.151 Z0.000
G1 X38.083 Y-57.183 Z0.000
G1 X38.072 Y-57.210 Z0.000
G1 X38.015 Y-57.188 Z0.000
G1 X38.046 Y-57.133 Z0.000
G1 X38.096 Y-57.092 Z0.000
G1 X38.161 Y-57.069 Z0.000
G1 X38.227 Y-57.065 Z0.000
G1 X38.278 Y-57.075 Z0.000
G1 X38.325 Y-57.094 Z0.000
G1 X38.365 Y-57.124 Z0.000
G1 X38.411 Y-57.174 Z0.000
G1 X38.453 Y-57.276 Z0.000
G1 X38.460 Y-57.401 Z0.000
G1 X38.429 Y-57.511 Z0.000
G1 X38.378 Y-57.581 Z0.000
G1 X38.339 Y-57.613 Z0.000
G1 X38.294 Y-57.636 Z0.000
G1 X38.245 Y-57.649 Z0.000
G1 X38.184 Y-57.651 Z0.000
G1 X38.114 Y-57.633 Z0.000
G1 X38.058 Y-57.598 Z0.000
G1 X38.020 Y-57.547 Z0.000
G1 X38.008 Y-57.506 Z0.000
G1 X38.068 Y-57.506 Z0.000
G1 X38.065 Y-57.503 Z0.000
G0 X38.065 Y-57.503 Z4.000

(shape postamble)


(shape preamble)

G0 X38.851 Y-57.591 Z4.000
G1 X38.851 Y-57.591 Z0.000
G1 X38.802 Y-57.585 Z0.000
G1 X38.741 Y-57.545 Z0.000
G1 X38.697 Y-57.478 Z0.000
G1 X38.675 Y-57.389 Z0.000
G1 X38.680 Y-57.288 Z0.000
G1 X38.709 Y-57.206 Z0.000
G1 X38.759 Y-57.147 Z0.000
G1 X38.826 Y-57.118 Z0.000
G1 X38.901 Y-57.124 Z0.000
G1 X38.962 Y-57.164 Z0.000
G1 X39.006 Y-57.231 Z0.000
G1 X39.028 Y-57.320 Z0.000
G1 X39.023 Y-57.421 Z0.000
G1 X38.995 Y-57.503 Z0.000
G1 X38.945 Y-57.562 Z0.000
G1 X38.878 Y-57.591 Z0.000
G1 X38.851 Y-57.647 Z0.000
G1 X38.885 Y-57.646 Z0.000
G1 X38.932 Y-57.633 Z0.000
G1 X39.002 Y-57.591 Z0.000
G1 X39.061 Y-57.507 Z0.000
G1 X39.091 Y-57.397 Z0.000
G1 X39.085 Y-57.273 Z0.000
G1 X39.044 Y-57.171 Z0.000
G1 X38.976 Y-57.098 Z0.000
G1 X38.917 Y-57.071 Z0.000
G1 X38.869 Y-57.062 Z0.000
G1 X38.818 Y-57.064 Z0.000
G1 X38.770 Y-57.077 Z0.000
G1 X38.701 Y-57.119 Z0.000
G1 X38.641 Y-57.202 Z0.000
G1 X38.612 Y-57.312 Z0.000
G1 X38.618 Y-57.436 Z0.000
G1 X38.657 Y-57.539 Z0.000
G1 X38.701 Y-57.589 Z0.000
G1 X38.740 Y-57.618 Z0.000
G1 X38.784 Y-57.638 Z0.000
G1 X38.834 Y-57.647 Z0.000
G1 X38.851 Y-57.647 Z0.000
G0 X38.851 Y-57.647 Z4.000

(shape postamble)


(shape preamble)

G0 X39.564 Y-57.637 Z4.000
G1 X39.564 Y-57.637 Z0.000
G1 X39.564 Y-57.284 Z0.000
G1 X39.546 Y-57.212 Z0.000
G1 X39.509 Y-57.158 Z0.000
G1 X39.456 Y-57.127 Z0.000
G1 X39.398 Y-57.122 Z0.000
G1 X39.361 Y-57.132 Z0.000
G1 X39.331 Y-57.152 Z0.000
G1 X39.310 Y-57.183 Z0.000
G1 X39.303 Y-57.210 Z0.000
G1 X39.242 Y-57.188 Z0.000
G1 X39.266 Y-57.133 Z0.000
G1 X39.306 Y-57.092 Z0.000
G1 X39.359 Y-57.069 Z0.000
G1 X39.420 Y-57.065 Z0.000
G1 X39.471 Y-57.078 Z0.000
G1 X39.514 Y-57.104 Z0.000
G1 X39.548 Y-57.141 Z0.000
G1 X39.564 Y-57.171 Z0.000
G1 X39.568 Y-57.171 Z0.000
G1 X39.568 Y-57.072 Z0.000
G1 X39.624 Y-57.072 Z0.000
G1 X39.624 Y-57.637 Z0.000
G1 X39.561 Y-57.637 Z0.000
G1 X39.564 Y-57.637 Z0.000
G0 X39.564 Y-57.637 Z4.000

(shape postamble)


(shape preamble)

G0 X40.291 Y-57.637 Z4.000
G1 X40.291 Y-57.637 Z0.000
G1 X40.227 Y-57.637 Z0.000
G1 X40.227 Y-57.309 Z0.000
G1 X39.994 Y-57.309 Z0.000
G1 X39.918 Y-57.284 Z0.000
G1 X39.861 Y-57.234 Z0.000
G1 X39.827 Y-57.164 Z0.000
G1 X39.822 Y-57.079 Z0.000
G1 X39.846 Y-57.003 Z0.000
G1 X39.895 Y-56.946 Z0.000
G1 X39.965 Y-56.912 Z0.000
G1 X40.023 Y-56.907 Z0.000
G1 X40.294 Y-56.907 Z0.000
G1 X40.294 Y-57.637 Z0.000
G1 X40.291 Y-57.637 Z0.000
G1 X40.227 Y-57.249 Z0.000
G1 X40.227 Y-56.963 Z0.000
G1 X39.996 Y-56.963 Z0.000
G1 X39.947 Y-56.980 Z0.000
G1 X39.910 Y-57.015 Z0.000
G1 X39.888 Y-57.066 Z0.000
G1 X39.885 Y-57.130 Z0.000
G1 X39.901 Y-57.185 Z0.000
G1 X39.933 Y-57.226 Z0.000
G1 X39.978 Y-57.249 Z0.000
G1 X40.016 Y-57.252 Z0.000
G1 X40.227 Y-57.252 Z0.000
G1 X40.227 Y-57.249 Z0.000
G0 X40.227 Y-57.249 Z4.000

(shape postamble)


(shape preamble)

G0 X41.515 Y-57.341 Z4.000
G1 X41.515 Y-57.341 Z0.000
G1 X41.120 Y-57.341 Z0.000
G1 X41.120 Y-57.284 Z0.000
G1 X41.515 Y-57.284 Z0.000
G1 X41.515 Y-57.341 Z0.000
G0 X41.515 Y-57.341 Z4.000

(shape postamble)


(shape preamble)

G0 X42.556 Y-57.457 Z4.000
G1 X42.556 Y-57.457 Z0.000
G1 X42.556 Y-57.129 Z0.000
G1 X42.351 Y-57.129 Z0.000
G1 X42.351 Y-57.076 Z0.000
G1 X42.556 Y-57.076 Z0.000
G1 X42.556 Y-56.900 Z0.000
G1 X42.619 Y-56.910 Z0.000
G1 X42.619 Y-57.076 Z0.000
G1 X42.785 Y-57.076 Z0.000
G1 X42.785 Y-57.129 Z0.000
G1 X42.619 Y-57.129 Z0.000
G1 X42.619 Y-57.488 Z0.000
G1 X42.601 Y-57.562 Z0.000
G1 X42.560 Y-57.615 Z0.000
G1 X42.499 Y-57.643 Z0.000
G1 X42.425 Y-57.647 Z0.000
G1 X42.373 Y-57.638 Z0.000
G1 X42.344 Y-57.623 Z0.000
G1 X42.360 Y-57.579 Z0.000
G1 X42.408 Y-57.593 Z0.000
G1 X42.462 Y-57.595 Z0.000
G1 X42.508 Y-57.580 Z0.000
G1 X42.540 Y-57.549 Z0.000
G1 X42.557 Y-57.500 Z0.000
G1 X42.559 Y-57.457 Z0.000
G1 X42.556 Y-57.457 Z0.000
G0 X42.556 Y-57.457 Z4.000

(shape postamble)


(shape preamble)

G0 X43.145 Y-57.118 Z4.000
G1 X43.145 Y-57.118 Z0.000
G1 X43.195 Y-57.124 Z0.000
G1 X43.257 Y-57.164 Z0.000
G1 X43.300 Y-57.231 Z0.000
G1 X43.321 Y-57.320 Z0.000
G1 X43.317 Y-57.421 Z0.000
G1 X43.287 Y-57.503 Z0.000
G1 X43.237 Y-57.562 Z0.000
G1 X43.170 Y-57.591 Z0.000
G1 X43.096 Y-57.585 Z0.000
G1 X43.035 Y-57.546 Z0.000
G1 X42.993 Y-57.480 Z0.000
G1 X42.972 Y-57.390 Z0.000
G1 X42.976 Y-57.287 Z0.000
G1 X43.005 Y-57.204 Z0.000
G1 X43.054 Y-57.147 Z0.000
G1 X43.119 Y-57.118 Z0.000
G1 X43.381 Y-57.072 Z0.000
G1 X43.381 Y-57.072 Z0.000
G1 X43.325 Y-57.072 Z0.000
G1 X43.325 Y-57.185 Z0.000
G1 X43.321 Y-57.185 Z0.000
G1 X43.302 Y-57.148 Z0.000
G1 X43.264 Y-57.105 Z0.000
G1 X43.217 Y-57.076 Z0.000
G1 X43.162 Y-57.062 Z0.000
G1 X43.108 Y-57.064 Z0.000
G1 X43.063 Y-57.077 Z0.000
G1 X42.997 Y-57.119 Z0.000
G1 X42.940 Y-57.202 Z0.000
G1 X42.912 Y-57.312 Z0.000
G1 X42.918 Y-57.436 Z0.000
G1 X42.956 Y-57.539 Z0.000
G1 X43.021 Y-57.611 Z0.000
G1 X43.077 Y-57.638 Z0.000
G1 X43.124 Y-57.647 Z0.000
G1 X43.179 Y-57.645 Z0.000
G1 X43.229 Y-57.627 Z0.000
G1 X43.271 Y-57.596 Z0.000
G1 X43.305 Y-57.552 Z0.000
G1 X43.318 Y-57.535 Z0.000
G1 X43.318 Y-57.845 Z0.000
G1 X43.381 Y-57.845 Z0.000
G1 X43.381 Y-57.072 Z0.000
G0 X43.381 Y-57.072 Z4.000

(shape postamble)


(shape preamble)

G0 X43.702 Y-57.072 Z4.000
G1 X43.702 Y-57.072 Z0.000
G1 X43.702 Y-57.069 Z0.000
G1 X43.702 Y-57.633 Z0.000
G1 X43.766 Y-57.633 Z0.000
G1 X43.766 Y-57.125 Z0.000
G1 X43.963 Y-57.125 Z0.000
G1 X43.963 Y-57.072 Z0.000
G1 X43.702 Y-57.072 Z0.000
G1 X43.801 Y-56.931 Z0.000
G1 X43.801 Y-56.822 Z0.000
G1 X43.692 Y-56.822 Z0.000
G1 X43.692 Y-56.931 Z0.000
G1 X43.801 Y-56.931 Z0.000
G0 X43.801 Y-56.931 Z4.000

(shape postamble)


(shape preamble)

G0 X44.499 Y-57.637 Z4.000
G1 X44.499 Y-57.637 Z0.000
G1 X44.499 Y-57.284 Z0.000
G1 X44.482 Y-57.212 Z0.000
G1 X44.445 Y-57.158 Z0.000
G1 X44.392 Y-57.127 Z0.000
G1 X44.334 Y-57.122 Z0.000
G1 X44.296 Y-57.132 Z0.000
G1 X44.266 Y-57.152 Z0.000
G1 X44.246 Y-57.183 Z0.000
G1 X44.238 Y-57.210 Z0.000
G1 X44.178 Y-57.188 Z0.000
G1 X44.201 Y-57.133 Z0.000
G1 X44.241 Y-57.092 Z0.000
G1 X44.295 Y-57.069 Z0.000
G1 X44.356 Y-57.065 Z0.000
G1 X44.406 Y-57.078 Z0.000
G1 X44.449 Y-57.104 Z0.000
G1 X44.483 Y-57.141 Z0.000
G1 X44.499 Y-57.171 Z0.000
G1 X44.503 Y-57.171 Z0.000
G1 X44.503 Y-57.072 Z0.000
G1 X44.559 Y-57.072 Z0.000
G1 X44.559 Y-57.637 Z0.000
G1 X44.496 Y-57.637 Z0.000
G1 X44.499 Y-57.637 Z0.000
G0 X44.499 Y-57.637 Z4.000

(shape postamble)


(shape preamble)

G0 X44.845 Y-57.503 Z4.000
G1 X44.845 Y-57.503 Z0.000
G1 X44.850 Y-57.517 Z0.000
G1 X44.874 Y-57.552 Z0.000
G1 X44.910 Y-57.578 Z0.000
G1 X44.955 Y-57.592 Z0.000
G1 X45.018 Y-57.595 Z0.000
G1 X45.089 Y-57.566 Z0.000
G1 X45.142 Y-57.507 Z0.000
G1 X45.172 Y-57.425 Z0.000
G1 X45.177 Y-57.324 Z0.000
G1 X45.155 Y-57.234 Z0.000
G1 X45.109 Y-57.165 Z0.000
G1 X45.044 Y-57.125 Z0.000
G1 X44.973 Y-57.118 Z0.000
G1 X44.928 Y-57.129 Z0.000
G1 X44.891 Y-57.151 Z0.000
G1 X44.863 Y-57.183 Z0.000
G1 X44.852 Y-57.210 Z0.000
G1 X44.796 Y-57.188 Z0.000
G1 X44.827 Y-57.133 Z0.000
G1 X44.877 Y-57.092 Z0.000
G1 X44.941 Y-57.069 Z0.000
G1 X45.008 Y-57.065 Z0.000
G1 X45.059 Y-57.075 Z0.000
G1 X45.104 Y-57.094 Z0.000
G1 X45.145 Y-57.124 Z0.000
G1 X45.189 Y-57.174 Z0.000
G1 X45.230 Y-57.276 Z0.000
G1 X45.237 Y-57.401 Z0.000
G1 X45.206 Y-57.511 Z0.000
G1 X45.155 Y-57.581 Z0.000
G1 X45.116 Y-57.613 Z0.000
G1 X45.071 Y-57.636 Z0.000
G1 X45.022 Y-57.649 Z0.000
G1 X44.961 Y-57.651 Z0.000
G1 X44.891 Y-57.633 Z0.000
G1 X44.835 Y-57.598 Z0.000
G1 X44.797 Y-57.547 Z0.000
G1 X44.785 Y-57.506 Z0.000
G1 X44.845 Y-57.506 Z0.000
G1 X44.845 Y-57.503 Z0.000
G0 X44.845 Y-57.503 Z4.000

(shape postamble)


(shape preamble)

G0 X45.836 Y-57.503 Z4.000
G1 X45.836 Y-57.503 Z0.000
G1 X45.835 Y-57.524 Z0.000
G1 X45.806 Y-57.580 Z0.000
G1 X45.754 Y-57.624 Z0.000
G1 X45.683 Y-57.650 Z0.000
G1 X45.599 Y-57.655 Z0.000
G1 X45.523 Y-57.634 Z0.000
G1 X45.466 Y-57.591 Z0.000
G1 X45.433 Y-57.531 Z0.000
G1 X45.427 Y-57.460 Z0.000
G1 X45.445 Y-57.409 Z0.000
G1 X45.486 Y-57.370 Z0.000
G1 X45.550 Y-57.342 Z0.000
G1 X45.607 Y-57.330 Z0.000
G1 X45.653 Y-57.326 Z0.000
G1 X45.702 Y-57.309 Z0.000
G1 X45.733 Y-57.286 Z0.000
G1 X45.750 Y-57.256 Z0.000
G1 X45.752 Y-57.215 Z0.000
G1 X45.737 Y-57.174 Z0.000
G1 X45.706 Y-57.143 Z0.000
G1 X45.662 Y-57.125 Z0.000
G1 X45.607 Y-57.122 Z0.000
G1 X45.560 Y-57.133 Z0.000
G1 X45.522 Y-57.156 Z0.000
G1 X45.497 Y-57.188 Z0.000
G1 X45.491 Y-57.214 Z0.000
G1 X45.433 Y-57.192 Z0.000
G1 X45.460 Y-57.138 Z0.000
G1 X45.510 Y-57.097 Z0.000
G1 X45.577 Y-57.073 Z0.000
G1 X45.655 Y-57.069 Z0.000
G1 X45.724 Y-57.090 Z0.000
G1 X45.776 Y-57.131 Z0.000
G1 X45.807 Y-57.189 Z0.000
G1 X45.812 Y-57.256 Z0.000
G1 X45.794 Y-57.308 Z0.000
G1 X45.753 Y-57.347 Z0.000
G1 X45.689 Y-57.374 Z0.000
G1 X45.632 Y-57.386 Z0.000
G1 X45.585 Y-57.392 Z0.000
G1 X45.535 Y-57.409 Z0.000
G1 X45.502 Y-57.432 Z0.000
G1 X45.486 Y-57.460 Z0.000
G1 X45.484 Y-57.502 Z0.000
G1 X45.500 Y-57.545 Z0.000
G1 X45.534 Y-57.577 Z0.000
G1 X45.582 Y-57.595 Z0.000
G1 X45.641 Y-57.598 Z0.000
G1 X45.693 Y-57.586 Z0.000
G1 X45.735 Y-57.562 Z0.000
G1 X45.762 Y-57.529 Z0.000
G1 X45.769 Y-57.503 Z0.000
G1 X45.833 Y-57.503 Z0.000
G1 X45.836 Y-57.503 Z0.000
G0 X45.836 Y-57.503 Z4.000

(shape postamble)


(shape preamble)

G0 X46.242 Y-57.118 Z4.000
G1 X46.242 Y-57.118 Z0.000
G1 X46.286 Y-57.123 Z0.000
G1 X46.341 Y-57.153 Z0.000
G1 X46.383 Y-57.207 Z0.000
G1 X46.408 Y-57.280 Z0.000
G1 X46.080 Y-57.309 Z0.000
G1 X46.086 Y-57.255 Z0.000
G1 X46.114 Y-57.188 Z0.000
G1 X46.159 Y-57.141 Z0.000
G1 X46.219 Y-57.118 Z0.000
G1 X46.415 Y-57.362 Z0.000
G1 X46.419 Y-57.365 Z0.000
G1 X46.412 Y-57.431 Z0.000
G1 X46.381 Y-57.511 Z0.000
G1 X46.329 Y-57.567 Z0.000
G1 X46.259 Y-57.595 Z0.000
G1 X46.199 Y-57.593 Z0.000
G1 X46.156 Y-57.579 Z0.000
G1 X46.121 Y-57.555 Z0.000
G1 X46.096 Y-57.520 Z0.000
G1 X46.030 Y-57.506 Z0.000
G1 X46.045 Y-57.547 Z0.000
G1 X46.084 Y-57.598 Z0.000
G1 X46.140 Y-57.633 Z0.000
G1 X46.207 Y-57.651 Z0.000
G1 X46.267 Y-57.649 Z0.000
G1 X46.316 Y-57.636 Z0.000
G1 X46.360 Y-57.612 Z0.000
G1 X46.398 Y-57.580 Z0.000
G1 X46.448 Y-57.508 Z0.000
G1 X46.479 Y-57.397 Z0.000
G1 X46.472 Y-57.273 Z0.000
G1 X46.433 Y-57.172 Z0.000
G1 X46.367 Y-57.101 Z0.000
G1 X46.310 Y-57.074 Z0.000
G1 X46.262 Y-57.065 Z0.000
G1 X46.181 Y-57.072 Z0.000
G1 X46.102 Y-57.117 Z0.000
G1 X46.047 Y-57.193 Z0.000
G1 X46.020 Y-57.296 Z0.000
G1 X46.020 Y-57.362 Z0.000
G1 X46.415 Y-57.362 Z0.000
G0 X46.415 Y-57.362 Z4.000

(shape postamble)


(shape preamble)

G0 X46.842 Y-57.118 Z4.000
G1 X46.842 Y-57.118 Z0.000
G1 X46.891 Y-57.124 Z0.000
G1 X46.953 Y-57.164 Z0.000
G1 X46.997 Y-57.231 Z0.000
G1 X47.018 Y-57.320 Z0.000
G1 X47.013 Y-57.421 Z0.000
G1 X46.983 Y-57.503 Z0.000
G1 X46.932 Y-57.562 Z0.000
G1 X46.867 Y-57.591 Z0.000
G1 X46.794 Y-57.585 Z0.000
G1 X46.735 Y-57.546 Z0.000
G1 X46.693 Y-57.480 Z0.000
G1 X46.673 Y-57.390 Z0.000
G1 X46.677 Y-57.287 Z0.000
G1 X46.704 Y-57.204 Z0.000
G1 X46.752 Y-57.147 Z0.000
G1 X46.816 Y-57.118 Z0.000
G1 X47.078 Y-57.072 Z0.000
G1 X47.075 Y-57.072 Z0.000
G1 X47.018 Y-57.072 Z0.000
G1 X47.018 Y-57.185 Z0.000
G1 X47.015 Y-57.185 Z0.000
G1 X46.995 Y-57.148 Z0.000
G1 X46.957 Y-57.105 Z0.000
G1 X46.910 Y-57.076 Z0.000
G1 X46.855 Y-57.062 Z0.000
G1 X46.802 Y-57.064 Z0.000
G1 X46.756 Y-57.077 Z0.000
G1 X46.690 Y-57.119 Z0.000
G1 X46.634 Y-57.202 Z0.000
G1 X46.606 Y-57.312 Z0.000
G1 X46.611 Y-57.436 Z0.000
G1 X46.650 Y-57.539 Z0.000
G1 X46.715 Y-57.611 Z0.000
G1 X46.771 Y-57.638 Z0.000
G1 X46.818 Y-57.647 Z0.000
G1 X46.873 Y-57.645 Z0.000
G1 X46.923 Y-57.627 Z0.000
G1 X46.965 Y-57.596 Z0.000
G1 X46.999 Y-57.552 Z0.000
G1 X47.015 Y-57.535 Z0.000
G1 X47.015 Y-57.845 Z0.000
G1 X47.078 Y-57.845 Z0.000
G1 X47.078 Y-57.072 Z0.000
G0 X47.078 Y-57.072 Z4.000

(shape postamble)


(shape preamble)

G0 X47.720 Y-57.785 Z4.000
G1 X47.720 Y-57.785 Z0.000
G1 X47.692 Y-57.845 Z0.000
G1 X47.629 Y-57.849 Z0.000
G1 X47.574 Y-57.833 Z0.000
G1 X47.528 Y-57.797 Z0.000
G1 X47.490 Y-57.741 Z0.000
G1 X47.470 Y-57.690 Z0.000
G1 X47.241 Y-57.069 Z0.000
G1 X47.304 Y-57.069 Z0.000
G1 X47.477 Y-57.552 Z0.000
G1 X47.480 Y-57.552 Z0.000
G1 X47.653 Y-57.069 Z0.000
G1 X47.720 Y-57.069 Z0.000
G1 X47.512 Y-57.633 Z0.000
G1 X47.534 Y-57.691 Z0.000
G1 X47.561 Y-57.741 Z0.000
G1 X47.592 Y-57.773 Z0.000
G1 X47.630 Y-57.790 Z0.000
G1 X47.681 Y-57.792 Z0.000
G1 X47.720 Y-57.782 Z0.000
G1 X47.720 Y-57.785 Z0.000
G0 X47.720 Y-57.785 Z4.000

(shape postamble)


(shape preamble)

G0 X48.130 Y-57.637 Z4.000
G1 X48.130 Y-57.637 Z0.000
G1 X48.066 Y-57.637 Z0.000
G1 X48.066 Y-56.963 Z0.000
G1 X47.837 Y-56.963 Z0.000
G1 X47.837 Y-56.903 Z0.000
G1 X48.359 Y-56.903 Z0.000
G1 X48.359 Y-56.963 Z0.000
G1 X48.130 Y-56.963 Z0.000
G1 X48.130 Y-57.637 Z0.000
G1 X48.130 Y-57.637 Z0.000
G0 X48.130 Y-57.637 Z4.000

(shape postamble)


(shape preamble)

G0 X48.966 Y-57.813 Z4.000
G1 X48.966 Y-57.813 Z0.000
G1 X48.902 Y-57.813 Z0.000
G1 X48.465 Y-56.811 Z0.000
G1 X48.528 Y-56.811 Z0.000
G1 X48.966 Y-57.813 Z0.000
G0 X48.966 Y-57.813 Z4.000

(shape postamble)


(shape preamble)

G0 X49.336 Y-57.457 Z4.000
G1 X49.336 Y-57.457 Z0.000
G1 X49.336 Y-57.129 Z0.000
G1 X49.131 Y-57.129 Z0.000
G1 X49.131 Y-57.076 Z0.000
G1 X49.336 Y-57.076 Z0.000
G1 X49.336 Y-56.900 Z0.000
G1 X49.400 Y-56.910 Z0.000
G1 X49.400 Y-57.076 Z0.000
G1 X49.565 Y-57.076 Z0.000
G1 X49.565 Y-57.129 Z0.000
G1 X49.400 Y-57.129 Z0.000
G1 X49.400 Y-57.488 Z0.000
G1 X49.381 Y-57.562 Z0.000
G1 X49.341 Y-57.615 Z0.000
G1 X49.280 Y-57.643 Z0.000
G1 X49.205 Y-57.647 Z0.000
G1 X49.151 Y-57.638 Z0.000
G1 X49.121 Y-57.623 Z0.000
G1 X49.137 Y-57.579 Z0.000
G1 X49.185 Y-57.593 Z0.000
G1 X49.239 Y-57.595 Z0.000
G1 X49.285 Y-57.580 Z0.000
G1 X49.317 Y-57.549 Z0.000
G1 X49.334 Y-57.500 Z0.000
G1 X49.336 Y-57.457 Z0.000
G1 X49.336 Y-57.457 Z0.000
G0 X49.336 Y-57.457 Z4.000

(shape postamble)


(shape preamble)

G0 X49.925 Y-57.118 Z4.000
G1 X49.925 Y-57.118 Z0.000
G1 X49.975 Y-57.124 Z0.000
G1 X50.036 Y-57.164 Z0.000
G1 X50.080 Y-57.231 Z0.000
G1 X50.102 Y-57.320 Z0.000
G1 X50.097 Y-57.421 Z0.000
G1 X50.067 Y-57.503 Z0.000
G1 X50.017 Y-57.562 Z0.000
G1 X49.951 Y-57.591 Z0.000
G1 X49.876 Y-57.585 Z0.000
G1 X49.816 Y-57.546 Z0.000
G1 X49.773 Y-57.480 Z0.000
G1 X49.752 Y-57.390 Z0.000
G1 X49.757 Y-57.287 Z0.000
G1 X49.785 Y-57.204 Z0.000
G1 X49.834 Y-57.147 Z0.000
G1 X49.900 Y-57.118 Z0.000
G1 X50.162 Y-57.072 Z0.000
G1 X50.158 Y-57.072 Z0.000
G1 X50.102 Y-57.072 Z0.000
G1 X50.102 Y-57.185 Z0.000
G1 X50.098 Y-57.185 Z0.000
G1 X50.079 Y-57.148 Z0.000
G1 X50.040 Y-57.105 Z0.000
G1 X49.993 Y-57.076 Z0.000
G1 X49.938 Y-57.062 Z0.000
G1 X49.885 Y-57.064 Z0.000
G1 X49.840 Y-57.077 Z0.000
G1 X49.773 Y-57.119 Z0.000
G1 X49.717 Y-57.202 Z0.000
G1 X49.689 Y-57.312 Z0.000
G1 X49.695 Y-57.436 Z0.000
G1 X49.733 Y-57.539 Z0.000
G1 X49.798 Y-57.611 Z0.000
G1 X49.854 Y-57.638 Z0.000
G1 X49.901 Y-57.647 Z0.000
G1 X49.956 Y-57.645 Z0.000
G1 X50.006 Y-57.627 Z0.000
G1 X50.048 Y-57.596 Z0.000
G1 X50.082 Y-57.552 Z0.000
G1 X50.098 Y-57.535 Z0.000
G1 X50.098 Y-57.845 Z0.000
G1 X50.162 Y-57.845 Z0.000
G1 X50.162 Y-57.072 Z0.000
G0 X50.162 Y-57.072 Z4.000

(shape postamble)


(shape preamble)

G0 X50.483 Y-57.072 Z4.000
G1 X50.483 Y-57.072 Z0.000
G1 X50.483 Y-57.069 Z0.000
G1 X50.483 Y-57.633 Z0.000
G1 X50.546 Y-57.633 Z0.000
G1 X50.546 Y-57.125 Z0.000
G1 X50.744 Y-57.125 Z0.000
G1 X50.744 Y-57.072 Z0.000
G1 X50.483 Y-57.072 Z0.000
G1 X50.581 Y-56.931 Z0.000
G1 X50.581 Y-56.822 Z0.000
G1 X50.472 Y-56.822 Z0.000
G1 X50.472 Y-56.931 Z0.000
G1 X50.581 Y-56.931 Z0.000
G0 X50.581 Y-56.931 Z4.000

(shape postamble)


(shape preamble)

G0 X51.280 Y-57.637 Z4.000
G1 X51.280 Y-57.637 Z0.000
G1 X51.280 Y-57.284 Z0.000
G1 X51.262 Y-57.212 Z0.000
G1 X51.225 Y-57.158 Z0.000
G1 X51.172 Y-57.127 Z0.000
G1 X51.114 Y-57.122 Z0.000
G1 X51.077 Y-57.132 Z0.000
G1 X51.047 Y-57.152 Z0.000
G1 X51.026 Y-57.183 Z0.000
G1 X51.019 Y-57.210 Z0.000
G1 X50.958 Y-57.188 Z0.000
G1 X50.981 Y-57.133 Z0.000
G1 X51.021 Y-57.092 Z0.000
G1 X51.075 Y-57.069 Z0.000
G1 X51.136 Y-57.065 Z0.000
G1 X51.187 Y-57.078 Z0.000
G1 X51.230 Y-57.104 Z0.000
G1 X51.264 Y-57.141 Z0.000
G1 X51.280 Y-57.171 Z0.000
G1 X51.283 Y-57.171 Z0.000
G1 X51.283 Y-57.072 Z0.000
G1 X51.340 Y-57.072 Z0.000
G1 X51.340 Y-57.637 Z0.000
G1 X51.276 Y-57.637 Z0.000
G1 X51.280 Y-57.637 Z0.000
G0 X51.280 Y-57.637 Z4.000

(shape postamble)


(shape preamble)

G0 X51.626 Y-57.503 Z4.000
G1 X51.626 Y-57.503 Z0.000
G1 X51.630 Y-57.517 Z0.000
G1 X51.655 Y-57.552 Z0.000
G1 X51.691 Y-57.578 Z0.000
G1 X51.736 Y-57.592 Z0.000
G1 X51.798 Y-57.595 Z0.000
G1 X51.870 Y-57.566 Z0.000
G1 X51.922 Y-57.507 Z0.000
G1 X51.953 Y-57.425 Z0.000
G1 X51.957 Y-57.324 Z0.000
G1 X51.935 Y-57.234 Z0.000
G1 X51.890 Y-57.165 Z0.000
G1 X51.824 Y-57.125 Z0.000
G1 X51.753 Y-57.118 Z0.000
G1 X51.708 Y-57.129 Z0.000
G1 X51.671 Y-57.151 Z0.000
G1 X51.644 Y-57.183 Z0.000
G1 X51.633 Y-57.210 Z0.000
G1 X51.576 Y-57.188 Z0.000
G1 X51.607 Y-57.133 Z0.000
G1 X51.657 Y-57.092 Z0.000
G1 X51.722 Y-57.069 Z0.000
G1 X51.788 Y-57.065 Z0.000
G1 X51.839 Y-57.075 Z0.000
G1 X51.885 Y-57.094 Z0.000
G1 X51.925 Y-57.124 Z0.000
G1 X51.970 Y-57.174 Z0.000
G1 X52.011 Y-57.276 Z0.000
G1 X52.017 Y-57.401 Z0.000
G1 X51.986 Y-57.511 Z0.000
G1 X51.935 Y-57.581 Z0.000
G1 X51.896 Y-57.613 Z0.000
G1 X51.852 Y-57.636 Z0.000
G1 X51.802 Y-57.649 Z0.000
G1 X51.741 Y-57.651 Z0.000
G1 X51.672 Y-57.633 Z0.000
G1 X51.615 Y-57.598 Z0.000
G1 X51.577 Y-57.547 Z0.000
G1 X51.566 Y-57.506 Z0.000
G1 X51.626 Y-57.506 Z0.000
G1 X51.626 Y-57.503 Z0.000
G0 X51.626 Y-57.503 Z4.000

(shape postamble)


(shape preamble)

G0 X52.617 Y-57.503 Z4.000
G1 X52.617 Y-57.503 Z0.000
G1 X52.615 Y-57.524 Z0.000
G1 X52.586 Y-57.580 Z0.000
G1 X52.534 Y-57.624 Z0.000
G1 X52.464 Y-57.650 Z0.000
G1 X52.380 Y-57.655 Z0.000
G1 X52.304 Y-57.634 Z0.000
G1 X52.247 Y-57.591 Z0.000
G1 X52.213 Y-57.531 Z0.000
G1 X52.208 Y-57.460 Z0.000
G1 X52.226 Y-57.409 Z0.000
G1 X52.266 Y-57.370 Z0.000
G1 X52.330 Y-57.342 Z0.000
G1 X52.388 Y-57.330 Z0.000
G1 X52.433 Y-57.326 Z0.000
G1 X52.482 Y-57.309 Z0.000
G1 X52.514 Y-57.286 Z0.000
G1 X52.530 Y-57.256 Z0.000
G1 X52.532 Y-57.215 Z0.000
G1 X52.517 Y-57.174 Z0.000
G1 X52.487 Y-57.143 Z0.000
G1 X52.442 Y-57.125 Z0.000
G1 X52.388 Y-57.122 Z0.000
G1 X52.341 Y-57.133 Z0.000
G1 X52.304 Y-57.156 Z0.000
G1 X52.279 Y-57.188 Z0.000
G1 X52.271 Y-57.214 Z0.000
G1 X52.213 Y-57.192 Z0.000
G1 X52.241 Y-57.138 Z0.000
G1 X52.291 Y-57.097 Z0.000
G1 X52.357 Y-57.073 Z0.000
G1 X52.435 Y-57.069 Z0.000
G1 X52.504 Y-57.090 Z0.000
G1 X52.556 Y-57.131 Z0.000
G1 X52.587 Y-57.189 Z0.000
G1 X52.592 Y-57.256 Z0.000
G1 X52.574 Y-57.308 Z0.000
G1 X52.534 Y-57.347 Z0.000
G1 X52.470 Y-57.374 Z0.000
G1 X52.412 Y-57.386 Z0.000
G1 X52.365 Y-57.392 Z0.000
G1 X52.315 Y-57.409 Z0.000
G1 X52.283 Y-57.432 Z0.000
G1 X52.266 Y-57.460 Z0.000
G1 X52.264 Y-57.502 Z0.000
G1 X52.281 Y-57.545 Z0.000
G1 X52.315 Y-57.577 Z0.000
G1 X52.363 Y-57.595 Z0.000
G1 X52.421 Y-57.598 Z0.000
G1 X52.474 Y-57.586 Z0.000
G1 X52.515 Y-57.562 Z0.000
G1 X52.543 Y-57.529 Z0.000
G1 X52.550 Y-57.503 Z0.000
G1 X52.610 Y-57.503 Z0.000
G1 X52.617 Y-57.503 Z0.000
G0 X52.617 Y-57.503 Z4.000

(shape postamble)


(shape preamble)

G0 X52.881 Y-57.531 Z4.000
G1 X52.881 Y-57.531 Z0.000
G1 X52.878 Y-57.566 Z0.000
G1 X52.871 Y-57.637 Z0.000
G1 X52.814 Y-57.570 Z0.000
G1 X52.818 Y-57.450 Z0.000
G1 X52.818 Y-57.072 Z0.000
G1 X52.874 Y-57.072 Z0.000
G1 X52.874 Y-57.185 Z0.000
G1 X52.890 Y-57.166 Z0.000
G1 X52.925 Y-57.118 Z0.000
G1 X52.969 Y-57.084 Z0.000
G1 X53.022 Y-57.065 Z0.000
G1 X53.078 Y-57.062 Z0.000
G1 X53.125 Y-57.071 Z0.000
G1 X53.182 Y-57.098 Z0.000
G1 X53.247 Y-57.171 Z0.000
G1 X53.285 Y-57.273 Z0.000
G1 X53.291 Y-57.397 Z0.000
G1 X53.262 Y-57.507 Z0.000
G1 X53.204 Y-57.591 Z0.000
G1 X53.138 Y-57.633 Z0.000
G1 X53.093 Y-57.646 Z0.000
G1 X53.042 Y-57.647 Z0.000
G1 X52.989 Y-57.635 Z0.000
G1 X52.942 Y-57.607 Z0.000
G1 X52.904 Y-57.566 Z0.000
G1 X52.885 Y-57.531 Z0.000
G1 X52.881 Y-57.531 Z0.000
G1 X52.878 Y-57.390 Z0.000
G1 X52.899 Y-57.480 Z0.000
G1 X52.941 Y-57.546 Z0.000
G1 X53.000 Y-57.585 Z0.000
G1 X53.072 Y-57.591 Z0.000
G1 X53.138 Y-57.562 Z0.000
G1 X53.188 Y-57.503 Z0.000
G1 X53.219 Y-57.421 Z0.000
G1 X53.224 Y-57.320 Z0.000
G1 X53.202 Y-57.231 Z0.000
G1 X53.157 Y-57.164 Z0.000
G1 X53.095 Y-57.124 Z0.000
G1 X53.017 Y-57.118 Z0.000
G1 X52.952 Y-57.147 Z0.000
G1 X52.905 Y-57.204 Z0.000
G1 X52.878 Y-57.287 Z0.000
G1 X52.874 Y-57.355 Z0.000
G1 X52.878 Y-57.355 Z0.000
G0 X52.878 Y-57.355 Z4.000

(shape postamble)


(shape preamble)

G0 X53.682 Y-57.637 Z4.000
G1 X53.682 Y-57.637 Z0.000
G1 X53.601 Y-57.637 Z0.000
G1 X53.414 Y-57.072 Z0.000
G1 X53.478 Y-57.072 Z0.000
G1 X53.636 Y-57.570 Z0.000
G1 X53.640 Y-57.570 Z0.000
G1 X53.806 Y-57.072 Z0.000
G1 X53.869 Y-57.072 Z0.000
G1 X53.679 Y-57.637 Z0.000
G1 X53.682 Y-57.637 Z0.000
G0 X53.682 Y-57.637 Z4.000

(shape postamble)


(shape preamble)

G0 X54.113 Y-57.531 Z4.000
G1 X54.113 Y-57.531 Z0.000
G1 X54.109 Y-57.566 Z0.000
G1 X54.102 Y-57.637 Z0.000
G1 X54.046 Y-57.570 Z0.000
G1 X54.049 Y-57.450 Z0.000
G1 X54.049 Y-57.072 Z0.000
G1 X54.106 Y-57.072 Z0.000
G1 X54.106 Y-57.185 Z0.000
G1 X54.118 Y-57.166 Z0.000
G1 X54.153 Y-57.118 Z0.000
G1 X54.197 Y-57.084 Z0.000
G1 X54.250 Y-57.065 Z0.000
G1 X54.306 Y-57.062 Z0.000
G1 X54.353 Y-57.071 Z0.000
G1 X54.409 Y-57.098 Z0.000
G1 X54.474 Y-57.171 Z0.000
G1 X54.512 Y-57.273 Z0.000
G1 X54.518 Y-57.397 Z0.000
G1 X54.490 Y-57.507 Z0.000
G1 X54.432 Y-57.591 Z0.000
G1 X54.366 Y-57.633 Z0.000
G1 X54.321 Y-57.646 Z0.000
G1 X54.270 Y-57.647 Z0.000
G1 X54.216 Y-57.635 Z0.000
G1 X54.170 Y-57.607 Z0.000
G1 X54.132 Y-57.566 Z0.000
G1 X54.113 Y-57.531 Z0.000
G1 X54.109 Y-57.390 Z0.000
G1 X54.130 Y-57.480 Z0.000
G1 X54.172 Y-57.546 Z0.000
G1 X54.231 Y-57.585 Z0.000
G1 X54.303 Y-57.591 Z0.000
G1 X54.369 Y-57.562 Z0.000
G1 X54.420 Y-57.503 Z0.000
G1 X54.450 Y-57.421 Z0.000
G1 X54.455 Y-57.320 Z0.000
G1 X54.433 Y-57.231 Z0.000
G1 X54.389 Y-57.164 Z0.000
G1 X54.326 Y-57.124 Z0.000
G1 X54.248 Y-57.118 Z0.000
G1 X54.183 Y-57.147 Z0.000
G1 X54.136 Y-57.204 Z0.000
G1 X54.110 Y-57.287 Z0.000
G1 X54.106 Y-57.355 Z0.000
G1 X54.109 Y-57.355 Z0.000
G0 X54.109 Y-57.355 Z4.000

(shape postamble)


(shape preamble)

G0 X53.876 Y-56.392 Z4.000
G1 X53.876 Y-56.392 Z0.000
G1 X53.749 Y-56.392 Z0.000
G1 X53.749 Y-56.240 Z0.000
G1 X53.668 Y-56.148 Z0.000
G1 X53.513 Y-56.392 Z0.000
G1 X53.368 Y-56.392 Z0.000
G1 X53.587 Y-56.056 Z0.000
G1 X53.386 Y-55.827 Z0.000
G1 X53.541 Y-55.827 Z0.000
G1 X53.753 Y-56.071 Z0.000
G1 X53.753 Y-55.619 Z0.000
G1 X53.880 Y-55.619 Z0.000
G1 X53.880 Y-56.392 Z0.000
G1 X53.876 Y-56.392 Z0.000
G0 X53.876 Y-56.392 Z4.000

(shape postamble)


(shape preamble)

G0 X54.518 Y-56.194 Z4.000
G1 X54.518 Y-56.194 Z0.000
G1 X54.517 Y-56.225 Z0.000
G1 X54.484 Y-56.305 Z0.000
G1 X54.419 Y-56.365 Z0.000
G1 X54.329 Y-56.400 Z0.000
G1 X54.220 Y-56.406 Z0.000
G1 X54.126 Y-56.379 Z0.000
G1 X54.057 Y-56.323 Z0.000
G1 X54.016 Y-56.244 Z0.000
G1 X54.010 Y-56.151 Z0.000
G1 X54.033 Y-56.077 Z0.000
G1 X54.084 Y-56.020 Z0.000
G1 X54.163 Y-55.980 Z0.000
G1 X54.233 Y-55.965 Z0.000
G1 X54.293 Y-55.954 Z0.000
G1 X54.334 Y-55.939 Z0.000
G1 X54.361 Y-55.918 Z0.000
G1 X54.375 Y-55.889 Z0.000
G1 X54.377 Y-55.851 Z0.000
G1 X54.364 Y-55.813 Z0.000
G1 X54.335 Y-55.785 Z0.000
G1 X54.295 Y-55.770 Z0.000
G1 X54.244 Y-55.767 Z0.000
G1 X54.200 Y-55.778 Z0.000
G1 X54.166 Y-55.798 Z0.000
G1 X54.143 Y-55.828 Z0.000
G1 X54.137 Y-55.852 Z0.000
G1 X54.018 Y-55.823 Z0.000
G1 X54.051 Y-55.748 Z0.000
G1 X54.113 Y-55.692 Z0.000
G1 X54.199 Y-55.659 Z0.000
G1 X54.303 Y-55.654 Z0.000
G1 X54.394 Y-55.680 Z0.000
G1 X54.462 Y-55.735 Z0.000
G1 X54.502 Y-55.812 Z0.000
G1 X54.508 Y-55.905 Z0.000
G1 X54.486 Y-55.976 Z0.000
G1 X54.437 Y-56.031 Z0.000
G1 X54.362 Y-56.069 Z0.000
G1 X54.296 Y-56.085 Z0.000
G1 X54.234 Y-56.095 Z0.000
G1 X54.189 Y-56.111 Z0.000
G1 X54.159 Y-56.135 Z0.000
G1 X54.143 Y-56.165 Z0.000
G1 X54.141 Y-56.206 Z0.000
G1 X54.156 Y-56.247 Z0.000
G1 X54.186 Y-56.276 Z0.000
G1 X54.229 Y-56.294 Z0.000
G1 X54.283 Y-56.296 Z0.000
G1 X54.331 Y-56.284 Z0.000
G1 X54.368 Y-56.259 Z0.000
G1 X54.392 Y-56.225 Z0.000
G1 X54.398 Y-56.198 Z0.000
G1 X54.518 Y-56.198 Z0.000
G1 X54.518 Y-56.194 Z0.000
G0 X54.518 Y-56.194 Z4.000

(shape postamble)


(shape preamble)

G0 X55.453 Y-56.190 Z4.000
G1 X55.453 Y-56.190 Z0.000
G1 X55.453 Y-55.619 Z0.000
G1 X55.739 Y-55.619 Z0.000
G1 X55.739 Y-55.735 Z0.000
G1 X55.577 Y-55.735 Z0.000
G1 X55.577 Y-56.225 Z0.000
G1 X55.555 Y-56.308 Z0.000
G1 X55.507 Y-56.366 Z0.000
G1 X55.435 Y-56.398 Z0.000
G1 X55.351 Y-56.402 Z0.000
G1 X55.290 Y-56.393 Z0.000
G1 X55.256 Y-56.381 Z0.000
G1 X55.271 Y-56.282 Z0.000
G1 X55.316 Y-56.295 Z0.000
G1 X55.365 Y-56.296 Z0.000
G1 X55.406 Y-56.285 Z0.000
G1 X55.433 Y-56.261 Z0.000
G1 X55.448 Y-56.224 Z0.000
G1 X55.450 Y-56.190 Z0.000
G1 X55.453 Y-56.190 Z0.000
G0 X55.453 Y-56.190 Z4.000

(shape postamble)


(shape preamble)

G0 X56.000 Y-56.109 Z4.000
G1 X56.000 Y-56.109 Z0.000
G1 X56.004 Y-56.061 Z0.000
G1 X56.026 Y-56.000 Z0.000
G1 X56.063 Y-55.955 Z0.000
G1 X56.112 Y-55.933 Z0.000
G1 X56.166 Y-55.938 Z0.000
G1 X56.212 Y-55.968 Z0.000
G1 X56.245 Y-56.019 Z0.000
G1 X56.261 Y-56.085 Z0.000
G1 X56.258 Y-56.157 Z0.000
G1 X56.235 Y-56.219 Z0.000
G1 X56.198 Y-56.263 Z0.000
G1 X56.149 Y-56.286 Z0.000
G1 X56.095 Y-56.281 Z0.000
G1 X56.049 Y-56.252 Z0.000
G1 X56.016 Y-56.201 Z0.000
G1 X56.000 Y-56.135 Z0.000
G1 X56.004 Y-56.300 Z0.000
G1 X56.000 Y-56.300 Z0.000
G1 X56.017 Y-56.331 Z0.000
G1 X56.050 Y-56.368 Z0.000
G1 X56.090 Y-56.391 Z0.000
G1 X56.138 Y-56.402 Z0.000
G1 X56.187 Y-56.400 Z0.000
G1 X56.232 Y-56.387 Z0.000
G1 X56.297 Y-56.344 Z0.000
G1 X56.353 Y-56.260 Z0.000
G1 X56.381 Y-56.151 Z0.000
G1 X56.375 Y-56.029 Z0.000
G1 X56.337 Y-55.927 Z0.000
G1 X56.273 Y-55.853 Z0.000
G1 X56.217 Y-55.826 Z0.000
G1 X56.172 Y-55.817 Z0.000
G1 X56.121 Y-55.819 Z0.000
G1 X56.076 Y-55.835 Z0.000
G1 X56.038 Y-55.864 Z0.000
G1 X56.008 Y-55.906 Z0.000
G1 X55.996 Y-55.922 Z0.000
G1 X55.996 Y-55.827 Z0.000
G1 X55.877 Y-55.827 Z0.000
G1 X55.877 Y-56.205 Z0.000
G1 X55.873 Y-56.325 Z0.000
G1 X55.989 Y-56.392 Z0.000
G1 X55.996 Y-56.332 Z0.000
G1 X56.004 Y-56.300 Z0.000
G0 X56.004 Y-56.300 Z4.000

(shape postamble)


(shape preamble)

G0 X56.614 Y-56.236 Z4.000
G1 X56.614 Y-56.236 Z0.000
G1 X56.619 Y-56.252 Z0.000
G1 X56.662 Y-56.284 Z0.000
G1 X56.728 Y-56.289 Z0.000
G1 X56.782 Y-56.268 Z0.000
G1 X56.821 Y-56.224 Z0.000
